(G-CODE GENERATED BY FLATCAM v8.994 - www.flatcam.org - Version Date: 2020/11/7)

(Name: FARESHARE PCB 2.0_drill.txt_cnc)
(Type: G-code from Geometry)
(Units: MM)

(Created on Friday, 19 April 2024 at 11:46)

(This preprocessor is the default preprocessor used by FlatCAM.)
(It is made to work with MACH3 compatible motion controllers.)


(TOOLS DIAMETER: )
(Tool: 1 -> Dia: 0.6999985999999999)
(Tool: 2 -> Dia: 0.7619999999999999)
(Tool: 3 -> Dia: 0.889)
(Tool: 4 -> Dia: 0.9652)
(Tool: 5 -> Dia: 0.999998)
(Tool: 6 -> Dia: 1.016)
(Tool: 7 -> Dia: 2.54)

(FEEDRATE Z: )
(Tool: 1 -> Feedrate: 300)
(Tool: 2 -> Feedrate: 300)
(Tool: 3 -> Feedrate: 300)
(Tool: 4 -> Feedrate: 300)
(Tool: 5 -> Feedrate: 300)
(Tool: 6 -> Feedrate: 300)
(Tool: 7 -> Feedrate: 300)

(FEEDRATE RAPIDS: )
(Tool: 1 -> Feedrate Rapids: 1500)
(Tool: 2 -> Feedrate Rapids: 1500)
(Tool: 3 -> Feedrate Rapids: 1500)
(Tool: 4 -> Feedrate Rapids: 1500)
(Tool: 5 -> Feedrate Rapids: 1500)
(Tool: 6 -> Feedrate Rapids: 1500)
(Tool: 7 -> Feedrate Rapids: 1500)

(Z_CUT: )
(Tool: 1 -> Z_Cut: -1.8)
(Tool: 2 -> Z_Cut: -1.8)
(Tool: 3 -> Z_Cut: -1.8)
(Tool: 4 -> Z_Cut: -1.8)
(Tool: 5 -> Z_Cut: -1.8)
(Tool: 6 -> Z_Cut: -1.8)
(Tool: 7 -> Z_Cut: -1.8)

(Tools Offset: )
(Tool: 1 -> Offset Z: 0.0)
(Tool: 2 -> Offset Z: 0.0)
(Tool: 3 -> Offset Z: 0.0)
(Tool: 4 -> Offset Z: 0.0)
(Tool: 5 -> Offset Z: 0.0)
(Tool: 6 -> Offset Z: 0.0)
(Tool: 7 -> Offset Z: 0.0)

(Z_MOVE: )
(Tool: 1 -> Z_Move: 2)
(Tool: 2 -> Z_Move: 2)
(Tool: 3 -> Z_Move: 2)
(Tool: 4 -> Z_Move: 2)
(Tool: 5 -> Z_Move: 2)
(Tool: 6 -> Z_Move: 2)
(Tool: 7 -> Z_Move: 2)

(Z Toolchange: 15 mm)
(X,Y Toolchange: 0.0000, 0.0000 mm)
(Z Start: None mm)
(Z End: 0.5 mm)
(X,Y End: None mm)
(Steps per circle: 64)
(Preprocessor Excellon: default)

(X range:    7.2415 ...   67.0382  mm)
(Y range:    2.0218 ...   51.2978  mm)

(Spindle Speed: 0 RPM)
G21
G90
G94

G01 F300.00

M5
G00 Z15.0000
T3M6
(MSG, Change to Tool Dia = 0.7000 ||| Total drills for tool T1 = 74)
M0
G00 Z15.0000

G01 F300.00
M03
G00 X26.5430 Y37.7088
G01 Z-1.8000
G01 Z0
G00 Z2.0000
G00 X25.4864 Y31.8059
G01 Z-1.8000
G01 Z0
G00 Z2.0000
G00 X25.4864 Y29.2659
G01 Z-1.8000
G01 Z0
G00 Z2.0000
G00 X25.4864 Y26.7259
G01 Z-1.8000
G01 Z0
G00 Z2.0000
G00 X25.4864 Y24.1859
G01 Z-1.8000
G01 Z0
G00 Z2.0000
G00 X25.4864 Y21.6459
G01 Z-1.8000
G01 Z0
G00 Z2.0000
G00 X25.4864 Y19.1059
G01 Z-1.8000
G01 Z0
G00 Z2.0000
G00 X25.4864 Y16.5659
G01 Z-1.8000
G01 Z0
G00 Z2.0000
G00 X25.4864 Y14.0259
G01 Z-1.8000
G01 Z0
G00 Z2.0000
G00 X18.5776 Y14.0259
G01 Z-1.8000
G01 Z0
G00 Z2.0000
G00 X13.4976 Y14.0259
G01 Z-1.8000
G01 Z0
G00 Z2.0000
G00 X13.4976 Y6.4059
G01 Z-1.8000
G01 Z0
G00 Z2.0000
G00 X18.5776 Y6.4059
G01 Z-1.8000
G01 Z0
G00 Z2.0000
G00 X28.1788 Y2.5324
G01 Z-1.8000
G01 Z0
G00 Z2.0000
G00 X30.7162 Y2.5324
G01 Z-1.8000
G01 Z0
G00 Z2.0000
G00 X33.2588 Y2.5298
G01 Z-1.8000
G01 Z0
G00 Z2.0000
G00 X35.7962 Y2.5298
G01 Z-1.8000
G01 Z0
G00 Z2.0000
G00 X38.3362 Y2.5298
G01 Z-1.8000
G01 Z0
G00 Z2.0000
G00 X40.8762 Y2.5298
G01 Z-1.8000
G01 Z0
G00 Z2.0000
G00 X43.4188 Y2.5298
G01 Z-1.8000
G01 Z0
G00 Z2.0000
G00 X45.9562 Y2.5298
G01 Z-1.8000
G01 Z0
G00 Z2.0000
G00 X51.0362 Y2.5298
G01 Z-1.8000
G01 Z0
G00 Z2.0000
G00 X53.5762 Y2.5298
G01 Z-1.8000
G01 Z0
G00 Z2.0000
G00 X56.1188 Y2.5298
G01 Z-1.8000
G01 Z0
G00 Z2.0000
G00 X58.6562 Y2.5298
G01 Z-1.8000
G01 Z0
G00 Z2.0000
G00 X61.1962 Y2.5298
G01 Z-1.8000
G01 Z0
G00 Z2.0000
G00 X63.7362 Y2.5298
G01 Z-1.8000
G01 Z0
G00 Z2.0000
G00 X60.8355 Y17.9095
G01 Z-1.8000
G01 Z0
G00 Z2.0000
G00 X58.2955 Y17.9095
G01 Z-1.8000
G01 Z0
G00 Z2.0000
G00 X55.7555 Y17.9095
G01 Z-1.8000
G01 Z0
G00 Z2.0000
G00 X53.2155 Y17.9095
G01 Z-1.8000
G01 Z0
G00 Z2.0000
G00 X50.6755 Y17.9095
G01 Z-1.8000
G01 Z0
G00 Z2.0000
G00 X43.6829 Y21.6205
G01 Z-1.8000
G01 Z0
G00 Z2.0000
G00 X43.6829 Y19.0805
G01 Z-1.8000
G01 Z0
G00 Z2.0000
G00 X38.1864 Y14.0259
G01 Z-1.8000
G01 Z0
G00 Z2.0000
G00 X38.1864 Y16.5659
G01 Z-1.8000
G01 Z0
G00 Z2.0000
G00 X38.1864 Y19.1059
G01 Z-1.8000
G01 Z0
G00 Z2.0000
G00 X38.1864 Y21.6459
G01 Z-1.8000
G01 Z0
G00 Z2.0000
G00 X38.1864 Y24.1859
G01 Z-1.8000
G01 Z0
G00 Z2.0000
G00 X38.1864 Y26.7259
G01 Z-1.8000
G01 Z0
G00 Z2.0000
G00 X38.1864 Y29.2659
G01 Z-1.8000
G01 Z0
G00 Z2.0000
G00 X38.1864 Y31.8059
G01 Z-1.8000
G01 Z0
G00 Z2.0000
G00 X43.6829 Y26.7005
G01 Z-1.8000
G01 Z0
G00 Z2.0000
G00 X43.6829 Y24.1605
G01 Z-1.8000
G01 Z0
G00 Z2.0000
G00 X56.1061 Y30.0685
G01 Z-1.8000
G01 Z0
G00 Z2.0000
G00 X63.9902 Y27.9298
G01 Z-1.8000
G01 Z0
G00 Z2.0000
G00 X63.9902 Y25.3898
G01 Z-1.8000
G01 Z0
G00 Z2.0000
G00 X66.5302 Y25.3898
G01 Z-1.8000
G01 Z0
G00 Z2.0000
G00 X66.5302 Y27.9298
G01 Z-1.8000
G01 Z0
G00 Z2.0000
G00 X66.5302 Y30.4698
G01 Z-1.8000
G01 Z0
G00 Z2.0000
G00 X63.9902 Y30.4698
G01 Z-1.8000
G01 Z0
G00 Z2.0000
G00 X56.1061 Y40.2285
G01 Z-1.8000
G01 Z0
G00 Z2.0000
G00 X63.7362 Y50.7898
G01 Z-1.8000
G01 Z0
G00 Z2.0000
G00 X61.1962 Y50.7898
G01 Z-1.8000
G01 Z0
G00 Z2.0000
G00 X58.6562 Y50.7898
G01 Z-1.8000
G01 Z0
G00 Z2.0000
G00 X56.1188 Y50.7898
G01 Z-1.8000
G01 Z0
G00 Z2.0000
G00 X53.5762 Y50.7898
G01 Z-1.8000
G01 Z0
G00 Z2.0000
G00 X51.0362 Y50.7898
G01 Z-1.8000
G01 Z0
G00 Z2.0000
G00 X48.4962 Y50.7898
G01 Z-1.8000
G01 Z0
G00 Z2.0000
G00 X45.9562 Y50.7898
G01 Z-1.8000
G01 Z0
G00 Z2.0000
G00 X41.8948 Y50.7898
G01 Z-1.8000
G01 Z0
G00 Z2.0000
G00 X39.3522 Y50.7898
G01 Z-1.8000
G01 Z0
G00 Z2.0000
G00 X36.8148 Y50.7898
G01 Z-1.8000
G01 Z0
G00 Z2.0000
G00 X34.2722 Y50.7898
G01 Z-1.8000
G01 Z0
G00 Z2.0000
G00 X31.7322 Y50.7898
G01 Z-1.8000
G01 Z0
G00 Z2.0000
G00 X29.1922 Y50.7898
G01 Z-1.8000
G01 Z0
G00 Z2.0000
G00 X26.6522 Y50.7898
G01 Z-1.8000
G01 Z0
G00 Z2.0000
G00 X24.1122 Y50.7898
G01 Z-1.8000
G01 Z0
G00 Z2.0000
G00 X21.5722 Y50.7898
G01 Z-1.8000
G01 Z0
G00 Z2.0000
G00 X19.0322 Y50.7898
G01 Z-1.8000
G01 Z0
G00 Z2.0000
G00 X8.5115 Y37.8257
G01 Z-1.8000
G01 Z0
G00 Z2.0000
G00 X11.5595 Y32.9997
G01 Z-1.8000
G01 Z0
G00 Z2.0000
G00 X14.6075 Y37.8257
G01 Z-1.8000
G01 Z0
G00 Z2.0000
G00 X26.5430 Y42.7888
G01 Z-1.8000
G01 Z0
G00 Z2.0000
M05
G00 Z0.50


