(G-CODE GENERATED BY FLATCAM v8.994 - www.flatcam.org - Version Date: 2020/11/7)

(Name: FARESHARE PCB 2.0_copperTop.gtl_iso_combined_cnc)
(Type: G-code from Geometry)
(Units: MM)

(Created on Friday, 19 April 2024 at 10:53)

(This preprocessor is the default preprocessor used by FlatCAM.)
(It is made to work with MACH3 compatible motion controllers.)

(TOOL DIAMETER: 0.2536 mm)
(Feedrate_XY: 120.0 mm/min)
(Feedrate_Z: 60.0 mm/min)
(Feedrate rapids 1500.0 mm/min)

(Z_Cut: -0.1 mm)
(Z_Move: 2.0 mm)
(Z Start: None mm)
(Z End: 15.0 mm)
(X,Y End: None mm)
(Steps per circle: 64)
(Preprocessor Geometry: default)

(X range:    6.6042 ...   67.4114  mm)
(Y range:    1.6512 ...   51.6888  mm)

(Spindle Speed: 0.0 RPM)
G21
G90
G94

G01 F120.00

M5
G00 Z15.0000
G00 X0.0000 Y0.0000
T2M6    
(MSG, Change to Tool Dia = 0.2536)
M0
G00 Z15.0000

M03
G01 F120.00
G00 X12.6068 Y6.3946
G01 F60.00
G01 Z-0.1000
G01 F120.00
G01 X12.6104 Y6.3207
G01 X12.6116 Y6.3083
G01 X12.6235 Y6.2290
G01 X12.6367 Y6.1757
G01 X12.6367 Y5.6515
G01 X12.6377 Y5.6360
G01 X12.6405 Y5.6207
G01 X12.6452 Y5.6059
G01 X12.6517 Y5.5917
G01 X12.6598 Y5.5785
G01 X12.6695 Y5.5663
G01 X12.6807 Y5.5555
G01 X12.6931 Y5.5461
G01 X12.7065 Y5.5382
G01 X12.7208 Y5.5321
G01 X12.7327 Y5.5285
G01 X12.7480 Y5.5257
G01 X12.7604 Y5.5247
G01 X13.3971 Y5.5247
G01 X13.4073 Y5.5238
G01 X13.4874 Y5.5200
G01 X13.5675 Y5.5238
G01 X13.5777 Y5.5247
G01 X14.2652 Y5.5247
G01 X14.2807 Y5.5261
G01 X14.2929 Y5.5285
G01 X14.3048 Y5.5321
G01 X14.3163 Y5.5369
G01 X14.3299 Y5.5444
G01 X14.3376 Y5.5497
G01 X14.3449 Y5.5555
G01 X14.3518 Y5.5618
G01 X14.3581 Y5.5687
G01 X14.3639 Y5.5760
G01 X14.3692 Y5.5837
G01 X14.3739 Y5.5917
G01 X14.3780 Y5.6001
G01 X14.3834 Y5.6147
G01 X14.3870 Y5.6298
G01 X14.3883 Y5.6391
G01 X14.3889 Y5.6484
G01 X14.3889 Y7.1755
G01 X14.3883 Y7.1879
G01 X14.3858 Y7.2033
G01 X14.3825 Y7.2153
G01 X14.3767 Y7.2297
G01 X14.3692 Y7.2433
G01 X14.3639 Y7.2510
G01 X14.3581 Y7.2583
G01 X14.3518 Y7.2652
G01 X14.3449 Y7.2715
G01 X14.3376 Y7.2773
G01 X14.3299 Y7.2826
G01 X14.3219 Y7.2873
G01 X14.3135 Y7.2914
G01 X14.2989 Y7.2968
G01 X14.2899 Y7.2992
G01 X14.2807 Y7.3009
G01 X14.2652 Y7.3023
G01 X12.7635 Y7.3023
G01 X12.7480 Y7.3013
G01 X12.7357 Y7.2992
G01 X12.7208 Y7.2949
G01 X12.7093 Y7.2901
G01 X12.6957 Y7.2826
G01 X12.6831 Y7.2735
G01 X12.6717 Y7.2629
G01 X12.6617 Y7.2510
G01 X12.6532 Y7.2380
G01 X12.6489 Y7.2297
G01 X12.6452 Y7.2211
G01 X12.6405 Y7.2063
G01 X12.6377 Y7.1910
G01 X12.6367 Y7.1755
G01 X12.6367 Y6.6259
G01 X12.6235 Y6.5726
G01 X12.6112 Y6.4902
G01 X12.6104 Y6.4809
G01 X12.6068 Y6.4070
G01 X12.6068 Y6.3946
G00 Z2.0000
G00 X17.6868 Y6.3946
G01 F60.00
G01 Z-0.1000
G01 F120.00
G01 X17.6904 Y6.3207
G01 X17.6916 Y6.3083
G01 X17.7035 Y6.2290
G01 X17.7167 Y6.1757
G01 X17.7167 Y5.6515
G01 X17.7177 Y5.6360
G01 X17.7205 Y5.6207
G01 X17.7252 Y5.6059
G01 X17.7317 Y5.5917
G01 X17.7398 Y5.5785
G01 X17.7495 Y5.5663
G01 X17.7607 Y5.5555
G01 X17.7731 Y5.5461
G01 X17.7865 Y5.5382
G01 X17.7979 Y5.5332
G01 X17.8127 Y5.5285
G01 X17.8280 Y5.5257
G01 X17.8404 Y5.5247
G01 X18.4771 Y5.5247
G01 X18.4873 Y5.5238
G01 X18.5674 Y5.5200
G01 X18.6475 Y5.5238
G01 X18.6577 Y5.5247
G01 X19.3198 Y5.5247
G01 X19.3353 Y5.5261
G01 X19.3475 Y5.5285
G01 X19.3594 Y5.5321
G01 X19.3709 Y5.5369
G01 X19.3792 Y5.5412
G01 X19.3871 Y5.5461
G01 X19.3995 Y5.5555
G01 X19.4085 Y5.5641
G01 X19.4182 Y5.5755
G01 X19.4273 Y5.5829
G01 X19.4339 Y5.5895
G01 X19.4439 Y5.6014
G01 X19.4492 Y5.6091
G01 X19.4539 Y5.6171
G01 X19.4580 Y5.6255
G01 X19.4615 Y5.6342
G01 X19.4643 Y5.6431
G01 X19.4665 Y5.6522
G01 X19.4679 Y5.6614
G01 X19.4687 Y5.6707
G01 X19.4689 Y7.1755
G01 X19.4683 Y7.1879
G01 X19.4658 Y7.2033
G01 X19.4625 Y7.2153
G01 X19.4567 Y7.2297
G01 X19.4524 Y7.2380
G01 X19.4475 Y7.2459
G01 X19.4421 Y7.2535
G01 X19.4361 Y7.2607
G01 X19.4295 Y7.2673
G01 X19.4225 Y7.2735
G01 X19.4099 Y7.2826
G01 X19.3963 Y7.2901
G01 X19.3877 Y7.2938
G01 X19.3789 Y7.2968
G01 X19.3699 Y7.2992
G01 X19.3607 Y7.3009
G01 X19.3452 Y7.3023
G01 X17.8435 Y7.3023
G01 X17.8280 Y7.3013
G01 X17.8157 Y7.2992
G01 X17.8037 Y7.2959
G01 X17.7893 Y7.2901
G01 X17.7757 Y7.2826
G01 X17.7631 Y7.2735
G01 X17.7517 Y7.2629
G01 X17.7417 Y7.2510
G01 X17.7332 Y7.2380
G01 X17.7264 Y7.2240
G01 X17.7213 Y7.2093
G01 X17.7191 Y7.2002
G01 X17.7177 Y7.1910
G01 X17.7167 Y7.1755
G01 X17.7167 Y6.6259
G01 X17.7035 Y6.5726
G01 X17.6912 Y6.4902
G01 X17.6904 Y6.4809
G01 X17.6868 Y6.4070
G01 X17.6868 Y6.3946
G00 Z2.0000
G00 X17.6868 Y14.0146
G01 F60.00
G01 Z-0.1000
G01 F120.00
G01 X17.6904 Y13.9407
G01 X17.6916 Y13.9283
G01 X17.7035 Y13.8490
G01 X17.7167 Y13.7957
G01 X17.7167 Y13.2715
G01 X17.7177 Y13.2560
G01 X17.7205 Y13.2407
G01 X17.7252 Y13.2259
G01 X17.7317 Y13.2117
G01 X17.7398 Y13.1985
G01 X17.7495 Y13.1863
G01 X17.7607 Y13.1755
G01 X17.7731 Y13.1661
G01 X17.7865 Y13.1582
G01 X17.8008 Y13.1521
G01 X17.8127 Y13.1485
G01 X17.8280 Y13.1457
G01 X17.8404 Y13.1447
G01 X18.4771 Y13.1447
G01 X18.4873 Y13.1438
G01 X18.5674 Y13.1400
G01 X18.6475 Y13.1438
G01 X18.6577 Y13.1447
G01 X19.3452 Y13.1447
G01 X19.3576 Y13.1457
G01 X19.3699 Y13.1478
G01 X19.3819 Y13.1511
G01 X19.3963 Y13.1569
G01 X19.4046 Y13.1612
G01 X19.4125 Y13.1661
G01 X19.4201 Y13.1715
G01 X19.4273 Y13.1775
G01 X19.4381 Y13.1887
G01 X19.4439 Y13.1960
G01 X19.4492 Y13.2037
G01 X19.4567 Y13.2173
G01 X19.4604 Y13.2259
G01 X19.4634 Y13.2347
G01 X19.4670 Y13.2498
G01 X19.4683 Y13.2591
G01 X19.4689 Y13.2684
G01 X19.4689 Y14.7955
G01 X19.4679 Y14.8110
G01 X19.4658 Y14.8233
G01 X19.4625 Y14.8353
G01 X19.4567 Y14.8497
G01 X19.4492 Y14.8633
G01 X19.4439 Y14.8710
G01 X19.4381 Y14.8783
G01 X19.4273 Y14.8895
G01 X19.4201 Y14.8955
G01 X19.4125 Y14.9009
G01 X19.4046 Y14.9058
G01 X19.3963 Y14.9101
G01 X19.3877 Y14.9138
G01 X19.3789 Y14.9168
G01 X19.3699 Y14.9192
G01 X19.3607 Y14.9209
G01 X19.3452 Y14.9223
G01 X17.8435 Y14.9223
G01 X17.8311 Y14.9217
G01 X17.8157 Y14.9192
G01 X17.8037 Y14.9159
G01 X17.7893 Y14.9101
G01 X17.7757 Y14.9026
G01 X17.7631 Y14.8935
G01 X17.7517 Y14.8829
G01 X17.7417 Y14.8710
G01 X17.7332 Y14.8580
G01 X17.7264 Y14.8440
G01 X17.7213 Y14.8293
G01 X17.7191 Y14.8202
G01 X17.7177 Y14.8110
G01 X17.7167 Y14.7955
G01 X17.7167 Y14.2459
G01 X17.7035 Y14.1926
G01 X17.6912 Y14.1102
G01 X17.6904 Y14.1009
G01 X17.6868 Y14.0270
G01 X17.6868 Y14.0146
G00 Z2.0000
G00 X12.6068 Y14.0146
G01 F60.00
G01 Z-0.1000
G01 F120.00
G01 X12.6104 Y13.9407
G01 X12.6116 Y13.9283
G01 X12.6235 Y13.8490
G01 X12.6367 Y13.7957
G01 X12.6367 Y13.2715
G01 X12.6370 Y13.2622
G01 X12.6381 Y13.2529
G01 X12.6398 Y13.2437
G01 X12.6422 Y13.2347
G01 X12.6452 Y13.2259
G01 X12.6489 Y13.2173
G01 X12.6532 Y13.2090
G01 X12.6581 Y13.2011
G01 X12.6635 Y13.1935
G01 X12.6738 Y13.1818
G01 X12.6831 Y13.1735
G01 X12.6931 Y13.1661
G01 X12.7037 Y13.1597
G01 X12.7150 Y13.1544
G01 X12.7297 Y13.1493
G01 X12.7449 Y13.1461
G01 X12.7573 Y13.1449
G01 X13.3971 Y13.1447
G01 X13.4073 Y13.1438
G01 X13.4874 Y13.1400
G01 X13.5675 Y13.1438
G01 X13.5777 Y13.1447
G01 X13.5917 Y13.1447
G01 X17.2214 Y7.8828
G01 X17.2420 Y7.8554
G01 X17.2492 Y7.8468
G01 X17.2682 Y7.8261
G01 X17.2783 Y7.8161
G01 X17.2992 Y7.7973
G01 X17.3079 Y7.7902
G01 X17.3355 Y7.7699
G01 X17.3449 Y7.7638
G01 X17.3691 Y7.7495
G01 X17.3817 Y7.7429
G01 X17.4072 Y7.7310
G01 X17.4175 Y7.7267
G01 X17.4469 Y7.7163
G01 X17.4576 Y7.7130
G01 X17.4879 Y7.7055
G01 X17.4988 Y7.7033
G01 X17.5297 Y7.6989
G01 X17.5408 Y7.6977
G01 X17.5751 Y7.6963
G01 X36.9697 Y7.6208
G01 X40.4157 Y3.8658
G01 X40.4299 Y3.3122
G01 X40.3748 Y3.2790
G01 X40.3097 Y3.2309
G01 X40.3000 Y3.2230
G01 X40.2446 Y3.1728
G01 X40.2358 Y3.1640
G01 X40.1816 Y3.1038
G01 X40.1296 Y3.0338
G01 X40.0848 Y2.9590
G01 X40.0500 Y2.8858
G01 X40.0452 Y2.8743
G01 X40.0181 Y2.7980
G01 X39.9982 Y2.7195
G01 X39.9958 Y2.7073
G01 X39.9844 Y2.6302
G01 X39.9836 Y2.6209
G01 X39.9798 Y2.5400
G01 X39.9841 Y2.4529
G01 X39.9969 Y2.3666
G01 X40.0181 Y2.2820
G01 X40.0475 Y2.1999
G01 X40.0848 Y2.1210
G01 X40.1296 Y2.0462
G01 X40.1777 Y1.9811
G01 X40.1836 Y1.9738
G01 X40.2358 Y1.9160
G01 X40.2446 Y1.9072
G01 X40.3048 Y1.8530
G01 X40.3697 Y1.8046
G01 X40.3801 Y1.7977
G01 X40.4496 Y1.7562
G01 X40.5228 Y1.7214
G01 X40.5343 Y1.7166
G01 X40.6106 Y1.6895
G01 X40.6891 Y1.6696
G01 X40.7013 Y1.6672
G01 X40.7815 Y1.6555
G01 X40.8624 Y1.6514
G01 X40.8748 Y1.6514
G01 X40.9557 Y1.6555
G01 X41.0359 Y1.6672
G01 X41.0481 Y1.6696
G01 X41.1266 Y1.6895
G01 X41.2029 Y1.7166
G01 X41.2144 Y1.7214
G01 X41.2876 Y1.7562
G01 X41.3571 Y1.7977
G01 X41.3675 Y1.8046
G01 X41.4324 Y1.8530
G01 X41.4971 Y1.9115
G01 X41.5516 Y1.9714
G01 X41.5595 Y1.9811
G01 X41.6076 Y2.0462
G01 X41.6494 Y2.1156
G01 X41.6552 Y2.1266
G01 X41.6897 Y2.1999
G01 X41.7172 Y2.2761
G01 X41.7208 Y2.2880
G01 X41.7403 Y2.3666
G01 X41.7531 Y2.4529
G01 X41.7574 Y2.5400
G01 X41.7536 Y2.6209
G01 X41.7524 Y2.6333
G01 X41.7414 Y2.7073
G01 X41.7397 Y2.7164
G01 X41.7191 Y2.7980
G01 X41.6897 Y2.8801
G01 X41.6524 Y2.9590
G01 X41.6109 Y3.0285
G01 X41.6040 Y3.0389
G01 X41.5556 Y3.1038
G01 X41.5014 Y3.1640
G01 X41.4926 Y3.1728
G01 X41.4372 Y3.2230
G01 X41.4275 Y3.2309
G01 X41.3624 Y3.2790
G01 X41.2935 Y3.3205
G01 X41.2748 Y4.0497
G01 X41.2741 Y4.0656
G01 X41.2720 Y4.0888
G01 X41.2694 Y4.1077
G01 X41.2636 Y4.1367
G01 X41.2605 Y4.1491
G01 X41.2540 Y4.1715
G01 X41.2477 Y4.1895
G01 X41.2364 Y4.2168
G01 X41.2310 Y4.2284
G01 X41.2201 Y4.2491
G01 X41.2105 Y4.2655
G01 X41.1959 Y4.2876
G01 X41.1865 Y4.3004
G01 X41.1718 Y4.3186
G01 X41.1613 Y4.3305
G01 X37.4783 Y8.3437
G01 X37.4667 Y8.3559
G01 X37.4482 Y8.3735
G01 X37.4330 Y8.3864
G01 X37.4127 Y8.4020
G01 X37.3989 Y8.4116
G01 X37.3799 Y8.4235
G01 X37.3679 Y8.4303
G01 X37.3452 Y8.4419
G01 X37.3270 Y8.4500
G01 X37.3031 Y8.4592
G01 X37.2871 Y8.4645
G01 X37.2625 Y8.4713
G01 X37.2461 Y8.4749
G01 X37.2209 Y8.4793
G01 X37.2042 Y8.4813
G01 X37.1787 Y8.4832
G01 X37.1619 Y8.4835
G01 X17.8041 Y8.5589
G01 X14.3889 Y13.5098
G01 X14.3889 Y14.7986
G01 X14.3879 Y14.8110
G01 X14.3865 Y14.8202
G01 X14.3834 Y14.8323
G01 X14.3792 Y14.8440
G01 X14.3739 Y14.8553
G01 X14.3692 Y14.8633
G01 X14.3621 Y14.8735
G01 X14.3539 Y14.8829
G01 X14.3449 Y14.8915
G01 X14.3351 Y14.8992
G01 X14.3246 Y14.9058
G01 X14.3135 Y14.9114
G01 X14.3019 Y14.9159
G01 X14.2899 Y14.9192
G01 X14.2776 Y14.9213
G01 X14.2652 Y14.9223
G01 X12.7635 Y14.9223
G01 X12.7511 Y14.9217
G01 X12.7357 Y14.9192
G01 X12.7208 Y14.9149
G01 X12.7065 Y14.9088
G01 X12.6931 Y14.9009
G01 X12.6807 Y14.8915
G01 X12.6695 Y14.8807
G01 X12.6598 Y14.8685
G01 X12.6517 Y14.8553
G01 X12.6452 Y14.8411
G01 X12.6405 Y14.8263
G01 X12.6377 Y14.8110
G01 X12.6367 Y14.7955
G01 X12.6367 Y14.2459
G01 X12.6235 Y14.1926
G01 X12.6112 Y14.1102
G01 X12.6104 Y14.1009
G01 X12.6068 Y14.0270
G01 X12.6068 Y14.0146
G00 Z2.0000
G00 X26.4918 Y14.0270
G01 F60.00
G01 Z-0.1000
G01 F120.00
G01 X26.4871 Y14.1204
G01 X26.4725 Y14.2190
G01 X26.4483 Y14.3157
G01 X26.4147 Y14.4095
G01 X26.3721 Y14.4996
G01 X26.3208 Y14.5851
G01 X26.2614 Y14.6652
G01 X26.1945 Y14.7391
G01 X26.1206 Y14.8060
G01 X26.0405 Y14.8654
G01 X25.9550 Y14.9167
G01 X25.8649 Y14.9593
G01 X25.7711 Y14.9929
G01 X25.6744 Y15.0171
G01 X25.5758 Y15.0317
G01 X25.4762 Y15.0366
G01 X25.3766 Y15.0317
G01 X25.2780 Y15.0171
G01 X25.1813 Y14.9929
G01 X25.0875 Y14.9593
G01 X24.9974 Y14.9167
G01 X24.9119 Y14.8654
G01 X24.8318 Y14.8060
G01 X24.7579 Y14.7391
G01 X24.6910 Y14.6652
G01 X24.6316 Y14.5851
G01 X24.5803 Y14.4996
G01 X24.5377 Y14.4095
G01 X24.5041 Y14.3157
G01 X24.4799 Y14.2190
G01 X24.4653 Y14.1204
G01 X24.4604 Y14.0208
G01 X24.4653 Y13.9212
G01 X24.4799 Y13.8226
G01 X24.5041 Y13.7259
G01 X24.5377 Y13.6321
G01 X24.5803 Y13.5420
G01 X24.6316 Y13.4565
G01 X24.6910 Y13.3764
G01 X24.7579 Y13.3025
G01 X24.8318 Y13.2356
G01 X24.9119 Y13.1762
G01 X24.9974 Y13.1249
G01 X25.0875 Y13.0823
G01 X25.1813 Y13.0487
G01 X25.2780 Y13.0245
G01 X25.3766 Y13.0099
G01 X25.4762 Y13.0050
G01 X25.5758 Y13.0099
G01 X25.6744 Y13.0245
G01 X25.7711 Y13.0487
G01 X25.8649 Y13.0823
G01 X25.9550 Y13.1249
G01 X26.0405 Y13.1762
G01 X26.1206 Y13.2356
G01 X26.1945 Y13.3025
G01 X26.2614 Y13.3764
G01 X26.3208 Y13.4565
G01 X26.3721 Y13.5420
G01 X26.4147 Y13.6321
G01 X26.4483 Y13.7259
G01 X26.4725 Y13.8226
G01 X26.4871 Y13.9212
G01 X26.4918 Y14.0146
G01 X26.4918 Y14.0270
G00 Z2.0000
G00 X26.4918 Y16.5670
G01 F60.00
G01 Z-0.1000
G01 F120.00
G01 X26.4871 Y16.6604
G01 X26.4725 Y16.7590
G01 X26.4483 Y16.8557
G01 X26.4147 Y16.9495
G01 X26.3721 Y17.0396
G01 X26.3208 Y17.1251
G01 X26.2614 Y17.2052
G01 X26.1945 Y17.2791
G01 X26.1206 Y17.3460
G01 X26.0405 Y17.4054
G01 X25.9550 Y17.4567
G01 X25.8649 Y17.4993
G01 X25.7711 Y17.5329
G01 X25.6744 Y17.5571
G01 X25.5758 Y17.5717
G01 X25.4762 Y17.5766
G01 X25.3766 Y17.5717
G01 X25.2780 Y17.5571
G01 X25.1813 Y17.5329
G01 X25.0875 Y17.4993
G01 X24.9974 Y17.4567
G01 X24.9119 Y17.4054
G01 X24.8318 Y17.3460
G01 X24.7579 Y17.2791
G01 X24.6910 Y17.2052
G01 X24.6316 Y17.1251
G01 X24.5803 Y17.0396
G01 X24.5377 Y16.9495
G01 X24.5041 Y16.8557
G01 X24.4799 Y16.7590
G01 X24.4653 Y16.6604
G01 X24.4604 Y16.5608
G01 X24.4653 Y16.4612
G01 X24.4799 Y16.3626
G01 X24.5041 Y16.2659
G01 X24.5377 Y16.1721
G01 X24.5803 Y16.0820
G01 X24.6316 Y15.9965
G01 X24.6910 Y15.9164
G01 X24.7579 Y15.8425
G01 X24.8318 Y15.7756
G01 X24.9119 Y15.7162
G01 X24.9974 Y15.6649
G01 X25.0875 Y15.6223
G01 X25.1813 Y15.5887
G01 X25.2780 Y15.5645
G01 X25.3766 Y15.5499
G01 X25.4762 Y15.5450
G01 X25.5758 Y15.5499
G01 X25.6744 Y15.5645
G01 X25.7711 Y15.5887
G01 X25.8649 Y15.6223
G01 X25.9550 Y15.6649
G01 X26.0405 Y15.7162
G01 X26.1206 Y15.7756
G01 X26.1945 Y15.8425
G01 X26.2614 Y15.9164
G01 X26.3208 Y15.9965
G01 X26.3721 Y16.0820
G01 X26.4147 Y16.1721
G01 X26.4483 Y16.2659
G01 X26.4725 Y16.3626
G01 X26.4871 Y16.4612
G01 X26.4918 Y16.5546
G01 X26.4918 Y16.5670
G00 Z2.0000
G00 X26.4918 Y19.1070
G01 F60.00
G01 Z-0.1000
G01 F120.00
G01 X26.4871 Y19.2004
G01 X26.4725 Y19.2990
G01 X26.4483 Y19.3957
G01 X26.4147 Y19.4895
G01 X26.3721 Y19.5796
G01 X26.3208 Y19.6651
G01 X26.2614 Y19.7452
G01 X26.1945 Y19.8191
G01 X26.1206 Y19.8860
G01 X26.0405 Y19.9454
G01 X25.9550 Y19.9967
G01 X25.8649 Y20.0393
G01 X25.7711 Y20.0729
G01 X25.6744 Y20.0971
G01 X25.5758 Y20.1117
G01 X25.4762 Y20.1166
G01 X25.3766 Y20.1117
G01 X25.2780 Y20.0971
G01 X25.1813 Y20.0729
G01 X25.0875 Y20.0393
G01 X24.9974 Y19.9967
G01 X24.9119 Y19.9454
G01 X24.8318 Y19.8860
G01 X24.7579 Y19.8191
G01 X24.6910 Y19.7452
G01 X24.6316 Y19.6651
G01 X24.5803 Y19.5796
G01 X24.5377 Y19.4895
G01 X24.5041 Y19.3957
G01 X24.4799 Y19.2990
G01 X24.4653 Y19.2004
G01 X24.4604 Y19.1008
G01 X24.4653 Y19.0012
G01 X24.4799 Y18.9026
G01 X24.5041 Y18.8059
G01 X24.5377 Y18.7121
G01 X24.5803 Y18.6220
G01 X24.6316 Y18.5365
G01 X24.6910 Y18.4564
G01 X24.7579 Y18.3825
G01 X24.8318 Y18.3156
G01 X24.9119 Y18.2562
G01 X24.9974 Y18.2049
G01 X25.0875 Y18.1623
G01 X25.1813 Y18.1287
G01 X25.2780 Y18.1045
G01 X25.3766 Y18.0899
G01 X25.4762 Y18.0850
G01 X25.5758 Y18.0899
G01 X25.6744 Y18.1045
G01 X25.7711 Y18.1287
G01 X25.8649 Y18.1623
G01 X25.9550 Y18.2049
G01 X26.0405 Y18.2562
G01 X26.1206 Y18.3156
G01 X26.1945 Y18.3825
G01 X26.2614 Y18.4564
G01 X26.3208 Y18.5365
G01 X26.3721 Y18.6220
G01 X26.4147 Y18.7121
G01 X26.4483 Y18.8059
G01 X26.4725 Y18.9026
G01 X26.4871 Y19.0012
G01 X26.4918 Y19.0946
G01 X26.4918 Y19.1070
G00 Z2.0000
G00 X26.4918 Y21.6470
G01 F60.00
G01 Z-0.1000
G01 F120.00
G01 X26.4871 Y21.7404
G01 X26.4725 Y21.8390
G01 X26.4483 Y21.9357
G01 X26.4147 Y22.0295
G01 X26.3721 Y22.1196
G01 X26.3208 Y22.2051
G01 X26.2614 Y22.2852
G01 X26.1945 Y22.3591
G01 X26.1206 Y22.4260
G01 X26.0405 Y22.4854
G01 X25.9550 Y22.5367
G01 X25.8649 Y22.5793
G01 X25.7711 Y22.6129
G01 X25.6744 Y22.6371
G01 X25.5758 Y22.6517
G01 X25.4762 Y22.6566
G01 X25.3766 Y22.6517
G01 X25.2780 Y22.6371
G01 X25.1813 Y22.6129
G01 X25.0875 Y22.5793
G01 X24.9974 Y22.5367
G01 X24.9119 Y22.4854
G01 X24.8318 Y22.4260
G01 X24.7579 Y22.3591
G01 X24.6910 Y22.2852
G01 X24.6316 Y22.2051
G01 X24.5803 Y22.1196
G01 X24.5377 Y22.0295
G01 X24.5041 Y21.9357
G01 X24.4799 Y21.8390
G01 X24.4653 Y21.7404
G01 X24.4604 Y21.6408
G01 X24.4653 Y21.5412
G01 X24.4799 Y21.4426
G01 X24.5041 Y21.3459
G01 X24.5377 Y21.2521
G01 X24.5803 Y21.1620
G01 X24.6316 Y21.0765
G01 X24.6910 Y20.9964
G01 X24.7579 Y20.9225
G01 X24.8318 Y20.8556
G01 X24.9119 Y20.7962
G01 X24.9974 Y20.7449
G01 X25.0875 Y20.7023
G01 X25.1813 Y20.6687
G01 X25.2780 Y20.6445
G01 X25.3766 Y20.6299
G01 X25.4762 Y20.6250
G01 X25.5758 Y20.6299
G01 X25.6744 Y20.6445
G01 X25.7711 Y20.6687
G01 X25.8649 Y20.7023
G01 X25.9550 Y20.7449
G01 X26.0405 Y20.7962
G01 X26.1206 Y20.8556
G01 X26.1945 Y20.9225
G01 X26.2614 Y20.9964
G01 X26.3208 Y21.0765
G01 X26.3721 Y21.1620
G01 X26.4147 Y21.2521
G01 X26.4483 Y21.3459
G01 X26.4725 Y21.4426
G01 X26.4871 Y21.5412
G01 X26.4918 Y21.6346
G01 X26.4918 Y21.6470
G00 Z2.0000
G00 X26.4918 Y24.1870
G01 F60.00
G01 Z-0.1000
G01 F120.00
G01 X26.4871 Y24.2804
G01 X26.4725 Y24.3790
G01 X26.4483 Y24.4757
G01 X26.4147 Y24.5695
G01 X26.3721 Y24.6596
G01 X26.3208 Y24.7451
G01 X26.2614 Y24.8252
G01 X26.1945 Y24.8991
G01 X26.1206 Y24.9660
G01 X26.0405 Y25.0254
G01 X25.9550 Y25.0767
G01 X25.8649 Y25.1193
G01 X25.7711 Y25.1529
G01 X25.6744 Y25.1771
G01 X25.5758 Y25.1917
G01 X25.4762 Y25.1966
G01 X25.3766 Y25.1917
G01 X25.2780 Y25.1771
G01 X25.1813 Y25.1529
G01 X25.0875 Y25.1193
G01 X24.9974 Y25.0767
G01 X24.9119 Y25.0254
G01 X24.8318 Y24.9660
G01 X24.7579 Y24.8991
G01 X24.6910 Y24.8252
G01 X24.6316 Y24.7451
G01 X24.5803 Y24.6596
G01 X24.5377 Y24.5695
G01 X24.5041 Y24.4757
G01 X24.4799 Y24.3790
G01 X24.4653 Y24.2804
G01 X24.4604 Y24.1808
G01 X24.4653 Y24.0812
G01 X24.4799 Y23.9826
G01 X24.5041 Y23.8859
G01 X24.5377 Y23.7921
G01 X24.5803 Y23.7020
G01 X24.6316 Y23.6165
G01 X24.6910 Y23.5364
G01 X24.7579 Y23.4625
G01 X24.8318 Y23.3956
G01 X24.9119 Y23.3362
G01 X24.9974 Y23.2849
G01 X25.0875 Y23.2423
G01 X25.1813 Y23.2087
G01 X25.2780 Y23.1845
G01 X25.3766 Y23.1699
G01 X25.4762 Y23.1650
G01 X25.5758 Y23.1699
G01 X25.6744 Y23.1845
G01 X25.7711 Y23.2087
G01 X25.8649 Y23.2423
G01 X25.9550 Y23.2849
G01 X26.0405 Y23.3362
G01 X26.1206 Y23.3956
G01 X26.1945 Y23.4625
G01 X26.2614 Y23.5364
G01 X26.3208 Y23.6165
G01 X26.3721 Y23.7020
G01 X26.4147 Y23.7921
G01 X26.4483 Y23.8859
G01 X26.4725 Y23.9826
G01 X26.4871 Y24.0812
G01 X26.4918 Y24.1746
G01 X26.4918 Y24.1870
G00 Z2.0000
G00 X26.4918 Y26.7270
G01 F60.00
G01 Z-0.1000
G01 F120.00
G01 X26.4871 Y26.8204
G01 X26.4725 Y26.9190
G01 X26.4483 Y27.0157
G01 X26.4147 Y27.1095
G01 X26.3721 Y27.1996
G01 X26.3208 Y27.2851
G01 X26.2614 Y27.3652
G01 X26.1945 Y27.4391
G01 X26.1206 Y27.5060
G01 X26.0405 Y27.5654
G01 X25.9550 Y27.6167
G01 X25.8649 Y27.6593
G01 X25.7711 Y27.6929
G01 X25.6744 Y27.7171
G01 X25.5758 Y27.7317
G01 X25.4762 Y27.7366
G01 X25.3766 Y27.7317
G01 X25.2780 Y27.7171
G01 X25.1813 Y27.6929
G01 X25.0875 Y27.6593
G01 X24.9974 Y27.6167
G01 X24.9119 Y27.5654
G01 X24.8318 Y27.5060
G01 X24.7579 Y27.4391
G01 X24.6910 Y27.3652
G01 X24.6316 Y27.2851
G01 X24.5803 Y27.1996
G01 X24.5377 Y27.1095
G01 X24.5041 Y27.0157
G01 X24.4799 Y26.9190
G01 X24.4653 Y26.8204
G01 X24.4604 Y26.7208
G01 X24.4653 Y26.6212
G01 X24.4799 Y26.5226
G01 X24.5041 Y26.4259
G01 X24.5377 Y26.3321
G01 X24.5803 Y26.2420
G01 X24.6316 Y26.1565
G01 X24.6910 Y26.0764
G01 X24.7579 Y26.0025
G01 X24.8318 Y25.9356
G01 X24.9119 Y25.8762
G01 X24.9974 Y25.8249
G01 X25.0875 Y25.7823
G01 X25.1813 Y25.7487
G01 X25.2780 Y25.7245
G01 X25.3766 Y25.7099
G01 X25.4762 Y25.7050
G01 X25.5758 Y25.7099
G01 X25.6744 Y25.7245
G01 X25.7711 Y25.7487
G01 X25.8649 Y25.7823
G01 X25.9550 Y25.8249
G01 X26.0405 Y25.8762
G01 X26.1206 Y25.9356
G01 X26.1945 Y26.0025
G01 X26.2614 Y26.0764
G01 X26.3208 Y26.1565
G01 X26.3721 Y26.2420
G01 X26.4147 Y26.3321
G01 X26.4483 Y26.4259
G01 X26.4725 Y26.5226
G01 X26.4871 Y26.6212
G01 X26.4918 Y26.7146
G01 X26.4918 Y26.7270
G00 Z2.0000
G00 X26.4918 Y29.2670
G01 F60.00
G01 Z-0.1000
G01 F120.00
G01 X26.4871 Y29.3604
G01 X26.4725 Y29.4590
G01 X26.4483 Y29.5557
G01 X26.4147 Y29.6495
G01 X26.3721 Y29.7396
G01 X26.3208 Y29.8251
G01 X26.2614 Y29.9052
G01 X26.1945 Y29.9791
G01 X26.1206 Y30.0460
G01 X26.0405 Y30.1054
G01 X25.9550 Y30.1567
G01 X25.8649 Y30.1993
G01 X25.7711 Y30.2329
G01 X25.6744 Y30.2571
G01 X25.5758 Y30.2717
G01 X25.4762 Y30.2766
G01 X25.3766 Y30.2717
G01 X25.2780 Y30.2571
G01 X25.1813 Y30.2329
G01 X25.0875 Y30.1993
G01 X24.9974 Y30.1567
G01 X24.9119 Y30.1054
G01 X24.8318 Y30.0460
G01 X24.7579 Y29.9791
G01 X24.6910 Y29.9052
G01 X24.6316 Y29.8251
G01 X24.5803 Y29.7396
G01 X24.5377 Y29.6495
G01 X24.5041 Y29.5557
G01 X24.4799 Y29.4590
G01 X24.4653 Y29.3604
G01 X24.4604 Y29.2608
G01 X24.4653 Y29.1612
G01 X24.4799 Y29.0626
G01 X24.5041 Y28.9659
G01 X24.5377 Y28.8721
G01 X24.5803 Y28.7820
G01 X24.6316 Y28.6965
G01 X24.6910 Y28.6164
G01 X24.7579 Y28.5425
G01 X24.8318 Y28.4756
G01 X24.9119 Y28.4162
G01 X24.9974 Y28.3649
G01 X25.0875 Y28.3223
G01 X25.1813 Y28.2887
G01 X25.2780 Y28.2645
G01 X25.3766 Y28.2499
G01 X25.4762 Y28.2450
G01 X25.5758 Y28.2499
G01 X25.6744 Y28.2645
G01 X25.7711 Y28.2887
G01 X25.8649 Y28.3223
G01 X25.9550 Y28.3649
G01 X26.0405 Y28.4162
G01 X26.1206 Y28.4756
G01 X26.1945 Y28.5425
G01 X26.2614 Y28.6164
G01 X26.3208 Y28.6965
G01 X26.3721 Y28.7820
G01 X26.4147 Y28.8721
G01 X26.4483 Y28.9659
G01 X26.4725 Y29.0626
G01 X26.4871 Y29.1612
G01 X26.4918 Y29.2546
G01 X26.4918 Y29.2670
G00 Z2.0000
G00 X26.4918 Y31.8070
G01 F60.00
G01 Z-0.1000
G01 F120.00
G01 X26.4871 Y31.9004
G01 X26.4725 Y31.9990
G01 X26.4483 Y32.0957
G01 X26.4147 Y32.1895
G01 X26.3721 Y32.2796
G01 X26.3208 Y32.3651
G01 X26.2614 Y32.4452
G01 X26.1945 Y32.5191
G01 X26.1206 Y32.5860
G01 X26.0405 Y32.6454
G01 X25.9550 Y32.6967
G01 X25.8649 Y32.7393
G01 X25.7711 Y32.7729
G01 X25.6744 Y32.7971
G01 X25.5758 Y32.8117
G01 X25.4762 Y32.8166
G01 X25.3766 Y32.8117
G01 X25.2780 Y32.7971
G01 X25.1813 Y32.7729
G01 X25.0875 Y32.7393
G01 X24.9974 Y32.6967
G01 X24.9119 Y32.6454
G01 X24.8318 Y32.5860
G01 X24.7579 Y32.5191
G01 X24.6910 Y32.4452
G01 X24.6316 Y32.3651
G01 X24.5803 Y32.2796
G01 X24.5377 Y32.1895
G01 X24.5041 Y32.0957
G01 X24.4799 Y31.9990
G01 X24.4653 Y31.9004
G01 X24.4604 Y31.8008
G01 X24.4653 Y31.7012
G01 X24.4799 Y31.6026
G01 X24.5041 Y31.5059
G01 X24.5377 Y31.4121
G01 X24.5803 Y31.3220
G01 X24.6316 Y31.2365
G01 X24.6910 Y31.1564
G01 X24.7579 Y31.0825
G01 X24.8318 Y31.0156
G01 X24.9119 Y30.9562
G01 X24.9974 Y30.9049
G01 X25.0875 Y30.8623
G01 X25.1813 Y30.8287
G01 X25.2780 Y30.8045
G01 X25.3766 Y30.7899
G01 X25.4762 Y30.7850
G01 X25.5758 Y30.7899
G01 X25.6744 Y30.8045
G01 X25.7711 Y30.8287
G01 X25.8649 Y30.8623
G01 X25.9550 Y30.9049
G01 X26.0405 Y30.9562
G01 X26.1206 Y31.0156
G01 X26.1945 Y31.0825
G01 X26.2614 Y31.1564
G01 X26.3208 Y31.2365
G01 X26.3721 Y31.3220
G01 X26.4147 Y31.4121
G01 X26.4483 Y31.5059
G01 X26.4725 Y31.6026
G01 X26.4871 Y31.7012
G01 X26.4918 Y31.7946
G01 X26.4918 Y31.8070
G00 Z2.0000
G00 X14.1747 Y35.9669
G01 F60.00
G01 Z-0.1000
G01 F120.00
G01 X14.1987 Y26.3133
G01 X14.1992 Y26.2934
G01 X14.2006 Y26.2741
G01 X14.2038 Y26.2482
G01 X14.2072 Y26.2291
G01 X14.2115 Y26.2097
G01 X14.2176 Y26.1880
G01 X14.2238 Y26.1692
G01 X14.2319 Y26.1482
G01 X14.2400 Y26.1300
G01 X14.2501 Y26.1099
G01 X14.2600 Y26.0926
G01 X23.2770 Y11.0304
G01 X23.2884 Y11.0123
G01 X23.3005 Y10.9952
G01 X23.3137 Y10.9783
G01 X23.3295 Y10.9601
G01 X23.3421 Y10.9469
G01 X23.3573 Y10.9324
G01 X23.3735 Y10.9185
G01 X23.3925 Y10.9037
G01 X23.4075 Y10.8932
G01 X23.4279 Y10.8804
G01 X23.4466 Y10.8700
G01 X23.4626 Y10.8620
G01 X23.4793 Y10.8545
G01 X23.5017 Y10.8458
G01 X23.5221 Y10.8390
G01 X23.5423 Y10.8334
G01 X23.5632 Y10.8287
G01 X23.5838 Y10.8252
G01 X23.6051 Y10.8225
G01 X23.6260 Y10.8210
G01 X23.6474 Y10.8205
G01 X39.2743 Y10.8204
G01 X45.4506 Y3.6884
G01 X45.4754 Y3.2915
G01 X45.4522 Y3.2772
G01 X45.3872 Y3.2290
G01 X45.3800 Y3.2230
G01 X45.3224 Y3.1706
G01 X45.3158 Y3.1640
G01 X45.2616 Y3.1038
G01 X45.2132 Y3.0389
G01 X45.2079 Y3.0312
G01 X45.1678 Y2.9644
G01 X45.1620 Y2.9534
G01 X45.1275 Y2.8801
G01 X45.1000 Y2.8039
G01 X45.0964 Y2.7920
G01 X45.0769 Y2.7134
G01 X45.0641 Y2.6271
G01 X45.0598 Y2.5400
G01 X45.0641 Y2.4529
G01 X45.0769 Y2.3666
G01 X45.0981 Y2.2820
G01 X45.1275 Y2.1999
G01 X45.1648 Y2.1210
G01 X45.2096 Y2.0462
G01 X45.2616 Y1.9762
G01 X45.3201 Y1.9115
G01 X45.3848 Y1.8530
G01 X45.4548 Y1.8010
G01 X45.5296 Y1.7562
G01 X45.6085 Y1.7189
G01 X45.6906 Y1.6895
G01 X45.7752 Y1.6683
G01 X45.8553 Y1.6562
G01 X45.8677 Y1.6550
G01 X45.9486 Y1.6512
G01 X46.0295 Y1.6550
G01 X46.0419 Y1.6562
G01 X46.1159 Y1.6672
G01 X46.1281 Y1.6696
G01 X46.2066 Y1.6895
G01 X46.2829 Y1.7166
G01 X46.2944 Y1.7214
G01 X46.3676 Y1.7562
G01 X46.4424 Y1.8010
G01 X46.5124 Y1.8530
G01 X46.5748 Y1.9094
G01 X46.5814 Y1.9160
G01 X46.6356 Y1.9762
G01 X46.6840 Y2.0411
G01 X46.6909 Y2.0515
G01 X46.7324 Y2.1210
G01 X46.7672 Y2.1942
G01 X46.7720 Y2.2057
G01 X46.7991 Y2.2820
G01 X46.8203 Y2.3666
G01 X46.8324 Y2.4467
G01 X46.8336 Y2.4591
G01 X46.8372 Y2.5338
G01 X46.8372 Y2.5462
G01 X46.8331 Y2.6271
G01 X46.8214 Y2.7073
G01 X46.8190 Y2.7195
G01 X46.7991 Y2.7980
G01 X46.7720 Y2.8743
G01 X46.7672 Y2.8858
G01 X46.7324 Y2.9590
G01 X46.6909 Y3.0285
G01 X46.6840 Y3.0389
G01 X46.6376 Y3.1014
G01 X46.6316 Y3.1086
G01 X46.5771 Y3.1685
G01 X46.5172 Y3.2230
G01 X46.5100 Y3.2290
G01 X46.4475 Y3.2754
G01 X46.4398 Y3.2807
G01 X46.3703 Y3.3223
G01 X46.3620 Y3.3266
G01 X46.3377 Y3.3382
G01 X46.3033 Y3.8877
G01 X46.3011 Y3.9114
G01 X46.2991 Y3.9268
G01 X46.2941 Y3.9532
G01 X46.2898 Y3.9713
G01 X46.2821 Y3.9970
G01 X46.2758 Y4.0146
G01 X46.2655 Y4.0394
G01 X46.2588 Y4.0534
G01 X46.2492 Y4.0716
G01 X46.2397 Y4.0877
G01 X46.2249 Y4.1101
G01 X46.2138 Y4.1250
G01 X46.1988 Y4.1434
G01 X39.7980 Y11.5348
G01 X39.7791 Y11.5553
G01 X39.7687 Y11.5655
G01 X39.7479 Y11.5839
G01 X39.7341 Y11.5950
G01 X39.7140 Y11.6094
G01 X39.6992 Y11.6190
G01 X39.6724 Y11.6344
G01 X39.6622 Y11.6396
G01 X39.6397 Y11.6499
G01 X39.6233 Y11.6564
G01 X39.5969 Y11.6654
G01 X39.5829 Y11.6693
G01 X39.5558 Y11.6757
G01 X39.5415 Y11.6782
G01 X39.5139 Y11.6819
G01 X39.4994 Y11.6830
G01 X39.4716 Y11.6839
G01 X23.8921 Y11.6840
G01 X15.0619 Y26.4343
G01 X15.0382 Y35.9677
G01 X15.1579 Y35.9978
G01 X15.3310 Y36.0596
G01 X15.3396 Y36.0633
G01 X15.4974 Y36.1379
G01 X15.5056 Y36.1422
G01 X15.6632 Y36.2368
G01 X15.8085 Y36.3443
G01 X15.8181 Y36.3522
G01 X15.9519 Y36.4737
G01 X16.0734 Y36.6075
G01 X16.0813 Y36.6171
G01 X16.1888 Y36.7624
G01 X16.2834 Y36.9200
G01 X16.2877 Y36.9282
G01 X16.3623 Y37.0860
G01 X16.3660 Y37.0946
G01 X16.4278 Y37.2677
G01 X16.4568 Y37.3831
G01 X25.5907 Y37.2931
G01 X25.5907 Y36.8935
G01 X25.5913 Y36.8811
G01 X25.5938 Y36.8657
G01 X25.5962 Y36.8567
G01 X25.5992 Y36.8479
G01 X25.6029 Y36.8393
G01 X25.6087 Y36.8283
G01 X25.6157 Y36.8180
G01 X25.6215 Y36.8107
G01 X25.6278 Y36.8038
G01 X25.6371 Y36.7955
G01 X25.6471 Y36.7881
G01 X25.6550 Y36.7832
G01 X25.6633 Y36.7789
G01 X25.6748 Y36.7741
G01 X25.6837 Y36.7713
G01 X25.6958 Y36.7686
G01 X25.7051 Y36.7673
G01 X25.7144 Y36.7667
G01 X27.3685 Y36.7667
G01 X27.3840 Y36.7677
G01 X27.3932 Y36.7691
G01 X27.4023 Y36.7713
G01 X27.4112 Y36.7741
G01 X27.4199 Y36.7776
G01 X27.4337 Y36.7847
G01 X27.4415 Y36.7898
G01 X27.4489 Y36.7955
G01 X27.4603 Y36.8061
G01 X27.4703 Y36.8180
G01 X27.4756 Y36.8257
G01 X27.4803 Y36.8337
G01 X27.4844 Y36.8421
G01 X27.4879 Y36.8508
G01 X27.4907 Y36.8597
G01 X27.4929 Y36.8688
G01 X27.4947 Y36.8811
G01 X27.4953 Y36.8935
G01 X27.4953 Y37.2530
G01 X30.1818 Y37.2132
G01 X37.1812 Y32.0048
G01 X37.1789 Y31.9928
G01 X37.1661 Y31.9065
G01 X37.1648 Y31.8942
G01 X37.1604 Y31.8008
G01 X37.1653 Y31.7012
G01 X37.1799 Y31.6026
G01 X37.2025 Y31.5119
G01 X37.2061 Y31.5000
G01 X37.2355 Y31.4179
G01 X37.2402 Y31.4064
G01 X37.2803 Y31.3220
G01 X37.3316 Y31.2365
G01 X37.3910 Y31.1564
G01 X37.4536 Y31.0870
G01 X37.4624 Y31.0782
G01 X37.5271 Y31.0196
G01 X37.5367 Y31.0117
G01 X37.6119 Y30.9562
G01 X37.6974 Y30.9049
G01 X37.7875 Y30.8623
G01 X37.8813 Y30.8287
G01 X37.9780 Y30.8045
G01 X38.0705 Y30.7907
G01 X38.0828 Y30.7894
G01 X38.1700 Y30.7852
G01 X38.1824 Y30.7852
G01 X38.2758 Y30.7899
G01 X38.3744 Y30.8045
G01 X38.4711 Y30.8287
G01 X38.5649 Y30.8623
G01 X38.6550 Y30.9049
G01 X38.7353 Y30.9529
G01 X38.7456 Y30.9598
G01 X38.8206 Y31.0156
G01 X38.8900 Y31.0782
G01 X38.8988 Y31.0870
G01 X38.9574 Y31.1517
G01 X38.9653 Y31.1613
G01 X39.0208 Y31.2365
G01 X39.0721 Y31.3220
G01 X39.1147 Y31.4121
G01 X39.1483 Y31.5059
G01 X39.1725 Y31.6026
G01 X39.1871 Y31.7012
G01 X39.1920 Y31.8008
G01 X39.1876 Y31.8942
G01 X39.1863 Y31.9065
G01 X39.1725 Y31.9990
G01 X39.1499 Y32.0897
G01 X39.1463 Y32.1016
G01 X39.1169 Y32.1837
G01 X39.1122 Y32.1952
G01 X39.0721 Y32.2796
G01 X39.0208 Y32.3651
G01 X38.9614 Y32.4452
G01 X38.8967 Y32.5168
G01 X38.8900 Y32.5234
G01 X38.8253 Y32.5820
G01 X38.8157 Y32.5899
G01 X38.7405 Y32.6454
G01 X38.6550 Y32.6967
G01 X38.5649 Y32.7393
G01 X38.4770 Y32.7709
G01 X38.4651 Y32.7745
G01 X38.3804 Y32.7957
G01 X38.3682 Y32.7981
G01 X38.2758 Y32.8117
G01 X38.1762 Y32.8166
G01 X38.0766 Y32.8117
G01 X37.9842 Y32.7981
G01 X37.9720 Y32.7957
G01 X37.8873 Y32.7745
G01 X37.8754 Y32.7709
G01 X37.7875 Y32.7393
G01 X37.6977 Y32.6968
G01 X30.5853 Y37.9892
G01 X30.5728 Y37.9982
G01 X30.5528 Y38.0111
G01 X30.5340 Y38.0220
G01 X30.5128 Y38.0328
G01 X30.4958 Y38.0404
G01 X30.4708 Y38.0501
G01 X30.4561 Y38.0550
G01 X30.4362 Y38.0606
G01 X30.4181 Y38.0650
G01 X30.3916 Y38.0698
G01 X30.3732 Y38.0721
G01 X30.3526 Y38.0738
G01 X30.3371 Y38.0744
G01 X27.4953 Y38.1166
G01 X27.4953 Y38.5445
G01 X27.4947 Y38.5569
G01 X27.4929 Y38.5692
G01 X27.4907 Y38.5783
G01 X27.4879 Y38.5872
G01 X27.4844 Y38.5959
G01 X27.4803 Y38.6043
G01 X27.4756 Y38.6123
G01 X27.4703 Y38.6200
G01 X27.4625 Y38.6297
G01 X27.4559 Y38.6363
G01 X27.4489 Y38.6425
G01 X27.4415 Y38.6482
G01 X27.4337 Y38.6533
G01 X27.4255 Y38.6578
G01 X27.4170 Y38.6616
G01 X27.4083 Y38.6649
G01 X27.3993 Y38.6675
G01 X27.3871 Y38.6699
G01 X27.3778 Y38.6710
G01 X27.3685 Y38.6713
G01 X25.7175 Y38.6713
G01 X25.7082 Y38.6710
G01 X25.6989 Y38.6699
G01 X25.6837 Y38.6667
G01 X25.6690 Y38.6616
G01 X25.6605 Y38.6578
G01 X25.6523 Y38.6533
G01 X25.6445 Y38.6482
G01 X25.6371 Y38.6425
G01 X25.6301 Y38.6363
G01 X25.6236 Y38.6297
G01 X25.6175 Y38.6225
G01 X25.6121 Y38.6149
G01 X25.6072 Y38.6070
G01 X25.6029 Y38.5987
G01 X25.5992 Y38.5901
G01 X25.5962 Y38.5813
G01 X25.5926 Y38.5662
G01 X25.5910 Y38.5538
G01 X25.5907 Y38.5445
G01 X25.5907 Y38.1566
G01 X16.4597 Y38.2466
G01 X16.4278 Y38.3735
G01 X16.3670 Y38.5437
G01 X16.3636 Y38.5524
G01 X16.2849 Y38.7185
G01 X16.1921 Y38.8736
G01 X16.1870 Y38.8814
G01 X16.0774 Y39.0290
G01 X15.9519 Y39.1675
G01 X15.8134 Y39.2930
G01 X15.6683 Y39.4008
G01 X15.6606 Y39.4061
G01 X15.5029 Y39.5005
G01 X15.3339 Y39.5804
G01 X15.1579 Y39.6434
G01 X14.9766 Y39.6888
G01 X14.7917 Y39.7162
G01 X14.6050 Y39.7254
G01 X14.4183 Y39.7162
G01 X14.2334 Y39.6888
G01 X14.0521 Y39.6434
G01 X13.8819 Y39.5826
G01 X13.8704 Y39.5779
G01 X13.7126 Y39.5033
G01 X13.7017 Y39.4974
G01 X13.5468 Y39.4044
G01 X13.3966 Y39.2930
G01 X13.2581 Y39.1675
G01 X13.1326 Y39.0290
G01 X13.0212 Y38.8788
G01 X12.9282 Y38.7239
G01 X12.9223 Y38.7130
G01 X12.8477 Y38.5552
G01 X12.8430 Y38.5437
G01 X12.7822 Y38.3735
G01 X12.7368 Y38.1922
G01 X12.7094 Y38.0073
G01 X12.7002 Y37.8237
G01 X12.7004 Y37.8144
G01 X12.7094 Y37.6339
G01 X12.7357 Y37.4551
G01 X12.7382 Y37.4429
G01 X12.7806 Y37.2737
G01 X12.7842 Y37.2618
G01 X12.8452 Y37.0917
G01 X12.9251 Y36.9227
G01 X13.0212 Y36.7624
G01 X13.1306 Y36.6146
G01 X13.1366 Y36.6075
G01 X13.2538 Y36.4782
G01 X13.2626 Y36.4694
G01 X13.3966 Y36.3482
G01 X13.5417 Y36.2404
G01 X13.5494 Y36.2351
G01 X13.7071 Y36.1407
G01 X13.8732 Y36.0620
G01 X13.8819 Y36.0586
G01 X14.0521 Y35.9978
G01 X14.1747 Y35.9669
G00 Z2.0000
G00 X8.1847 Y39.6960
G01 F60.00
G01 Z-0.1000
G01 F120.00
G01 X8.1435 Y39.6899
G01 X8.1343 Y39.6882
G01 X7.9591 Y39.6442
G01 X7.9502 Y39.6414
G01 X7.7830 Y39.5816
G01 X7.7744 Y39.5779
G01 X7.6111 Y39.5005
G01 X7.4534 Y39.4061
G01 X7.4457 Y39.4008
G01 X7.3006 Y39.2930
G01 X7.1621 Y39.1675
G01 X7.0366 Y39.0290
G01 X6.9270 Y38.8814
G01 X6.9219 Y38.8736
G01 X6.8291 Y38.7185
G01 X6.7492 Y38.5495
G01 X6.6862 Y38.3735
G01 X6.6408 Y38.1922
G01 X6.6134 Y38.0073
G01 X6.6042 Y37.8206
G01 X6.6134 Y37.6339
G01 X6.6402 Y37.4521
G01 X6.6422 Y37.4429
G01 X6.6862 Y37.2677
G01 X6.7492 Y37.0917
G01 X6.8291 Y36.9227
G01 X6.9252 Y36.7624
G01 X7.0366 Y36.6122
G01 X7.1621 Y36.4737
G01 X7.3006 Y36.3482
G01 X7.4508 Y36.2368
G01 X7.6111 Y36.1407
G01 X7.7801 Y36.0608
G01 X7.9561 Y35.9978
G01 X8.1374 Y35.9524
G01 X8.3223 Y35.9250
G01 X8.5090 Y35.9158
G01 X8.6957 Y35.9250
G01 X8.8775 Y35.9518
G01 X8.8867 Y35.9538
G01 X9.0619 Y35.9978
G01 X9.2321 Y36.0586
G01 X9.2436 Y36.0633
G01 X9.4014 Y36.1379
G01 X9.4123 Y36.1438
G01 X9.5672 Y36.2368
G01 X9.7174 Y36.3482
G01 X9.8559 Y36.4737
G01 X9.9814 Y36.6122
G01 X10.0928 Y36.7624
G01 X10.1858 Y36.9173
G01 X10.1917 Y36.9282
G01 X10.2663 Y37.0860
G01 X10.2710 Y37.0975
G01 X10.3318 Y37.2677
G01 X10.3772 Y37.4490
G01 X10.4046 Y37.6339
G01 X10.4136 Y37.8144
G01 X10.4136 Y37.8268
G01 X10.4051 Y38.0011
G01 X10.4039 Y38.0135
G01 X10.3772 Y38.1922
G01 X10.3334 Y38.3675
G01 X10.3298 Y38.3794
G01 X10.2688 Y38.5495
G01 X10.1889 Y38.7185
G01 X10.0928 Y38.8788
G01 X9.9853 Y39.0241
G01 X9.9774 Y39.0337
G01 X9.8602 Y39.1630
G01 X9.8514 Y39.1718
G01 X9.7174 Y39.2930
G01 X9.5672 Y39.4044
G01 X9.4069 Y39.5005
G01 X9.2436 Y39.5779
G01 X9.2321 Y39.5826
G01 X9.0678 Y39.6414
G01 X9.0589 Y39.6442
G01 X9.0468 Y39.6473
G01 X9.1092 Y40.8312
G01 X10.7169 Y42.4169
G01 X13.5728 Y42.3986
G01 X11.2285 Y39.6502
G01 X11.2213 Y39.6415
G01 X11.2044 Y39.6192
G01 X11.1963 Y39.6073
G01 X11.1817 Y39.5834
G01 X11.1762 Y39.5735
G01 X11.1613 Y39.5428
G01 X11.1570 Y39.5323
G01 X11.1463 Y39.5031
G01 X11.1430 Y39.4923
G01 X11.1352 Y39.4623
G01 X11.1330 Y39.4512
G01 X11.1282 Y39.4205
G01 X11.1269 Y39.4061
G01 X11.1254 Y39.3813
G01 X11.1253 Y39.3700
G01 X11.1252 Y34.8479
G01 X11.0041 Y34.8174
G01 X10.8310 Y34.7556
G01 X10.8224 Y34.7519
G01 X10.6646 Y34.6773
G01 X10.6564 Y34.6730
G01 X10.4988 Y34.5784
G01 X10.3535 Y34.4709
G01 X10.3439 Y34.4630
G01 X10.2146 Y34.3458
G01 X10.2079 Y34.3393
G01 X10.0846 Y34.2030
G01 X9.9768 Y34.0579
G01 X9.9699 Y34.0476
G01 X9.8771 Y33.8925
G01 X9.7997 Y33.7292
G01 X9.7950 Y33.7177
G01 X9.7342 Y33.5475
G01 X9.6888 Y33.3662
G01 X9.6614 Y33.1813
G01 X9.6522 Y32.9946
G01 X9.6614 Y32.8079
G01 X9.6888 Y32.6230
G01 X9.7342 Y32.4417
G01 X9.7972 Y32.2657
G01 X9.8771 Y32.0967
G01 X9.9699 Y31.9416
G01 X9.9768 Y31.9313
G01 X10.0846 Y31.7862
G01 X10.2058 Y31.6522
G01 X10.2146 Y31.6434
G01 X10.3486 Y31.5222
G01 X10.4937 Y31.4144
G01 X10.5040 Y31.4075
G01 X10.6537 Y31.3178
G01 X10.6646 Y31.3119
G01 X10.8281 Y31.2348
G01 X11.0041 Y31.1718
G01 X11.1854 Y31.1264
G01 X11.3672 Y31.0993
G01 X11.3765 Y31.0985
G01 X11.5570 Y31.0898
G01 X11.7437 Y31.0990
G01 X11.9286 Y31.1264
G01 X12.1099 Y31.1718
G01 X12.2859 Y31.2348
G01 X12.4549 Y31.3147
G01 X12.6152 Y31.4108
G01 X12.7654 Y31.5222
G01 X12.9039 Y31.6477
G01 X13.0294 Y31.7862
G01 X13.1408 Y31.9364
G01 X13.2369 Y32.0967
G01 X13.3168 Y32.2657
G01 X13.3798 Y32.4417
G01 X13.4252 Y32.6230
G01 X13.4519 Y32.8017
G01 X13.4529 Y32.8110
G01 X13.4618 Y32.9946
G01 X13.4526 Y33.1813
G01 X13.4252 Y33.3662
G01 X13.3814 Y33.5415
G01 X13.3778 Y33.5534
G01 X13.3190 Y33.7177
G01 X13.3143 Y33.7292
G01 X13.2369 Y33.8925
G01 X13.1441 Y34.0476
G01 X13.1390 Y34.0554
G01 X13.0294 Y34.2030
G01 X12.9039 Y34.3415
G01 X12.7654 Y34.4670
G01 X12.6178 Y34.5766
G01 X12.6100 Y34.5817
G01 X12.4549 Y34.6745
G01 X12.2888 Y34.7532
G01 X12.2801 Y34.7566
G01 X12.1099 Y34.8174
G01 X11.9887 Y34.8479
G01 X11.9888 Y39.2109
G01 X14.7022 Y42.3922
G01 X25.6944 Y42.3683
G01 X25.7046 Y42.3474
G01 X25.7512 Y42.2699
G01 X25.8030 Y42.1998
G01 X25.8109 Y42.1902
G01 X25.8696 Y42.1256
G01 X25.9342 Y42.0669
G01 X25.9438 Y42.0590
G01 X26.0088 Y42.0108
G01 X26.0192 Y42.0039
G01 X26.0941 Y41.9591
G01 X26.1729 Y41.9217
G01 X26.1844 Y41.9170
G01 X26.2666 Y41.8877
G01 X26.3572 Y41.8650
G01 X26.4435 Y41.8520
G01 X26.4559 Y41.8508
G01 X26.5430 Y41.8467
G01 X26.6301 Y41.8508
G01 X26.6425 Y41.8520
G01 X26.7288 Y41.8650
G01 X26.8194 Y41.8877
G01 X26.9016 Y41.9170
G01 X26.9131 Y41.9217
G01 X26.9919 Y41.9591
G01 X27.0668 Y42.0039
G01 X27.0772 Y42.0108
G01 X27.1422 Y42.0590
G01 X27.1518 Y42.0669
G01 X27.2164 Y42.1256
G01 X27.2751 Y42.1902
G01 X27.2830 Y42.1998
G01 X27.3348 Y42.2699
G01 X27.3814 Y42.3474
G01 X27.3900 Y42.3648
G01 X31.8872 Y42.3425
G01 X41.3740 Y35.3938
G01 X41.3288 Y31.6419
G01 X39.0293 Y30.2766
G01 X37.2872 Y30.2766
G01 X37.2779 Y30.2763
G01 X37.2686 Y30.2752
G01 X37.2594 Y30.2735
G01 X37.2504 Y30.2711
G01 X37.2416 Y30.2681
G01 X37.2330 Y30.2644
G01 X37.2194 Y30.2569
G01 X37.2068 Y30.2478
G01 X37.1954 Y30.2372
G01 X37.1854 Y30.2253
G01 X37.1769 Y30.2123
G01 X37.1701 Y30.1983
G01 X37.1650 Y30.1836
G01 X37.1623 Y30.1715
G01 X37.1606 Y30.1560
G01 X37.1604 Y29.1156
G01 X35.1751 Y27.8466
G01 X35.1635 Y27.8389
G01 X35.1430 Y27.8239
G01 X35.1298 Y27.8133
G01 X35.1086 Y27.7942
G01 X35.0987 Y27.7844
G01 X35.0795 Y27.7634
G01 X35.0707 Y27.7527
G01 X35.0536 Y27.7299
G01 X35.0458 Y27.7184
G01 X35.0310 Y27.6940
G01 X35.0245 Y27.6818
G01 X35.0122 Y27.6561
G01 X35.0068 Y27.6433
G01 X34.9961 Y27.6135
G01 X34.9930 Y27.6032
G01 X34.9867 Y27.5786
G01 X34.9838 Y27.5651
G01 X34.9793 Y27.5369
G01 X34.9777 Y27.5231
G01 X34.9760 Y27.4947
G01 X34.9759 Y27.4808
G01 X35.0267 Y16.5080
G01 X35.0272 Y16.4881
G01 X35.0289 Y16.4657
G01 X35.0310 Y16.4491
G01 X35.0360 Y16.4208
G01 X35.0390 Y16.4075
G01 X35.0449 Y16.3857
G01 X35.0511 Y16.3668
G01 X35.0615 Y16.3401
G01 X35.0671 Y16.3276
G01 X35.0771 Y16.3075
G01 X35.0868 Y16.2901
G01 X35.1023 Y16.2659
G01 X35.1102 Y16.2548
G01 X35.1240 Y16.2370
G01 X35.1369 Y16.2219
G01 X35.1568 Y16.2011
G01 X37.1604 Y14.3641
G01 X37.1604 Y13.1287
G01 X37.1614 Y13.1163
G01 X37.1635 Y13.1040
G01 X37.1668 Y13.0920
G01 X37.1726 Y13.0776
G01 X37.1784 Y13.0666
G01 X37.1872 Y13.0538
G01 X37.1975 Y13.0421
G01 X37.2068 Y13.0338
G01 X37.2142 Y13.0281
G01 X37.2247 Y13.0215
G01 X37.2330 Y13.0172
G01 X37.2445 Y13.0124
G01 X37.2534 Y13.0096
G01 X37.2625 Y13.0074
G01 X37.2748 Y13.0056
G01 X37.2841 Y13.0050
G01 X39.0652 Y13.0050
G01 X39.0807 Y13.0060
G01 X39.0930 Y13.0081
G01 X39.1079 Y13.0124
G01 X39.1194 Y13.0172
G01 X39.1304 Y13.0230
G01 X39.1407 Y13.0300
G01 X39.1526 Y13.0400
G01 X39.1612 Y13.0490
G01 X39.1689 Y13.0588
G01 X39.1740 Y13.0666
G01 X39.1798 Y13.0776
G01 X39.1835 Y13.0862
G01 X39.1865 Y13.0950
G01 X39.1896 Y13.1071
G01 X39.1910 Y13.1163
G01 X39.1920 Y13.1287
G01 X39.1920 Y14.9098
G01 X39.1914 Y14.9222
G01 X39.1896 Y14.9345
G01 X39.1874 Y14.9436
G01 X39.1835 Y14.9554
G01 X39.1785 Y14.9668
G01 X39.1740 Y14.9750
G01 X39.1670 Y14.9853
G01 X39.1592 Y14.9950
G01 X39.1504 Y15.0038
G01 X39.1382 Y15.0135
G01 X39.1277 Y15.0201
G01 X39.1166 Y15.0257
G01 X39.1050 Y15.0302
G01 X39.0930 Y15.0335
G01 X39.0807 Y15.0356
G01 X39.0683 Y15.0366
G01 X37.7047 Y15.0366
G01 X35.8893 Y16.7007
G01 X35.8404 Y27.2471
G01 X37.4018 Y28.2450
G01 X39.0652 Y28.2450
G01 X39.0807 Y28.2460
G01 X39.0899 Y28.2474
G01 X39.0990 Y28.2496
G01 X39.1079 Y28.2524
G01 X39.1166 Y28.2559
G01 X39.1250 Y28.2600
G01 X39.1330 Y28.2647
G01 X39.1456 Y28.2738
G01 X39.1570 Y28.2844
G01 X39.1670 Y28.2963
G01 X39.1755 Y28.3093
G01 X39.1811 Y28.3204
G01 X39.1865 Y28.3350
G01 X39.1901 Y28.3501
G01 X39.1918 Y28.3656
G01 X39.1920 Y29.3690
G01 X41.9780 Y31.0232
G01 X41.9931 Y31.0325
G01 X42.0134 Y31.0466
G01 X42.0275 Y31.0574
G01 X42.0462 Y31.0733
G01 X42.0592 Y31.0855
G01 X42.0763 Y31.1031
G01 X42.0880 Y31.1165
G01 X42.1033 Y31.1358
G01 X42.1154 Y31.1528
G01 X42.1270 Y31.1709
G01 X42.1359 Y31.1863
G01 X42.1471 Y31.2082
G01 X42.1532 Y31.2215
G01 X42.1645 Y31.2502
G01 X42.1692 Y31.2641
G01 X42.1752 Y31.2848
G01 X42.1806 Y31.3081
G01 X42.1844 Y31.3293
G01 X42.1867 Y31.3469
G01 X42.1887 Y31.3714
G01 X42.1892 Y31.3861
G01 X42.2401 Y35.6056
G01 X42.2393 Y35.6377
G01 X42.2382 Y35.6510
G01 X42.2355 Y35.6736
G01 X42.2322 Y35.6930
G01 X42.2266 Y35.7182
G01 X42.2221 Y35.7341
G01 X42.2151 Y35.7557
G01 X42.2092 Y35.7712
G01 X42.1962 Y35.8005
G01 X42.1901 Y35.8125
G01 X42.1774 Y35.8350
G01 X42.1685 Y35.8489
G01 X42.1555 Y35.8675
G01 X42.1434 Y35.8831
G01 X42.1266 Y35.9026
G01 X42.1151 Y35.9146
G01 X42.0987 Y35.9303
G01 X42.0887 Y35.9392
G01 X42.0635 Y35.9591
G01 X32.2845 Y43.1219
G01 X32.2710 Y43.1314
G01 X32.2518 Y43.1436
G01 X32.2321 Y43.1548
G01 X32.2088 Y43.1663
G01 X32.1966 Y43.1717
G01 X32.1754 Y43.1799
G01 X32.1568 Y43.1861
G01 X32.1318 Y43.1930
G01 X32.1127 Y43.1972
G01 X32.0871 Y43.2014
G01 X32.0738 Y43.2031
G01 X32.0511 Y43.2048
G01 X32.0315 Y43.2053
G01 X27.3923 Y43.2283
G01 X27.3814 Y43.2506
G01 X27.3381 Y43.3228
G01 X27.3330 Y43.3306
G01 X27.2791 Y43.4031
G01 X27.2164 Y43.4724
G01 X27.1471 Y43.5351
G01 X27.0772 Y43.5872
G01 X27.0668 Y43.5941
G01 X26.9973 Y43.6358
G01 X26.9821 Y43.6437
G01 X27.0726 Y50.0214
G01 X27.1384 Y50.0610
G01 X27.2035 Y50.1091
G01 X27.2132 Y50.1170
G01 X27.2731 Y50.1715
G01 X27.3276 Y50.2314
G01 X27.3355 Y50.2411
G01 X27.3836 Y50.3062
G01 X27.4254 Y50.3756
G01 X27.4312 Y50.3866
G01 X27.4657 Y50.4599
G01 X27.4932 Y50.5361
G01 X27.4968 Y50.5480
G01 X27.5163 Y50.6266
G01 X27.5284 Y50.7067
G01 X27.5296 Y50.7191
G01 X27.5334 Y50.7969
G01 X27.5332 Y50.8062
G01 X27.5291 Y50.8871
G01 X27.5163 Y50.9734
G01 X27.4951 Y51.0580
G01 X27.4680 Y51.1343
G01 X27.4632 Y51.1458
G01 X27.4312 Y51.2134
G01 X27.4254 Y51.2244
G01 X27.3836 Y51.2938
G01 X27.3355 Y51.3589
G01 X27.3276 Y51.3686
G01 X27.2731 Y51.4285
G01 X27.2108 Y51.4850
G01 X27.2035 Y51.4909
G01 X27.1435 Y51.5354
G01 X27.1331 Y51.5423
G01 X27.0636 Y51.5838
G01 X26.9904 Y51.6186
G01 X26.9789 Y51.6234
G01 X26.9026 Y51.6505
G01 X26.8241 Y51.6704
G01 X26.8119 Y51.6728
G01 X26.7317 Y51.6845
G01 X26.6508 Y51.6886
G01 X26.6384 Y51.6886
G01 X26.5575 Y51.6845
G01 X26.4773 Y51.6728
G01 X26.4651 Y51.6704
G01 X26.3866 Y51.6505
G01 X26.3103 Y51.6234
G01 X26.2988 Y51.6186
G01 X26.2256 Y51.5838
G01 X26.1561 Y51.5423
G01 X26.1457 Y51.5354
G01 X26.0808 Y51.4870
G01 X26.0206 Y51.4328
G01 X26.0118 Y51.4240
G01 X25.9576 Y51.3638
G01 X25.9092 Y51.2989
G01 X25.9023 Y51.2885
G01 X25.8608 Y51.2190
G01 X25.8260 Y51.1458
G01 X25.8212 Y51.1343
G01 X25.7941 Y51.0580
G01 X25.7742 Y50.9795
G01 X25.7723 Y50.9703
G01 X25.7601 Y50.8871
G01 X25.7560 Y50.8062
G01 X25.7560 Y50.7938
G01 X25.7601 Y50.7129
G01 X25.7729 Y50.6266
G01 X25.7924 Y50.5480
G01 X25.7960 Y50.5361
G01 X25.8212 Y50.4657
G01 X25.8260 Y50.4542
G01 X25.8608 Y50.3810
G01 X25.9023 Y50.3115
G01 X25.9092 Y50.3011
G01 X25.9537 Y50.2411
G01 X25.9616 Y50.2314
G01 X26.0161 Y50.1715
G01 X26.0808 Y50.1130
G01 X26.1508 Y50.0610
G01 X26.2090 Y50.0259
G01 X26.1186 Y43.6506
G01 X26.0914 Y43.6374
G01 X26.0192 Y43.5941
G01 X26.0114 Y43.5890
G01 X25.9389 Y43.5351
G01 X25.8696 Y43.4724
G01 X25.8069 Y43.4031
G01 X25.7548 Y43.3332
G01 X25.7479 Y43.3228
G01 X25.7062 Y43.2533
G01 X25.7017 Y43.2451
G01 X25.6954 Y43.2318
G01 X14.5053 Y43.2561
G01 X10.5438 Y43.2815
G01 X10.5015 Y43.2797
G01 X10.4595 Y43.2738
G01 X10.4245 Y43.2654
G01 X10.4124 Y43.2618
G01 X10.3784 Y43.2497
G01 X10.3401 Y43.2319
G01 X10.3089 Y43.2137
G01 X10.2983 Y43.2068
G01 X10.2693 Y43.1853
G01 X10.2401 Y43.1593
G01 X8.3836 Y41.3284
G01 X8.3679 Y41.3121
G01 X8.3530 Y41.2948
G01 X8.3391 Y41.2769
G01 X8.3295 Y41.2633
G01 X8.3189 Y41.2469
G01 X8.3074 Y41.2271
G01 X8.2972 Y41.2070
G01 X8.2891 Y41.1890
G01 X8.2798 Y41.1649
G01 X8.2736 Y41.1462
G01 X8.2684 Y41.1274
G01 X8.2646 Y41.1112
G01 X8.2599 Y41.0858
G01 X8.2571 Y41.0632
G01 X8.2556 Y41.0437
G01 X8.1847 Y39.6960
G00 Z2.0000
G00 X19.9132 Y50.8062
G01 F60.00
G01 Z-0.1000
G01 F120.00
G01 X19.9091 Y50.8871
G01 X19.8963 Y50.9734
G01 X19.8751 Y51.0580
G01 X19.8457 Y51.1401
G01 X19.8084 Y51.2190
G01 X19.7636 Y51.2938
G01 X19.7116 Y51.3638
G01 X19.6531 Y51.4285
G01 X19.5884 Y51.4870
G01 X19.5184 Y51.5390
G01 X19.4436 Y51.5838
G01 X19.3647 Y51.6211
G01 X19.2826 Y51.6505
G01 X19.1980 Y51.6717
G01 X19.1117 Y51.6845
G01 X19.0246 Y51.6888
G01 X18.9375 Y51.6845
G01 X18.8512 Y51.6717
G01 X18.7666 Y51.6505
G01 X18.6845 Y51.6211
G01 X18.6056 Y51.5838
G01 X18.5308 Y51.5390
G01 X18.4608 Y51.4870
G01 X18.3961 Y51.4285
G01 X18.3376 Y51.3638
G01 X18.2856 Y51.2938
G01 X18.2408 Y51.2190
G01 X18.2035 Y51.1401
G01 X18.1741 Y51.0580
G01 X18.1529 Y50.9734
G01 X18.1401 Y50.8871
G01 X18.1358 Y50.8000
G01 X18.1401 Y50.7129
G01 X18.1529 Y50.6266
G01 X18.1741 Y50.5420
G01 X18.2035 Y50.4599
G01 X18.2408 Y50.3810
G01 X18.2856 Y50.3062
G01 X18.3376 Y50.2362
G01 X18.3961 Y50.1715
G01 X18.4608 Y50.1130
G01 X18.5308 Y50.0610
G01 X18.6056 Y50.0162
G01 X18.6845 Y49.9789
G01 X18.7666 Y49.9495
G01 X18.8512 Y49.9283
G01 X18.9375 Y49.9155
G01 X19.0246 Y49.9112
G01 X19.1117 Y49.9155
G01 X19.1980 Y49.9283
G01 X19.2826 Y49.9495
G01 X19.3647 Y49.9789
G01 X19.4436 Y50.0162
G01 X19.5184 Y50.0610
G01 X19.5884 Y50.1130
G01 X19.6531 Y50.1715
G01 X19.7116 Y50.2362
G01 X19.7636 Y50.3062
G01 X19.8084 Y50.3810
G01 X19.8457 Y50.4599
G01 X19.8751 Y50.5420
G01 X19.8963 Y50.6266
G01 X19.9091 Y50.7129
G01 X19.9132 Y50.7938
G01 X19.9132 Y50.8062
G00 Z2.0000
G00 X22.4532 Y50.8062
G01 F60.00
G01 Z-0.1000
G01 F120.00
G01 X22.4491 Y50.8871
G01 X22.4363 Y50.9734
G01 X22.4151 Y51.0580
G01 X22.3857 Y51.1401
G01 X22.3484 Y51.2190
G01 X22.3036 Y51.2938
G01 X22.2516 Y51.3638
G01 X22.1931 Y51.4285
G01 X22.1284 Y51.4870
G01 X22.0584 Y51.5390
G01 X21.9836 Y51.5838
G01 X21.9047 Y51.6211
G01 X21.8226 Y51.6505
G01 X21.7380 Y51.6717
G01 X21.6517 Y51.6845
G01 X21.5646 Y51.6888
G01 X21.4775 Y51.6845
G01 X21.3912 Y51.6717
G01 X21.3066 Y51.6505
G01 X21.2245 Y51.6211
G01 X21.1456 Y51.5838
G01 X21.0708 Y51.5390
G01 X21.0008 Y51.4870
G01 X20.9361 Y51.4285
G01 X20.8776 Y51.3638
G01 X20.8256 Y51.2938
G01 X20.7808 Y51.2190
G01 X20.7435 Y51.1401
G01 X20.7141 Y51.0580
G01 X20.6929 Y50.9734
G01 X20.6801 Y50.8871
G01 X20.6758 Y50.8000
G01 X20.6801 Y50.7129
G01 X20.6929 Y50.6266
G01 X20.7141 Y50.5420
G01 X20.7435 Y50.4599
G01 X20.7808 Y50.3810
G01 X20.8256 Y50.3062
G01 X20.8776 Y50.2362
G01 X20.9361 Y50.1715
G01 X21.0008 Y50.1130
G01 X21.0708 Y50.0610
G01 X21.1456 Y50.0162
G01 X21.2245 Y49.9789
G01 X21.3066 Y49.9495
G01 X21.3912 Y49.9283
G01 X21.4775 Y49.9155
G01 X21.5646 Y49.9112
G01 X21.6517 Y49.9155
G01 X21.7380 Y49.9283
G01 X21.8226 Y49.9495
G01 X21.9047 Y49.9789
G01 X21.9836 Y50.0162
G01 X22.0584 Y50.0610
G01 X22.1284 Y50.1130
G01 X22.1931 Y50.1715
G01 X22.2516 Y50.2362
G01 X22.3036 Y50.3062
G01 X22.3484 Y50.3810
G01 X22.3857 Y50.4599
G01 X22.4151 Y50.5420
G01 X22.4363 Y50.6266
G01 X22.4491 Y50.7129
G01 X22.4532 Y50.7938
G01 X22.4532 Y50.8062
G00 Z2.0000
G00 X24.9932 Y50.8062
G01 F60.00
G01 Z-0.1000
G01 F120.00
G01 X24.9891 Y50.8871
G01 X24.9763 Y50.9734
G01 X24.9551 Y51.0580
G01 X24.9257 Y51.1401
G01 X24.8884 Y51.2190
G01 X24.8436 Y51.2938
G01 X24.7916 Y51.3638
G01 X24.7331 Y51.4285
G01 X24.6684 Y51.4870
G01 X24.5984 Y51.5390
G01 X24.5236 Y51.5838
G01 X24.4447 Y51.6211
G01 X24.3626 Y51.6505
G01 X24.2780 Y51.6717
G01 X24.1917 Y51.6845
G01 X24.1046 Y51.6888
G01 X24.0175 Y51.6845
G01 X23.9312 Y51.6717
G01 X23.8466 Y51.6505
G01 X23.7645 Y51.6211
G01 X23.6856 Y51.5838
G01 X23.6108 Y51.5390
G01 X23.5408 Y51.4870
G01 X23.4761 Y51.4285
G01 X23.4176 Y51.3638
G01 X23.3656 Y51.2938
G01 X23.3208 Y51.2190
G01 X23.2835 Y51.1401
G01 X23.2541 Y51.0580
G01 X23.2329 Y50.9734
G01 X23.2201 Y50.8871
G01 X23.2158 Y50.8000
G01 X23.2201 Y50.7129
G01 X23.2329 Y50.6266
G01 X23.2541 Y50.5420
G01 X23.2835 Y50.4599
G01 X23.3208 Y50.3810
G01 X23.3656 Y50.3062
G01 X23.4176 Y50.2362
G01 X23.4761 Y50.1715
G01 X23.5408 Y50.1130
G01 X23.6108 Y50.0610
G01 X23.6856 Y50.0162
G01 X23.7645 Y49.9789
G01 X23.8466 Y49.9495
G01 X23.9312 Y49.9283
G01 X24.0175 Y49.9155
G01 X24.1046 Y49.9112
G01 X24.1917 Y49.9155
G01 X24.2780 Y49.9283
G01 X24.3626 Y49.9495
G01 X24.4447 Y49.9789
G01 X24.5236 Y50.0162
G01 X24.5984 Y50.0610
G01 X24.6684 Y50.1130
G01 X24.7331 Y50.1715
G01 X24.7916 Y50.2362
G01 X24.8436 Y50.3062
G01 X24.8884 Y50.3810
G01 X24.9257 Y50.4599
G01 X24.9551 Y50.5420
G01 X24.9763 Y50.6266
G01 X24.9891 Y50.7129
G01 X24.9932 Y50.7938
G01 X24.9932 Y50.8062
G00 Z2.0000
G00 X30.0732 Y50.8062
G01 F60.00
G01 Z-0.1000
G01 F120.00
G01 X30.0691 Y50.8871
G01 X30.0563 Y50.9734
G01 X30.0351 Y51.0580
G01 X30.0057 Y51.1401
G01 X29.9684 Y51.2190
G01 X29.9236 Y51.2938
G01 X29.8716 Y51.3638
G01 X29.8131 Y51.4285
G01 X29.7484 Y51.4870
G01 X29.6784 Y51.5390
G01 X29.6036 Y51.5838
G01 X29.5247 Y51.6211
G01 X29.4426 Y51.6505
G01 X29.3580 Y51.6717
G01 X29.2717 Y51.6845
G01 X29.1846 Y51.6888
G01 X29.0975 Y51.6845
G01 X29.0112 Y51.6717
G01 X28.9266 Y51.6505
G01 X28.8445 Y51.6211
G01 X28.7656 Y51.5838
G01 X28.6908 Y51.5390
G01 X28.6208 Y51.4870
G01 X28.5561 Y51.4285
G01 X28.4976 Y51.3638
G01 X28.4456 Y51.2938
G01 X28.4008 Y51.2190
G01 X28.3635 Y51.1401
G01 X28.3341 Y51.0580
G01 X28.3129 Y50.9734
G01 X28.3001 Y50.8871
G01 X28.2958 Y50.8000
G01 X28.3001 Y50.7129
G01 X28.3129 Y50.6266
G01 X28.3341 Y50.5420
G01 X28.3635 Y50.4599
G01 X28.4008 Y50.3810
G01 X28.4456 Y50.3062
G01 X28.4976 Y50.2362
G01 X28.5561 Y50.1715
G01 X28.6208 Y50.1130
G01 X28.6908 Y50.0610
G01 X28.7656 Y50.0162
G01 X28.8445 Y49.9789
G01 X28.9266 Y49.9495
G01 X29.0112 Y49.9283
G01 X29.0975 Y49.9155
G01 X29.1846 Y49.9112
G01 X29.2717 Y49.9155
G01 X29.3580 Y49.9283
G01 X29.4426 Y49.9495
G01 X29.5247 Y49.9789
G01 X29.6036 Y50.0162
G01 X29.6784 Y50.0610
G01 X29.7484 Y50.1130
G01 X29.8131 Y50.1715
G01 X29.8716 Y50.2362
G01 X29.9236 Y50.3062
G01 X29.9684 Y50.3810
G01 X30.0057 Y50.4599
G01 X30.0351 Y50.5420
G01 X30.0563 Y50.6266
G01 X30.0691 Y50.7129
G01 X30.0732 Y50.7938
G01 X30.0732 Y50.8062
G00 Z2.0000
G00 X32.6132 Y50.8062
G01 F60.00
G01 Z-0.1000
G01 F120.00
G01 X32.6091 Y50.8871
G01 X32.5963 Y50.9734
G01 X32.5751 Y51.0580
G01 X32.5457 Y51.1401
G01 X32.5084 Y51.2190
G01 X32.4636 Y51.2938
G01 X32.4116 Y51.3638
G01 X32.3531 Y51.4285
G01 X32.2884 Y51.4870
G01 X32.2184 Y51.5390
G01 X32.1436 Y51.5838
G01 X32.0647 Y51.6211
G01 X31.9826 Y51.6505
G01 X31.8980 Y51.6717
G01 X31.8117 Y51.6845
G01 X31.7246 Y51.6888
G01 X31.6375 Y51.6845
G01 X31.5512 Y51.6717
G01 X31.4666 Y51.6505
G01 X31.3845 Y51.6211
G01 X31.3056 Y51.5838
G01 X31.2308 Y51.5390
G01 X31.1608 Y51.4870
G01 X31.0961 Y51.4285
G01 X31.0376 Y51.3638
G01 X30.9856 Y51.2938
G01 X30.9408 Y51.2190
G01 X30.9035 Y51.1401
G01 X30.8741 Y51.0580
G01 X30.8529 Y50.9734
G01 X30.8401 Y50.8871
G01 X30.8358 Y50.8000
G01 X30.8401 Y50.7129
G01 X30.8529 Y50.6266
G01 X30.8741 Y50.5420
G01 X30.9035 Y50.4599
G01 X30.9408 Y50.3810
G01 X30.9856 Y50.3062
G01 X31.0376 Y50.2362
G01 X31.0961 Y50.1715
G01 X31.1608 Y50.1130
G01 X31.2308 Y50.0610
G01 X31.3056 Y50.0162
G01 X31.3845 Y49.9789
G01 X31.4666 Y49.9495
G01 X31.5512 Y49.9283
G01 X31.6375 Y49.9155
G01 X31.7246 Y49.9112
G01 X31.8117 Y49.9155
G01 X31.8980 Y49.9283
G01 X31.9826 Y49.9495
G01 X32.0647 Y49.9789
G01 X32.1436 Y50.0162
G01 X32.2184 Y50.0610
G01 X32.2884 Y50.1130
G01 X32.3531 Y50.1715
G01 X32.4116 Y50.2362
G01 X32.4636 Y50.3062
G01 X32.5084 Y50.3810
G01 X32.5457 Y50.4599
G01 X32.5751 Y50.5420
G01 X32.5963 Y50.6266
G01 X32.6091 Y50.7129
G01 X32.6132 Y50.7938
G01 X32.6132 Y50.8062
G00 Z2.0000
G00 X33.8341 Y50.0229
G01 F60.00
G01 Z-0.1000
G01 F120.00
G01 X33.8583 Y44.6481
G01 X33.8588 Y44.6313
G01 X33.8605 Y44.6089
G01 X33.8630 Y44.5891
G01 X33.8669 Y44.5671
G01 X33.8714 Y44.5476
G01 X33.8774 Y44.5260
G01 X33.8837 Y44.5071
G01 X33.8907 Y44.4891
G01 X33.9014 Y44.4651
G01 X33.9102 Y44.4480
G01 X33.9217 Y44.4280
G01 X33.9321 Y44.4117
G01 X33.9437 Y44.3954
G01 X33.9575 Y44.3778
G01 X33.9706 Y44.3627
G01 X33.9861 Y44.3465
G01 X34.0006 Y44.3328
G01 X34.0176 Y44.3182
G01 X34.0334 Y44.3060
G01 X50.0161 Y32.4948
G01 X50.2338 Y18.8779
G01 X50.1702 Y18.8477
G01 X50.0804 Y18.7938
G01 X49.9964 Y18.7315
G01 X49.9210 Y18.6634
G01 X49.9145 Y18.6567
G01 X49.8526 Y18.5884
G01 X49.8447 Y18.5787
G01 X49.7862 Y18.4996
G01 X49.7338 Y18.4125
G01 X49.7295 Y18.4042
G01 X49.6901 Y18.3209
G01 X49.6854 Y18.3094
G01 X49.6523 Y18.2166
G01 X49.6269 Y18.1151
G01 X49.6123 Y18.0177
G01 X49.6111 Y18.0053
G01 X49.6064 Y17.9070
G01 X49.6113 Y17.8056
G01 X49.6123 Y17.7963
G01 X49.6269 Y17.6989
G01 X49.6507 Y17.6034
G01 X49.6543 Y17.5915
G01 X49.6876 Y17.4988
G01 X49.7295 Y17.4098
G01 X49.7354 Y17.3988
G01 X49.7862 Y17.3144
G01 X49.8447 Y17.2353
G01 X49.8526 Y17.2256
G01 X49.9188 Y17.1528
G01 X49.9916 Y17.0866
G01 X50.0013 Y17.0787
G01 X50.0804 Y17.0202
G01 X50.1702 Y16.9663
G01 X50.2648 Y16.9216
G01 X50.3575 Y16.8883
G01 X50.3694 Y16.8847
G01 X50.4649 Y16.8609
G01 X50.5623 Y16.8463
G01 X50.5747 Y16.8451
G01 X50.6730 Y16.8404
G01 X50.7775 Y16.8455
G01 X50.8750 Y16.8598
G01 X50.8872 Y16.8623
G01 X50.9826 Y16.8863
G01 X51.0754 Y16.9194
G01 X51.0869 Y16.9241
G01 X51.1758 Y16.9663
G01 X51.2603 Y17.0168
G01 X51.2707 Y17.0237
G01 X51.3496 Y17.0825
G01 X51.4272 Y17.1528
G01 X51.4934 Y17.2256
G01 X51.5013 Y17.2353
G01 X51.5598 Y17.3144
G01 X51.6106 Y17.3988
G01 X51.6165 Y17.4098
G01 X51.6584 Y17.4988
G01 X51.6917 Y17.5915
G01 X51.6953 Y17.6034
G01 X51.7191 Y17.6989
G01 X51.7337 Y17.7963
G01 X51.7349 Y17.8087
G01 X51.7394 Y17.9008
G01 X51.7396 Y17.9101
G01 X51.7345 Y18.0115
G01 X51.7202 Y18.1090
G01 X51.7177 Y18.1212
G01 X51.6937 Y18.2166
G01 X51.6606 Y18.3094
G01 X51.6559 Y18.3209
G01 X51.6137 Y18.4098
G01 X51.5598 Y18.4996
G01 X51.5013 Y18.5787
G01 X51.4934 Y18.5884
G01 X51.4272 Y18.6612
G01 X51.3496 Y18.7315
G01 X51.2707 Y18.7903
G01 X51.2603 Y18.7972
G01 X51.1758 Y18.8477
G01 X51.0973 Y18.8850
G01 X50.8761 Y32.7221
G01 X50.8754 Y32.7402
G01 X50.8729 Y32.7675
G01 X50.8709 Y32.7824
G01 X50.8671 Y32.8031
G01 X50.8630 Y32.8208
G01 X50.8555 Y32.8471
G01 X50.8496 Y32.8643
G01 X50.8393 Y32.8896
G01 X50.8330 Y32.9033
G01 X50.8233 Y32.9220
G01 X50.8143 Y32.9378
G01 X50.7995 Y32.9608
G01 X50.7889 Y32.9755
G01 X50.7717 Y32.9967
G01 X50.7617 Y33.0080
G01 X50.7470 Y33.0231
G01 X50.7361 Y33.0335
G01 X50.7153 Y33.0513
G01 X50.7010 Y33.0624
G01 X34.7208 Y44.8717
G01 X34.6976 Y50.0244
G01 X34.7584 Y50.0610
G01 X34.8235 Y50.1091
G01 X34.8332 Y50.1170
G01 X34.8931 Y50.1715
G01 X34.9476 Y50.2314
G01 X34.9555 Y50.2411
G01 X35.0036 Y50.3062
G01 X35.0454 Y50.3756
G01 X35.0512 Y50.3866
G01 X35.0857 Y50.4599
G01 X35.1132 Y50.5361
G01 X35.1168 Y50.5480
G01 X35.1363 Y50.6266
G01 X35.1484 Y50.7067
G01 X35.1496 Y50.7191
G01 X35.1534 Y50.8000
G01 X35.1496 Y50.8809
G01 X35.1484 Y50.8933
G01 X35.1363 Y50.9734
G01 X35.1168 Y51.0520
G01 X35.1132 Y51.0639
G01 X35.0857 Y51.1401
G01 X35.0512 Y51.2134
G01 X35.0454 Y51.2244
G01 X35.0036 Y51.2938
G01 X34.9555 Y51.3589
G01 X34.9476 Y51.3686
G01 X34.8931 Y51.4285
G01 X34.8284 Y51.4870
G01 X34.7635 Y51.5354
G01 X34.7531 Y51.5423
G01 X34.6836 Y51.5838
G01 X34.6047 Y51.6211
G01 X34.5226 Y51.6505
G01 X34.4380 Y51.6717
G01 X34.3517 Y51.6845
G01 X34.2646 Y51.6888
G01 X34.1775 Y51.6845
G01 X34.0912 Y51.6717
G01 X34.0066 Y51.6505
G01 X33.9245 Y51.6211
G01 X33.8456 Y51.5838
G01 X33.7708 Y51.5390
G01 X33.7008 Y51.4870
G01 X33.6361 Y51.4285
G01 X33.5776 Y51.3638
G01 X33.5256 Y51.2938
G01 X33.4808 Y51.2190
G01 X33.4435 Y51.1401
G01 X33.4141 Y51.0580
G01 X33.3929 Y50.9734
G01 X33.3801 Y50.8871
G01 X33.3758 Y50.8000
G01 X33.3801 Y50.7129
G01 X33.3929 Y50.6266
G01 X33.4141 Y50.5420
G01 X33.4435 Y50.4599
G01 X33.4808 Y50.3810
G01 X33.5256 Y50.3062
G01 X33.5776 Y50.2362
G01 X33.6361 Y50.1715
G01 X33.7008 Y50.1130
G01 X33.7708 Y50.0610
G01 X33.8341 Y50.0229
G00 Z2.0000
G00 X37.6932 Y50.8062
G01 F60.00
G01 Z-0.1000
G01 F120.00
G01 X37.6891 Y50.8871
G01 X37.6763 Y50.9734
G01 X37.6551 Y51.0580
G01 X37.6257 Y51.1401
G01 X37.5884 Y51.2190
G01 X37.5436 Y51.2938
G01 X37.4916 Y51.3638
G01 X37.4331 Y51.4285
G01 X37.3684 Y51.4870
G01 X37.2984 Y51.5390
G01 X37.2236 Y51.5838
G01 X37.1447 Y51.6211
G01 X37.0626 Y51.6505
G01 X36.9780 Y51.6717
G01 X36.8917 Y51.6845
G01 X36.8046 Y51.6888
G01 X36.7175 Y51.6845
G01 X36.6312 Y51.6717
G01 X36.5466 Y51.6505
G01 X36.4645 Y51.6211
G01 X36.3856 Y51.5838
G01 X36.3108 Y51.5390
G01 X36.2408 Y51.4870
G01 X36.1761 Y51.4285
G01 X36.1176 Y51.3638
G01 X36.0656 Y51.2938
G01 X36.0208 Y51.2190
G01 X35.9835 Y51.1401
G01 X35.9541 Y51.0580
G01 X35.9329 Y50.9734
G01 X35.9201 Y50.8871
G01 X35.9158 Y50.8000
G01 X35.9201 Y50.7129
G01 X35.9329 Y50.6266
G01 X35.9541 Y50.5420
G01 X35.9835 Y50.4599
G01 X36.0208 Y50.3810
G01 X36.0656 Y50.3062
G01 X36.1176 Y50.2362
G01 X36.1761 Y50.1715
G01 X36.2408 Y50.1130
G01 X36.3108 Y50.0610
G01 X36.3856 Y50.0162
G01 X36.4645 Y49.9789
G01 X36.5466 Y49.9495
G01 X36.6312 Y49.9283
G01 X36.7175 Y49.9155
G01 X36.8046 Y49.9112
G01 X36.8917 Y49.9155
G01 X36.9780 Y49.9283
G01 X37.0626 Y49.9495
G01 X37.1447 Y49.9789
G01 X37.2236 Y50.0162
G01 X37.2984 Y50.0610
G01 X37.3684 Y50.1130
G01 X37.4331 Y50.1715
G01 X37.4916 Y50.2362
G01 X37.5436 Y50.3062
G01 X37.5884 Y50.3810
G01 X37.6257 Y50.4599
G01 X37.6551 Y50.5420
G01 X37.6763 Y50.6266
G01 X37.6891 Y50.7129
G01 X37.6932 Y50.7938
G01 X37.6932 Y50.8062
G00 Z2.0000
G00 X40.2332 Y50.8062
G01 F60.00
G01 Z-0.1000
G01 F120.00
G01 X40.2291 Y50.8871
G01 X40.2163 Y50.9734
G01 X40.1951 Y51.0580
G01 X40.1657 Y51.1401
G01 X40.1284 Y51.2190
G01 X40.0836 Y51.2938
G01 X40.0316 Y51.3638
G01 X39.9731 Y51.4285
G01 X39.9084 Y51.4870
G01 X39.8384 Y51.5390
G01 X39.7636 Y51.5838
G01 X39.6847 Y51.6211
G01 X39.6026 Y51.6505
G01 X39.5180 Y51.6717
G01 X39.4317 Y51.6845
G01 X39.3446 Y51.6888
G01 X39.2575 Y51.6845
G01 X39.1712 Y51.6717
G01 X39.0866 Y51.6505
G01 X39.0045 Y51.6211
G01 X38.9256 Y51.5838
G01 X38.8508 Y51.5390
G01 X38.7808 Y51.4870
G01 X38.7161 Y51.4285
G01 X38.6576 Y51.3638
G01 X38.6056 Y51.2938
G01 X38.5608 Y51.2190
G01 X38.5235 Y51.1401
G01 X38.4941 Y51.0580
G01 X38.4729 Y50.9734
G01 X38.4601 Y50.8871
G01 X38.4558 Y50.8000
G01 X38.4601 Y50.7129
G01 X38.4729 Y50.6266
G01 X38.4941 Y50.5420
G01 X38.5235 Y50.4599
G01 X38.5608 Y50.3810
G01 X38.6056 Y50.3062
G01 X38.6576 Y50.2362
G01 X38.7161 Y50.1715
G01 X38.7808 Y50.1130
G01 X38.8508 Y50.0610
G01 X38.9256 Y50.0162
G01 X39.0045 Y49.9789
G01 X39.0866 Y49.9495
G01 X39.1712 Y49.9283
G01 X39.2575 Y49.9155
G01 X39.3446 Y49.9112
G01 X39.4317 Y49.9155
G01 X39.5180 Y49.9283
G01 X39.6026 Y49.9495
G01 X39.6847 Y49.9789
G01 X39.7636 Y50.0162
G01 X39.8384 Y50.0610
G01 X39.9084 Y50.1130
G01 X39.9731 Y50.1715
G01 X40.0316 Y50.2362
G01 X40.0836 Y50.3062
G01 X40.1284 Y50.3810
G01 X40.1657 Y50.4599
G01 X40.1951 Y50.5420
G01 X40.2163 Y50.6266
G01 X40.2291 Y50.7129
G01 X40.2332 Y50.7938
G01 X40.2332 Y50.8062
G00 Z2.0000
G00 X42.7732 Y50.8062
G01 F60.00
G01 Z-0.1000
G01 F120.00
G01 X42.7691 Y50.8871
G01 X42.7563 Y50.9734
G01 X42.7351 Y51.0580
G01 X42.7057 Y51.1401
G01 X42.6684 Y51.2190
G01 X42.6236 Y51.2938
G01 X42.5716 Y51.3638
G01 X42.5131 Y51.4285
G01 X42.4484 Y51.4870
G01 X42.3784 Y51.5390
G01 X42.3036 Y51.5838
G01 X42.2247 Y51.6211
G01 X42.1426 Y51.6505
G01 X42.0580 Y51.6717
G01 X41.9717 Y51.6845
G01 X41.8846 Y51.6888
G01 X41.7975 Y51.6845
G01 X41.7112 Y51.6717
G01 X41.6266 Y51.6505
G01 X41.5445 Y51.6211
G01 X41.4656 Y51.5838
G01 X41.3908 Y51.5390
G01 X41.3208 Y51.4870
G01 X41.2561 Y51.4285
G01 X41.1976 Y51.3638
G01 X41.1456 Y51.2938
G01 X41.1008 Y51.2190
G01 X41.0635 Y51.1401
G01 X41.0341 Y51.0580
G01 X41.0129 Y50.9734
G01 X41.0001 Y50.8871
G01 X40.9958 Y50.8000
G01 X41.0001 Y50.7129
G01 X41.0129 Y50.6266
G01 X41.0341 Y50.5420
G01 X41.0635 Y50.4599
G01 X41.1008 Y50.3810
G01 X41.1456 Y50.3062
G01 X41.1976 Y50.2362
G01 X41.2561 Y50.1715
G01 X41.3208 Y50.1130
G01 X41.3908 Y50.0610
G01 X41.4656 Y50.0162
G01 X41.5445 Y49.9789
G01 X41.6266 Y49.9495
G01 X41.7112 Y49.9283
G01 X41.7975 Y49.9155
G01 X41.8846 Y49.9112
G01 X41.9717 Y49.9155
G01 X42.0580 Y49.9283
G01 X42.1426 Y49.9495
G01 X42.2247 Y49.9789
G01 X42.3036 Y50.0162
G01 X42.3784 Y50.0610
G01 X42.4484 Y50.1130
G01 X42.5131 Y50.1715
G01 X42.5716 Y50.2362
G01 X42.6236 Y50.3062
G01 X42.6684 Y50.3810
G01 X42.7057 Y50.4599
G01 X42.7351 Y50.5420
G01 X42.7563 Y50.6266
G01 X42.7691 Y50.7129
G01 X42.7732 Y50.7938
G01 X42.7732 Y50.8062
G00 Z2.0000
G00 X45.5169 Y50.0236
G01 F60.00
G01 Z-0.1000
G01 F120.00
G01 X45.5169 Y44.8239
G01 X45.5187 Y44.7918
G01 X45.5206 Y44.7754
G01 X45.5246 Y44.7498
G01 X45.5266 Y44.7398
G01 X45.5354 Y44.7057
G01 X45.5386 Y44.6959
G01 X45.5486 Y44.6687
G01 X45.5538 Y44.6564
G01 X45.5664 Y44.6302
G01 X45.5712 Y44.6212
G01 X45.5879 Y44.5937
G01 X45.5954 Y44.5827
G01 X45.6129 Y44.5595
G01 X45.6236 Y44.5470
G01 X45.6411 Y44.5279
G01 X45.6484 Y44.5207
G01 X45.6723 Y44.4993
G01 X45.6803 Y44.4928
G01 X52.4040 Y39.1584
G01 X52.7728 Y18.8774
G01 X52.7102 Y18.8477
G01 X52.6230 Y18.7955
G01 X52.6153 Y18.7903
G01 X52.5413 Y18.7353
G01 X52.5340 Y18.7295
G01 X52.4588 Y18.6612
G01 X52.3926 Y18.5884
G01 X52.3847 Y18.5787
G01 X52.3297 Y18.5047
G01 X52.3245 Y18.4970
G01 X52.2723 Y18.4098
G01 X52.2301 Y18.3209
G01 X52.2254 Y18.3094
G01 X52.1923 Y18.2166
G01 X52.1669 Y18.1151
G01 X52.1523 Y18.0177
G01 X52.1511 Y18.0053
G01 X52.1466 Y17.9132
G01 X52.1466 Y17.9008
G01 X52.1511 Y17.8087
G01 X52.1523 Y17.7963
G01 X52.1669 Y17.6989
G01 X52.1907 Y17.6034
G01 X52.1943 Y17.5915
G01 X52.2276 Y17.4988
G01 X52.2695 Y17.4098
G01 X52.2754 Y17.3988
G01 X52.3262 Y17.3144
G01 X52.3885 Y17.2304
G01 X52.4588 Y17.1528
G01 X52.5364 Y17.0825
G01 X52.6204 Y17.0202
G01 X52.7048 Y16.9694
G01 X52.7158 Y16.9635
G01 X52.8048 Y16.9216
G01 X52.8975 Y16.8883
G01 X52.9094 Y16.8847
G01 X52.9988 Y16.8623
G01 X53.0110 Y16.8598
G01 X53.1085 Y16.8455
G01 X53.2130 Y16.8404
G01 X53.3175 Y16.8455
G01 X53.4150 Y16.8598
G01 X53.4272 Y16.8623
G01 X53.5226 Y16.8863
G01 X53.6212 Y16.9216
G01 X53.7158 Y16.9663
G01 X53.8003 Y17.0168
G01 X53.8107 Y17.0237
G01 X53.8847 Y17.0787
G01 X53.8944 Y17.0866
G01 X53.9672 Y17.1528
G01 X54.0375 Y17.2304
G01 X54.0998 Y17.3144
G01 X54.1506 Y17.3988
G01 X54.1565 Y17.4098
G01 X54.1959 Y17.4931
G01 X54.2006 Y17.5046
G01 X54.2337 Y17.5974
G01 X54.2591 Y17.6989
G01 X54.2745 Y17.8025
G01 X54.2796 Y17.9070
G01 X54.2749 Y18.0053
G01 X54.2737 Y18.0177
G01 X54.2591 Y18.1151
G01 X54.2337 Y18.2166
G01 X54.2006 Y18.3094
G01 X54.1959 Y18.3209
G01 X54.1537 Y18.4098
G01 X54.0998 Y18.4996
G01 X54.0413 Y18.5787
G01 X54.0334 Y18.5884
G01 X53.9672 Y18.6612
G01 X53.8896 Y18.7315
G01 X53.8107 Y18.7903
G01 X53.8003 Y18.7972
G01 X53.7158 Y18.8477
G01 X53.6363 Y18.8854
G01 X53.2637 Y39.3778
G01 X53.2608 Y39.4200
G01 X53.2552 Y39.4551
G01 X53.2532 Y39.4649
G01 X53.2428 Y39.5027
G01 X53.2281 Y39.5419
G01 X53.2093 Y39.5799
G01 X53.1904 Y39.6106
G01 X53.1848 Y39.6188
G01 X53.1651 Y39.6445
G01 X53.1566 Y39.6546
G01 X53.1318 Y39.6807
G01 X53.1003 Y39.7082
G01 X46.3803 Y45.0396
G01 X46.3804 Y50.0236
G01 X46.4424 Y50.0610
G01 X46.5075 Y50.1091
G01 X46.5172 Y50.1170
G01 X46.5771 Y50.1715
G01 X46.6316 Y50.2314
G01 X46.6395 Y50.2411
G01 X46.6876 Y50.3062
G01 X46.7294 Y50.3756
G01 X46.7352 Y50.3866
G01 X46.7697 Y50.4599
G01 X46.7972 Y50.5361
G01 X46.8008 Y50.5480
G01 X46.8203 Y50.6266
G01 X46.8324 Y50.7067
G01 X46.8336 Y50.7191
G01 X46.8374 Y50.8000
G01 X46.8336 Y50.8809
G01 X46.8324 Y50.8933
G01 X46.8203 Y50.9734
G01 X46.8008 Y51.0520
G01 X46.7972 Y51.0639
G01 X46.7697 Y51.1401
G01 X46.7352 Y51.2134
G01 X46.7294 Y51.2244
G01 X46.6876 Y51.2938
G01 X46.6395 Y51.3589
G01 X46.6316 Y51.3686
G01 X46.5771 Y51.4285
G01 X46.5124 Y51.4870
G01 X46.4475 Y51.5354
G01 X46.4371 Y51.5423
G01 X46.3676 Y51.5838
G01 X46.2887 Y51.6211
G01 X46.2066 Y51.6505
G01 X46.1220 Y51.6717
G01 X46.0357 Y51.6845
G01 X45.9486 Y51.6888
G01 X45.8615 Y51.6845
G01 X45.7752 Y51.6717
G01 X45.6906 Y51.6505
G01 X45.6085 Y51.6211
G01 X45.5296 Y51.5838
G01 X45.4548 Y51.5390
G01 X45.3848 Y51.4870
G01 X45.3201 Y51.4285
G01 X45.2616 Y51.3638
G01 X45.2096 Y51.2938
G01 X45.1648 Y51.2190
G01 X45.1275 Y51.1401
G01 X45.0981 Y51.0580
G01 X45.0769 Y50.9734
G01 X45.0641 Y50.8871
G01 X45.0598 Y50.8000
G01 X45.0641 Y50.7129
G01 X45.0769 Y50.6266
G01 X45.0981 Y50.5420
G01 X45.1275 Y50.4599
G01 X45.1648 Y50.3810
G01 X45.2096 Y50.3062
G01 X45.2616 Y50.2362
G01 X45.3201 Y50.1715
G01 X45.3848 Y50.1130
G01 X45.4548 Y50.0610
G01 X45.5169 Y50.0236
G00 Z2.0000
G00 X49.3772 Y50.8062
G01 F60.00
G01 Z-0.1000
G01 F120.00
G01 X49.3731 Y50.8871
G01 X49.3603 Y50.9734
G01 X49.3391 Y51.0580
G01 X49.3097 Y51.1401
G01 X49.2724 Y51.2190
G01 X49.2276 Y51.2938
G01 X49.1756 Y51.3638
G01 X49.1171 Y51.4285
G01 X49.0524 Y51.4870
G01 X48.9824 Y51.5390
G01 X48.9076 Y51.5838
G01 X48.8287 Y51.6211
G01 X48.7466 Y51.6505
G01 X48.6620 Y51.6717
G01 X48.5757 Y51.6845
G01 X48.4886 Y51.6888
G01 X48.4015 Y51.6845
G01 X48.3152 Y51.6717
G01 X48.2306 Y51.6505
G01 X48.1485 Y51.6211
G01 X48.0696 Y51.5838
G01 X47.9948 Y51.5390
G01 X47.9248 Y51.4870
G01 X47.8601 Y51.4285
G01 X47.8016 Y51.3638
G01 X47.7496 Y51.2938
G01 X47.7048 Y51.2190
G01 X47.6675 Y51.1401
G01 X47.6381 Y51.0580
G01 X47.6169 Y50.9734
G01 X47.6041 Y50.8871
G01 X47.5998 Y50.8000
G01 X47.6041 Y50.7129
G01 X47.6169 Y50.6266
G01 X47.6381 Y50.5420
G01 X47.6675 Y50.4599
G01 X47.7048 Y50.3810
G01 X47.7496 Y50.3062
G01 X47.8016 Y50.2362
G01 X47.8601 Y50.1715
G01 X47.9248 Y50.1130
G01 X47.9948 Y50.0610
G01 X48.0696 Y50.0162
G01 X48.1485 Y49.9789
G01 X48.2306 Y49.9495
G01 X48.3152 Y49.9283
G01 X48.4015 Y49.9155
G01 X48.4886 Y49.9112
G01 X48.5757 Y49.9155
G01 X48.6620 Y49.9283
G01 X48.7466 Y49.9495
G01 X48.8287 Y49.9789
G01 X48.9076 Y50.0162
G01 X48.9824 Y50.0610
G01 X49.0524 Y50.1130
G01 X49.1171 Y50.1715
G01 X49.1756 Y50.2362
G01 X49.2276 Y50.3062
G01 X49.2724 Y50.3810
G01 X49.3097 Y50.4599
G01 X49.3391 Y50.5420
G01 X49.3603 Y50.6266
G01 X49.3731 Y50.7129
G01 X49.3772 Y50.7938
G01 X49.3772 Y50.8062
G00 Z2.0000
G00 X51.9172 Y50.8062
G01 F60.00
G01 Z-0.1000
G01 F120.00
G01 X51.9131 Y50.8871
G01 X51.9003 Y50.9734
G01 X51.8791 Y51.0580
G01 X51.8497 Y51.1401
G01 X51.8124 Y51.2190
G01 X51.7676 Y51.2938
G01 X51.7156 Y51.3638
G01 X51.6571 Y51.4285
G01 X51.5924 Y51.4870
G01 X51.5224 Y51.5390
G01 X51.4476 Y51.5838
G01 X51.3687 Y51.6211
G01 X51.2866 Y51.6505
G01 X51.2020 Y51.6717
G01 X51.1157 Y51.6845
G01 X51.0286 Y51.6888
G01 X50.9415 Y51.6845
G01 X50.8552 Y51.6717
G01 X50.7706 Y51.6505
G01 X50.6885 Y51.6211
G01 X50.6096 Y51.5838
G01 X50.5348 Y51.5390
G01 X50.4648 Y51.4870
G01 X50.4001 Y51.4285
G01 X50.3416 Y51.3638
G01 X50.2896 Y51.2938
G01 X50.2448 Y51.2190
G01 X50.2075 Y51.1401
G01 X50.1781 Y51.0580
G01 X50.1569 Y50.9734
G01 X50.1441 Y50.8871
G01 X50.1398 Y50.8000
G01 X50.1441 Y50.7129
G01 X50.1569 Y50.6266
G01 X50.1781 Y50.5420
G01 X50.2075 Y50.4599
G01 X50.2448 Y50.3810
G01 X50.2896 Y50.3062
G01 X50.3416 Y50.2362
G01 X50.4001 Y50.1715
G01 X50.4648 Y50.1130
G01 X50.5348 Y50.0610
G01 X50.6096 Y50.0162
G01 X50.6885 Y49.9789
G01 X50.7706 Y49.9495
G01 X50.8552 Y49.9283
G01 X50.9415 Y49.9155
G01 X51.0286 Y49.9112
G01 X51.1157 Y49.9155
G01 X51.2020 Y49.9283
G01 X51.2866 Y49.9495
G01 X51.3687 Y49.9789
G01 X51.4476 Y50.0162
G01 X51.5224 Y50.0610
G01 X51.5924 Y50.1130
G01 X51.6571 Y50.1715
G01 X51.7156 Y50.2362
G01 X51.7676 Y50.3062
G01 X51.8124 Y50.3810
G01 X51.8497 Y50.4599
G01 X51.8791 Y50.5420
G01 X51.9003 Y50.6266
G01 X51.9131 Y50.7129
G01 X51.9172 Y50.7938
G01 X51.9172 Y50.8062
G00 Z2.0000
G00 X54.4572 Y50.8062
G01 F60.00
G01 Z-0.1000
G01 F120.00
G01 X54.4531 Y50.8871
G01 X54.4403 Y50.9734
G01 X54.4191 Y51.0580
G01 X54.3897 Y51.1401
G01 X54.3524 Y51.2190
G01 X54.3076 Y51.2938
G01 X54.2556 Y51.3638
G01 X54.1971 Y51.4285
G01 X54.1324 Y51.4870
G01 X54.0624 Y51.5390
G01 X53.9876 Y51.5838
G01 X53.9087 Y51.6211
G01 X53.8266 Y51.6505
G01 X53.7420 Y51.6717
G01 X53.6557 Y51.6845
G01 X53.5686 Y51.6888
G01 X53.4815 Y51.6845
G01 X53.3952 Y51.6717
G01 X53.3106 Y51.6505
G01 X53.2285 Y51.6211
G01 X53.1496 Y51.5838
G01 X53.0748 Y51.5390
G01 X53.0048 Y51.4870
G01 X52.9401 Y51.4285
G01 X52.8816 Y51.3638
G01 X52.8296 Y51.2938
G01 X52.7848 Y51.2190
G01 X52.7475 Y51.1401
G01 X52.7181 Y51.0580
G01 X52.6969 Y50.9734
G01 X52.6841 Y50.8871
G01 X52.6798 Y50.8000
G01 X52.6841 Y50.7129
G01 X52.6969 Y50.6266
G01 X52.7181 Y50.5420
G01 X52.7475 Y50.4599
G01 X52.7848 Y50.3810
G01 X52.8296 Y50.3062
G01 X52.8816 Y50.2362
G01 X52.9401 Y50.1715
G01 X53.0048 Y50.1130
G01 X53.0748 Y50.0610
G01 X53.1496 Y50.0162
G01 X53.2285 Y49.9789
G01 X53.3106 Y49.9495
G01 X53.3952 Y49.9283
G01 X53.4815 Y49.9155
G01 X53.5686 Y49.9112
G01 X53.6557 Y49.9155
G01 X53.7420 Y49.9283
G01 X53.8266 Y49.9495
G01 X53.9087 Y49.9789
G01 X53.9876 Y50.0162
G01 X54.0624 Y50.0610
G01 X54.1324 Y50.1130
G01 X54.1971 Y50.1715
G01 X54.2556 Y50.2362
G01 X54.3076 Y50.3062
G01 X54.3524 Y50.3810
G01 X54.3897 Y50.4599
G01 X54.4191 Y50.5420
G01 X54.4403 Y50.6266
G01 X54.4531 Y50.7129
G01 X54.4572 Y50.7938
G01 X54.4572 Y50.8062
G00 Z2.0000
G00 X56.9972 Y50.8062
G01 F60.00
G01 Z-0.1000
G01 F120.00
G01 X56.9931 Y50.8871
G01 X56.9803 Y50.9734
G01 X56.9591 Y51.0580
G01 X56.9297 Y51.1401
G01 X56.8924 Y51.2190
G01 X56.8476 Y51.2938
G01 X56.7956 Y51.3638
G01 X56.7371 Y51.4285
G01 X56.6724 Y51.4870
G01 X56.6024 Y51.5390
G01 X56.5276 Y51.5838
G01 X56.4487 Y51.6211
G01 X56.3666 Y51.6505
G01 X56.2820 Y51.6717
G01 X56.1957 Y51.6845
G01 X56.1086 Y51.6888
G01 X56.0215 Y51.6845
G01 X55.9352 Y51.6717
G01 X55.8506 Y51.6505
G01 X55.7685 Y51.6211
G01 X55.6896 Y51.5838
G01 X55.6148 Y51.5390
G01 X55.5448 Y51.4870
G01 X55.4801 Y51.4285
G01 X55.4216 Y51.3638
G01 X55.3696 Y51.2938
G01 X55.3248 Y51.2190
G01 X55.2875 Y51.1401
G01 X55.2581 Y51.0580
G01 X55.2369 Y50.9734
G01 X55.2241 Y50.8871
G01 X55.2198 Y50.8000
G01 X55.2241 Y50.7129
G01 X55.2369 Y50.6266
G01 X55.2581 Y50.5420
G01 X55.2875 Y50.4599
G01 X55.3248 Y50.3810
G01 X55.3696 Y50.3062
G01 X55.4216 Y50.2362
G01 X55.4801 Y50.1715
G01 X55.5448 Y50.1130
G01 X55.6148 Y50.0610
G01 X55.6896 Y50.0162
G01 X55.7685 Y49.9789
G01 X55.8506 Y49.9495
G01 X55.9352 Y49.9283
G01 X56.0215 Y49.9155
G01 X56.1086 Y49.9112
G01 X56.1957 Y49.9155
G01 X56.2820 Y49.9283
G01 X56.3666 Y49.9495
G01 X56.4487 Y49.9789
G01 X56.5276 Y50.0162
G01 X56.6024 Y50.0610
G01 X56.6724 Y50.1130
G01 X56.7371 Y50.1715
G01 X56.7956 Y50.2362
G01 X56.8476 Y50.3062
G01 X56.8924 Y50.3810
G01 X56.9297 Y50.4599
G01 X56.9591 Y50.5420
G01 X56.9803 Y50.6266
G01 X56.9931 Y50.7129
G01 X56.9972 Y50.7938
G01 X56.9972 Y50.8062
G00 Z2.0000
G00 X58.2169 Y50.0236
G01 F60.00
G01 Z-0.1000
G01 F120.00
G01 X58.2169 Y46.5328
G01 X58.2171 Y46.5177
G01 X58.2187 Y46.4936
G01 X58.2211 Y46.4724
G01 X58.2251 Y46.4486
G01 X58.2283 Y46.4338
G01 X58.2346 Y46.4105
G01 X58.2401 Y46.3931
G01 X58.2497 Y46.3676
G01 X58.2571 Y46.3509
G01 X58.2693 Y46.3265
G01 X58.2768 Y46.3134
G01 X58.2879 Y46.2955
G01 X58.2982 Y46.2805
G01 X58.3149 Y46.2589
G01 X58.3267 Y46.2451
G01 X58.3455 Y46.2253
G01 X60.0986 Y44.5904
G01 X60.3948 Y18.9736
G01 X59.8932 Y18.9736
G01 X59.8839 Y18.9733
G01 X59.8746 Y18.9722
G01 X59.8654 Y18.9705
G01 X59.8564 Y18.9681
G01 X59.8476 Y18.9651
G01 X59.8390 Y18.9614
G01 X59.8254 Y18.9539
G01 X59.8177 Y18.9486
G01 X59.8104 Y18.9428
G01 X59.8035 Y18.9365
G01 X59.7972 Y18.9296
G01 X59.7914 Y18.9223
G01 X59.7861 Y18.9146
G01 X59.7786 Y18.9010
G01 X59.7749 Y18.8924
G01 X59.7719 Y18.8836
G01 X59.7695 Y18.8746
G01 X59.7678 Y18.8654
G01 X59.7667 Y18.8561
G01 X59.7664 Y18.8468
G01 X59.7664 Y16.9672
G01 X59.7670 Y16.9548
G01 X59.7688 Y16.9425
G01 X59.7719 Y16.9304
G01 X59.7761 Y16.9187
G01 X59.7799 Y16.9102
G01 X59.7861 Y16.8994
G01 X59.7914 Y16.8917
G01 X59.7972 Y16.8844
G01 X59.8058 Y16.8754
G01 X59.8128 Y16.8692
G01 X59.8228 Y16.8618
G01 X59.8307 Y16.8569
G01 X59.8418 Y16.8513
G01 X59.8534 Y16.8468
G01 X59.8624 Y16.8442
G01 X59.8746 Y16.8418
G01 X59.8870 Y16.8406
G01 X61.7728 Y16.8404
G01 X61.7852 Y16.8410
G01 X61.7975 Y16.8428
G01 X61.8066 Y16.8450
G01 X61.8184 Y16.8489
G01 X61.8298 Y16.8539
G01 X61.8380 Y16.8584
G01 X61.8483 Y16.8654
G01 X61.8580 Y16.8732
G01 X61.8646 Y16.8798
G01 X61.8728 Y16.8892
G01 X61.8782 Y16.8968
G01 X61.8831 Y16.9047
G01 X61.8887 Y16.9158
G01 X61.8932 Y16.9274
G01 X61.8965 Y16.9394
G01 X61.8982 Y16.9486
G01 X61.8994 Y16.9610
G01 X61.8996 Y18.8468
G01 X61.8986 Y18.8623
G01 X61.8958 Y18.8776
G01 X61.8932 Y18.8866
G01 X61.8899 Y18.8953
G01 X61.8861 Y18.9038
G01 X61.8816 Y18.9120
G01 X61.8765 Y18.9198
G01 X61.8708 Y18.9272
G01 X61.8646 Y18.9342
G01 X61.8580 Y18.9407
G01 X61.8508 Y18.9468
G01 X61.8432 Y18.9522
G01 X61.8353 Y18.9571
G01 X61.8270 Y18.9614
G01 X61.8184 Y18.9651
G01 X61.8096 Y18.9681
G01 X61.8006 Y18.9705
G01 X61.7914 Y18.9722
G01 X61.7821 Y18.9733
G01 X61.7728 Y18.9736
G01 X61.2583 Y18.9736
G01 X60.9599 Y44.7852
G01 X60.9595 Y44.7984
G01 X60.9574 Y44.8275
G01 X60.9557 Y44.8406
G01 X60.9507 Y44.8693
G01 X60.9477 Y44.8822
G01 X60.9408 Y44.9073
G01 X60.9346 Y44.9257
G01 X60.9263 Y44.9471
G01 X60.9197 Y44.9621
G01 X60.9081 Y44.9854
G01 X60.9016 Y44.9969
G01 X60.8861 Y45.0216
G01 X60.8786 Y45.0325
G01 X60.8588 Y45.0579
G01 X60.8501 Y45.0679
G01 X60.8321 Y45.0868
G01 X59.0803 Y46.7205
G01 X59.0804 Y50.0236
G01 X59.1424 Y50.0610
G01 X59.2075 Y50.1091
G01 X59.2172 Y50.1170
G01 X59.2771 Y50.1715
G01 X59.3316 Y50.2314
G01 X59.3395 Y50.2411
G01 X59.3876 Y50.3062
G01 X59.4294 Y50.3756
G01 X59.4352 Y50.3866
G01 X59.4697 Y50.4599
G01 X59.4972 Y50.5361
G01 X59.5008 Y50.5480
G01 X59.5203 Y50.6266
G01 X59.5324 Y50.7067
G01 X59.5336 Y50.7191
G01 X59.5374 Y50.8000
G01 X59.5336 Y50.8809
G01 X59.5324 Y50.8933
G01 X59.5203 Y50.9734
G01 X59.5008 Y51.0520
G01 X59.4972 Y51.0639
G01 X59.4697 Y51.1401
G01 X59.4352 Y51.2134
G01 X59.4294 Y51.2244
G01 X59.3876 Y51.2938
G01 X59.3395 Y51.3589
G01 X59.3316 Y51.3686
G01 X59.2771 Y51.4285
G01 X59.2124 Y51.4870
G01 X59.1475 Y51.5354
G01 X59.1371 Y51.5423
G01 X59.0676 Y51.5838
G01 X58.9887 Y51.6211
G01 X58.9066 Y51.6505
G01 X58.8220 Y51.6717
G01 X58.7357 Y51.6845
G01 X58.6486 Y51.6888
G01 X58.5615 Y51.6845
G01 X58.4752 Y51.6717
G01 X58.3906 Y51.6505
G01 X58.3085 Y51.6211
G01 X58.2296 Y51.5838
G01 X58.1548 Y51.5390
G01 X58.0848 Y51.4870
G01 X58.0201 Y51.4285
G01 X57.9616 Y51.3638
G01 X57.9096 Y51.2938
G01 X57.8648 Y51.2190
G01 X57.8275 Y51.1401
G01 X57.7981 Y51.0580
G01 X57.7769 Y50.9734
G01 X57.7641 Y50.8871
G01 X57.7598 Y50.8000
G01 X57.7641 Y50.7129
G01 X57.7769 Y50.6266
G01 X57.7981 Y50.5420
G01 X57.8275 Y50.4599
G01 X57.8648 Y50.3810
G01 X57.9096 Y50.3062
G01 X57.9616 Y50.2362
G01 X58.0201 Y50.1715
G01 X58.0848 Y50.1130
G01 X58.1548 Y50.0610
G01 X58.2169 Y50.0236
G00 Z2.0000
G00 X62.0772 Y50.8062
G01 F60.00
G01 Z-0.1000
G01 F120.00
G01 X62.0731 Y50.8871
G01 X62.0603 Y50.9734
G01 X62.0391 Y51.0580
G01 X62.0097 Y51.1401
G01 X61.9724 Y51.2190
G01 X61.9276 Y51.2938
G01 X61.8756 Y51.3638
G01 X61.8171 Y51.4285
G01 X61.7524 Y51.4870
G01 X61.6824 Y51.5390
G01 X61.6076 Y51.5838
G01 X61.5287 Y51.6211
G01 X61.4466 Y51.6505
G01 X61.3620 Y51.6717
G01 X61.2757 Y51.6845
G01 X61.1886 Y51.6888
G01 X61.1015 Y51.6845
G01 X61.0152 Y51.6717
G01 X60.9306 Y51.6505
G01 X60.8485 Y51.6211
G01 X60.7696 Y51.5838
G01 X60.6948 Y51.5390
G01 X60.6248 Y51.4870
G01 X60.5601 Y51.4285
G01 X60.5016 Y51.3638
G01 X60.4496 Y51.2938
G01 X60.4048 Y51.2190
G01 X60.3675 Y51.1401
G01 X60.3381 Y51.0580
G01 X60.3169 Y50.9734
G01 X60.3041 Y50.8871
G01 X60.2998 Y50.8000
G01 X60.3041 Y50.7129
G01 X60.3169 Y50.6266
G01 X60.3381 Y50.5420
G01 X60.3675 Y50.4599
G01 X60.4048 Y50.3810
G01 X60.4496 Y50.3062
G01 X60.5016 Y50.2362
G01 X60.5601 Y50.1715
G01 X60.6248 Y50.1130
G01 X60.6948 Y50.0610
G01 X60.7696 Y50.0162
G01 X60.8485 Y49.9789
G01 X60.9306 Y49.9495
G01 X61.0152 Y49.9283
G01 X61.1015 Y49.9155
G01 X61.1886 Y49.9112
G01 X61.2757 Y49.9155
G01 X61.3620 Y49.9283
G01 X61.4466 Y49.9495
G01 X61.5287 Y49.9789
G01 X61.6076 Y50.0162
G01 X61.6824 Y50.0610
G01 X61.7524 Y50.1130
G01 X61.8171 Y50.1715
G01 X61.8756 Y50.2362
G01 X61.9276 Y50.3062
G01 X61.9724 Y50.3810
G01 X62.0097 Y50.4599
G01 X62.0391 Y50.5420
G01 X62.0603 Y50.6266
G01 X62.0731 Y50.7129
G01 X62.0772 Y50.7938
G01 X62.0772 Y50.8062
G00 Z2.0000
G00 X64.6172 Y50.8062
G01 F60.00
G01 Z-0.1000
G01 F120.00
G01 X64.6131 Y50.8871
G01 X64.6003 Y50.9734
G01 X64.5791 Y51.0580
G01 X64.5497 Y51.1401
G01 X64.5124 Y51.2190
G01 X64.4676 Y51.2938
G01 X64.4156 Y51.3638
G01 X64.3571 Y51.4285
G01 X64.2924 Y51.4870
G01 X64.2224 Y51.5390
G01 X64.1476 Y51.5838
G01 X64.0687 Y51.6211
G01 X63.9866 Y51.6505
G01 X63.9020 Y51.6717
G01 X63.8157 Y51.6845
G01 X63.7286 Y51.6888
G01 X63.6415 Y51.6845
G01 X63.5552 Y51.6717
G01 X63.4706 Y51.6505
G01 X63.3885 Y51.6211
G01 X63.3096 Y51.5838
G01 X63.2348 Y51.5390
G01 X63.1648 Y51.4870
G01 X63.1001 Y51.4285
G01 X63.0416 Y51.3638
G01 X62.9896 Y51.2938
G01 X62.9448 Y51.2190
G01 X62.9075 Y51.1401
G01 X62.8781 Y51.0580
G01 X62.8569 Y50.9734
G01 X62.8441 Y50.8871
G01 X62.8398 Y50.8000
G01 X62.8441 Y50.7129
G01 X62.8569 Y50.6266
G01 X62.8781 Y50.5420
G01 X62.9075 Y50.4599
G01 X62.9448 Y50.3810
G01 X62.9896 Y50.3062
G01 X63.0416 Y50.2362
G01 X63.1001 Y50.1715
G01 X63.1648 Y50.1130
G01 X63.2348 Y50.0610
G01 X63.3096 Y50.0162
G01 X63.3885 Y49.9789
G01 X63.4706 Y49.9495
G01 X63.5552 Y49.9283
G01 X63.6415 Y49.9155
G01 X63.7286 Y49.9112
G01 X63.8157 Y49.9155
G01 X63.9020 Y49.9283
G01 X63.9866 Y49.9495
G01 X64.0687 Y49.9789
G01 X64.1476 Y50.0162
G01 X64.2224 Y50.0610
G01 X64.2924 Y50.1130
G01 X64.3571 Y50.1715
G01 X64.4156 Y50.2362
G01 X64.4676 Y50.3062
G01 X64.5124 Y50.3810
G01 X64.5497 Y50.4599
G01 X64.5791 Y50.5420
G01 X64.6003 Y50.6266
G01 X64.6131 Y50.7129
G01 X64.6172 Y50.7938
G01 X64.6172 Y50.8062
G00 Z2.0000
G00 X57.1877 Y40.2398
G01 F60.00
G01 Z-0.1000
G01 F120.00
G01 X57.1827 Y40.3394
G01 X57.1672 Y40.4442
G01 X57.1414 Y40.5469
G01 X57.1057 Y40.6466
G01 X57.0605 Y40.7424
G01 X57.0060 Y40.8332
G01 X56.9429 Y40.9183
G01 X56.8718 Y40.9968
G01 X56.7933 Y41.0679
G01 X56.7082 Y41.1310
G01 X56.6174 Y41.1855
G01 X56.5216 Y41.2307
G01 X56.4219 Y41.2664
G01 X56.3192 Y41.2922
G01 X56.2144 Y41.3077
G01 X56.1086 Y41.3129
G01 X56.0028 Y41.3077
G01 X55.8980 Y41.2922
G01 X55.7953 Y41.2664
G01 X55.6956 Y41.2307
G01 X55.5998 Y41.1855
G01 X55.5090 Y41.1310
G01 X55.4239 Y41.0679
G01 X55.3454 Y40.9968
G01 X55.2743 Y40.9183
G01 X55.2112 Y40.8332
G01 X55.1567 Y40.7424
G01 X55.1115 Y40.6466
G01 X55.0758 Y40.5469
G01 X55.0500 Y40.4442
G01 X55.0345 Y40.3394
G01 X55.0293 Y40.2336
G01 X55.0345 Y40.1278
G01 X55.0500 Y40.0230
G01 X55.0758 Y39.9203
G01 X55.1115 Y39.8206
G01 X55.1567 Y39.7248
G01 X55.2112 Y39.6340
G01 X55.2743 Y39.5489
G01 X55.3454 Y39.4704
G01 X55.4239 Y39.3993
G01 X55.5090 Y39.3362
G01 X55.5998 Y39.2817
G01 X55.6956 Y39.2365
G01 X55.7953 Y39.2008
G01 X55.8980 Y39.1750
G01 X56.0028 Y39.1595
G01 X56.1086 Y39.1543
G01 X56.2144 Y39.1595
G01 X56.3192 Y39.1750
G01 X56.4219 Y39.2008
G01 X56.5216 Y39.2365
G01 X56.6174 Y39.2817
G01 X56.7082 Y39.3362
G01 X56.7933 Y39.3993
G01 X56.8718 Y39.4704
G01 X56.9429 Y39.5489
G01 X57.0060 Y39.6340
G01 X57.0605 Y39.7248
G01 X57.1057 Y39.8206
G01 X57.1414 Y39.9203
G01 X57.1672 Y40.0230
G01 X57.1827 Y40.1278
G01 X57.1877 Y40.2274
G01 X57.1877 Y40.2398
G00 Z2.0000
G00 X57.1877 Y30.0798
G01 F60.00
G01 Z-0.1000
G01 F120.00
G01 X57.1827 Y30.1794
G01 X57.1672 Y30.2842
G01 X57.1414 Y30.3869
G01 X57.1057 Y30.4866
G01 X57.0605 Y30.5824
G01 X57.0060 Y30.6732
G01 X56.9429 Y30.7583
G01 X56.8718 Y30.8368
G01 X56.7933 Y30.9079
G01 X56.7082 Y30.9710
G01 X56.6174 Y31.0255
G01 X56.5216 Y31.0707
G01 X56.4219 Y31.1064
G01 X56.3192 Y31.1322
G01 X56.2144 Y31.1477
G01 X56.1086 Y31.1529
G01 X56.0028 Y31.1477
G01 X55.8980 Y31.1322
G01 X55.7953 Y31.1064
G01 X55.6956 Y31.0707
G01 X55.5998 Y31.0255
G01 X55.5090 Y30.9710
G01 X55.4239 Y30.9079
G01 X55.3454 Y30.8368
G01 X55.2743 Y30.7583
G01 X55.2112 Y30.6732
G01 X55.1567 Y30.5824
G01 X55.1115 Y30.4866
G01 X55.0758 Y30.3869
G01 X55.0500 Y30.2842
G01 X55.0345 Y30.1794
G01 X55.0293 Y30.0736
G01 X55.0345 Y29.9678
G01 X55.0500 Y29.8630
G01 X55.0758 Y29.7603
G01 X55.1115 Y29.6606
G01 X55.1567 Y29.5648
G01 X55.2112 Y29.4740
G01 X55.2743 Y29.3889
G01 X55.3454 Y29.3104
G01 X55.4239 Y29.2393
G01 X55.5090 Y29.1762
G01 X55.5998 Y29.1217
G01 X55.6956 Y29.0765
G01 X55.7953 Y29.0408
G01 X55.8980 Y29.0150
G01 X56.0028 Y28.9995
G01 X56.1086 Y28.9943
G01 X56.2144 Y28.9995
G01 X56.3192 Y29.0150
G01 X56.4219 Y29.0408
G01 X56.5216 Y29.0765
G01 X56.6174 Y29.1217
G01 X56.7082 Y29.1762
G01 X56.7933 Y29.2393
G01 X56.8718 Y29.3104
G01 X56.9429 Y29.3889
G01 X57.0060 Y29.4740
G01 X57.0605 Y29.5648
G01 X57.1057 Y29.6606
G01 X57.1414 Y29.7603
G01 X57.1672 Y29.8630
G01 X57.1827 Y29.9678
G01 X57.1877 Y30.0674
G01 X57.1877 Y30.0798
G00 Z2.0000
G00 X64.8712 Y30.4862
G01 F60.00
G01 Z-0.1000
G01 F120.00
G01 X64.8671 Y30.5671
G01 X64.8543 Y30.6534
G01 X64.8331 Y30.7380
G01 X64.8037 Y30.8201
G01 X64.7664 Y30.8990
G01 X64.7216 Y30.9738
G01 X64.6696 Y31.0438
G01 X64.6111 Y31.1085
G01 X64.5464 Y31.1670
G01 X64.4764 Y31.2190
G01 X64.4016 Y31.2638
G01 X64.3227 Y31.3011
G01 X64.2406 Y31.3305
G01 X64.1560 Y31.3517
G01 X64.0697 Y31.3645
G01 X63.9826 Y31.3688
G01 X63.8955 Y31.3645
G01 X63.8092 Y31.3517
G01 X63.7246 Y31.3305
G01 X63.6425 Y31.3011
G01 X63.5636 Y31.2638
G01 X63.4888 Y31.2190
G01 X63.4188 Y31.1670
G01 X63.3541 Y31.1085
G01 X63.2956 Y31.0438
G01 X63.2436 Y30.9738
G01 X63.1988 Y30.8990
G01 X63.1615 Y30.8201
G01 X63.1321 Y30.7380
G01 X63.1109 Y30.6534
G01 X63.0981 Y30.5671
G01 X63.0938 Y30.4800
G01 X63.0981 Y30.3929
G01 X63.1109 Y30.3066
G01 X63.1321 Y30.2220
G01 X63.1615 Y30.1399
G01 X63.1988 Y30.0610
G01 X63.2436 Y29.9862
G01 X63.2956 Y29.9162
G01 X63.3541 Y29.8515
G01 X63.4188 Y29.7930
G01 X63.4888 Y29.7410
G01 X63.5636 Y29.6962
G01 X63.6425 Y29.6589
G01 X63.7246 Y29.6295
G01 X63.8092 Y29.6083
G01 X63.8955 Y29.5955
G01 X63.9826 Y29.5912
G01 X64.0697 Y29.5955
G01 X64.1560 Y29.6083
G01 X64.2406 Y29.6295
G01 X64.3227 Y29.6589
G01 X64.4016 Y29.6962
G01 X64.4764 Y29.7410
G01 X64.5464 Y29.7930
G01 X64.6111 Y29.8515
G01 X64.6696 Y29.9162
G01 X64.7216 Y29.9862
G01 X64.7664 Y30.0610
G01 X64.8037 Y30.1399
G01 X64.8331 Y30.2220
G01 X64.8543 Y30.3066
G01 X64.8671 Y30.3929
G01 X64.8712 Y30.4738
G01 X64.8712 Y30.4862
G00 Z2.0000
G00 X64.8712 Y27.9462
G01 F60.00
G01 Z-0.1000
G01 F120.00
G01 X64.8671 Y28.0271
G01 X64.8543 Y28.1134
G01 X64.8331 Y28.1980
G01 X64.8037 Y28.2801
G01 X64.7664 Y28.3590
G01 X64.7216 Y28.4338
G01 X64.6696 Y28.5038
G01 X64.6111 Y28.5685
G01 X64.5464 Y28.6270
G01 X64.4764 Y28.6790
G01 X64.4016 Y28.7238
G01 X64.3227 Y28.7611
G01 X64.2406 Y28.7905
G01 X64.1560 Y28.8117
G01 X64.0697 Y28.8245
G01 X63.9826 Y28.8288
G01 X63.8955 Y28.8245
G01 X63.8092 Y28.8117
G01 X63.7246 Y28.7905
G01 X63.6425 Y28.7611
G01 X63.5636 Y28.7238
G01 X63.4888 Y28.6790
G01 X63.4188 Y28.6270
G01 X63.3541 Y28.5685
G01 X63.2956 Y28.5038
G01 X63.2436 Y28.4338
G01 X63.1988 Y28.3590
G01 X63.1615 Y28.2801
G01 X63.1321 Y28.1980
G01 X63.1109 Y28.1134
G01 X63.0981 Y28.0271
G01 X63.0938 Y27.9400
G01 X63.0981 Y27.8529
G01 X63.1109 Y27.7666
G01 X63.1321 Y27.6820
G01 X63.1615 Y27.5999
G01 X63.1988 Y27.5210
G01 X63.2436 Y27.4462
G01 X63.2956 Y27.3762
G01 X63.3541 Y27.3115
G01 X63.4188 Y27.2530
G01 X63.4888 Y27.2010
G01 X63.5636 Y27.1562
G01 X63.6425 Y27.1189
G01 X63.7246 Y27.0895
G01 X63.8092 Y27.0683
G01 X63.8955 Y27.0555
G01 X63.9826 Y27.0512
G01 X64.0697 Y27.0555
G01 X64.1560 Y27.0683
G01 X64.2406 Y27.0895
G01 X64.3227 Y27.1189
G01 X64.4016 Y27.1562
G01 X64.4764 Y27.2010
G01 X64.5464 Y27.2530
G01 X64.6111 Y27.3115
G01 X64.6696 Y27.3762
G01 X64.7216 Y27.4462
G01 X64.7664 Y27.5210
G01 X64.8037 Y27.5999
G01 X64.8331 Y27.6820
G01 X64.8543 Y27.7666
G01 X64.8671 Y27.8529
G01 X64.8712 Y27.9338
G01 X64.8712 Y27.9462
G00 Z2.0000
G00 X67.4112 Y27.9462
G01 F60.00
G01 Z-0.1000
G01 F120.00
G01 X67.4071 Y28.0271
G01 X67.3943 Y28.1134
G01 X67.3731 Y28.1980
G01 X67.3437 Y28.2801
G01 X67.3064 Y28.3590
G01 X67.2616 Y28.4338
G01 X67.2096 Y28.5038
G01 X67.1511 Y28.5685
G01 X67.0864 Y28.6270
G01 X67.0164 Y28.6790
G01 X66.9416 Y28.7238
G01 X66.8627 Y28.7611
G01 X66.7806 Y28.7905
G01 X66.6960 Y28.8117
G01 X66.6097 Y28.8245
G01 X66.5226 Y28.8288
G01 X66.4355 Y28.8245
G01 X66.3492 Y28.8117
G01 X66.2646 Y28.7905
G01 X66.1825 Y28.7611
G01 X66.1036 Y28.7238
G01 X66.0288 Y28.6790
G01 X65.9588 Y28.6270
G01 X65.8941 Y28.5685
G01 X65.8356 Y28.5038
G01 X65.7836 Y28.4338
G01 X65.7388 Y28.3590
G01 X65.7015 Y28.2801
G01 X65.6721 Y28.1980
G01 X65.6509 Y28.1134
G01 X65.6381 Y28.0271
G01 X65.6338 Y27.9400
G01 X65.6381 Y27.8529
G01 X65.6509 Y27.7666
G01 X65.6721 Y27.6820
G01 X65.7015 Y27.5999
G01 X65.7388 Y27.5210
G01 X65.7836 Y27.4462
G01 X65.8356 Y27.3762
G01 X65.8941 Y27.3115
G01 X65.9588 Y27.2530
G01 X66.0288 Y27.2010
G01 X66.1036 Y27.1562
G01 X66.1825 Y27.1189
G01 X66.2646 Y27.0895
G01 X66.3492 Y27.0683
G01 X66.4355 Y27.0555
G01 X66.5226 Y27.0512
G01 X66.6097 Y27.0555
G01 X66.6960 Y27.0683
G01 X66.7806 Y27.0895
G01 X66.8627 Y27.1189
G01 X66.9416 Y27.1562
G01 X67.0164 Y27.2010
G01 X67.0864 Y27.2530
G01 X67.1511 Y27.3115
G01 X67.2096 Y27.3762
G01 X67.2616 Y27.4462
G01 X67.3064 Y27.5210
G01 X67.3437 Y27.5999
G01 X67.3731 Y27.6820
G01 X67.3943 Y27.7666
G01 X67.4071 Y27.8529
G01 X67.4112 Y27.9338
G01 X67.4112 Y27.9462
G00 Z2.0000
G00 X67.4112 Y30.4862
G01 F60.00
G01 Z-0.1000
G01 F120.00
G01 X67.4071 Y30.5671
G01 X67.3943 Y30.6534
G01 X67.3731 Y30.7380
G01 X67.3437 Y30.8201
G01 X67.3064 Y30.8990
G01 X67.2616 Y30.9738
G01 X67.2096 Y31.0438
G01 X67.1511 Y31.1085
G01 X67.0864 Y31.1670
G01 X67.0164 Y31.2190
G01 X66.9416 Y31.2638
G01 X66.8627 Y31.3011
G01 X66.7806 Y31.3305
G01 X66.6960 Y31.3517
G01 X66.6097 Y31.3645
G01 X66.5226 Y31.3688
G01 X66.4355 Y31.3645
G01 X66.3492 Y31.3517
G01 X66.2646 Y31.3305
G01 X66.1825 Y31.3011
G01 X66.1036 Y31.2638
G01 X66.0288 Y31.2190
G01 X65.9588 Y31.1670
G01 X65.8941 Y31.1085
G01 X65.8356 Y31.0438
G01 X65.7836 Y30.9738
G01 X65.7388 Y30.8990
G01 X65.7015 Y30.8201
G01 X65.6721 Y30.7380
G01 X65.6509 Y30.6534
G01 X65.6381 Y30.5671
G01 X65.6338 Y30.4800
G01 X65.6381 Y30.3929
G01 X65.6509 Y30.3066
G01 X65.6721 Y30.2220
G01 X65.7015 Y30.1399
G01 X65.7388 Y30.0610
G01 X65.7836 Y29.9862
G01 X65.8356 Y29.9162
G01 X65.8941 Y29.8515
G01 X65.9588 Y29.7930
G01 X66.0288 Y29.7410
G01 X66.1036 Y29.6962
G01 X66.1825 Y29.6589
G01 X66.2646 Y29.6295
G01 X66.3492 Y29.6083
G01 X66.4355 Y29.5955
G01 X66.5226 Y29.5912
G01 X66.6097 Y29.5955
G01 X66.6960 Y29.6083
G01 X66.7806 Y29.6295
G01 X66.8627 Y29.6589
G01 X66.9416 Y29.6962
G01 X67.0164 Y29.7410
G01 X67.0864 Y29.7930
G01 X67.1511 Y29.8515
G01 X67.2096 Y29.9162
G01 X67.2616 Y29.9862
G01 X67.3064 Y30.0610
G01 X67.3437 Y30.1399
G01 X67.3731 Y30.2220
G01 X67.3943 Y30.3066
G01 X67.4071 Y30.3929
G01 X67.4112 Y30.4738
G01 X67.4112 Y30.4862
G00 Z2.0000
G00 X67.4112 Y25.4062
G01 F60.00
G01 Z-0.1000
G01 F120.00
G01 X67.4071 Y25.4871
G01 X67.3943 Y25.5734
G01 X67.3731 Y25.6580
G01 X67.3437 Y25.7401
G01 X67.3064 Y25.8190
G01 X67.2616 Y25.8938
G01 X67.2096 Y25.9638
G01 X67.1511 Y26.0285
G01 X67.0864 Y26.0870
G01 X67.0164 Y26.1390
G01 X66.9416 Y26.1838
G01 X66.8627 Y26.2211
G01 X66.7806 Y26.2505
G01 X66.6960 Y26.2717
G01 X66.6097 Y26.2845
G01 X66.5226 Y26.2888
G01 X66.4355 Y26.2845
G01 X66.3492 Y26.2717
G01 X66.2646 Y26.2505
G01 X66.1825 Y26.2211
G01 X66.1036 Y26.1838
G01 X66.0288 Y26.1390
G01 X65.9588 Y26.0870
G01 X65.8941 Y26.0285
G01 X65.8356 Y25.9638
G01 X65.7836 Y25.8938
G01 X65.7388 Y25.8190
G01 X65.7015 Y25.7401
G01 X65.6721 Y25.6580
G01 X65.6509 Y25.5734
G01 X65.6381 Y25.4871
G01 X65.6338 Y25.4000
G01 X65.6381 Y25.3129
G01 X65.6509 Y25.2266
G01 X65.6721 Y25.1420
G01 X65.7015 Y25.0599
G01 X65.7388 Y24.9810
G01 X65.7836 Y24.9062
G01 X65.8356 Y24.8362
G01 X65.8941 Y24.7715
G01 X65.9588 Y24.7130
G01 X66.0288 Y24.6610
G01 X66.1036 Y24.6162
G01 X66.1825 Y24.5789
G01 X66.2646 Y24.5495
G01 X66.3492 Y24.5283
G01 X66.4355 Y24.5155
G01 X66.5226 Y24.5112
G01 X66.6097 Y24.5155
G01 X66.6960 Y24.5283
G01 X66.7806 Y24.5495
G01 X66.8627 Y24.5789
G01 X66.9416 Y24.6162
G01 X67.0164 Y24.6610
G01 X67.0864 Y24.7130
G01 X67.1511 Y24.7715
G01 X67.2096 Y24.8362
G01 X67.2616 Y24.9062
G01 X67.3064 Y24.9810
G01 X67.3437 Y25.0599
G01 X67.3731 Y25.1420
G01 X67.3943 Y25.2266
G01 X67.4071 Y25.3129
G01 X67.4112 Y25.3938
G01 X67.4112 Y25.4062
G00 Z2.0000
G00 X64.8712 Y25.4062
G01 F60.00
G01 Z-0.1000
G01 F120.00
G01 X64.8671 Y25.4871
G01 X64.8543 Y25.5734
G01 X64.8331 Y25.6580
G01 X64.8037 Y25.7401
G01 X64.7664 Y25.8190
G01 X64.7216 Y25.8938
G01 X64.6696 Y25.9638
G01 X64.6111 Y26.0285
G01 X64.5464 Y26.0870
G01 X64.4764 Y26.1390
G01 X64.4016 Y26.1838
G01 X64.3227 Y26.2211
G01 X64.2406 Y26.2505
G01 X64.1560 Y26.2717
G01 X64.0697 Y26.2845
G01 X63.9826 Y26.2888
G01 X63.8955 Y26.2845
G01 X63.8092 Y26.2717
G01 X63.7246 Y26.2505
G01 X63.6425 Y26.2211
G01 X63.5636 Y26.1838
G01 X63.4888 Y26.1390
G01 X63.4188 Y26.0870
G01 X63.3541 Y26.0285
G01 X63.2956 Y25.9638
G01 X63.2436 Y25.8938
G01 X63.1988 Y25.8190
G01 X63.1615 Y25.7401
G01 X63.1321 Y25.6580
G01 X63.1109 Y25.5734
G01 X63.0981 Y25.4871
G01 X63.0938 Y25.4000
G01 X63.0981 Y25.3129
G01 X63.1109 Y25.2266
G01 X63.1321 Y25.1420
G01 X63.1615 Y25.0599
G01 X63.1988 Y24.9810
G01 X63.2436 Y24.9062
G01 X63.2956 Y24.8362
G01 X63.3541 Y24.7715
G01 X63.4188 Y24.7130
G01 X63.4888 Y24.6610
G01 X63.5636 Y24.6162
G01 X63.6425 Y24.5789
G01 X63.7246 Y24.5495
G01 X63.8092 Y24.5283
G01 X63.8955 Y24.5155
G01 X63.9826 Y24.5112
G01 X64.0697 Y24.5155
G01 X64.1560 Y24.5283
G01 X64.2406 Y24.5495
G01 X64.3227 Y24.5789
G01 X64.4016 Y24.6162
G01 X64.4764 Y24.6610
G01 X64.5464 Y24.7130
G01 X64.6111 Y24.7715
G01 X64.6696 Y24.8362
G01 X64.7216 Y24.9062
G01 X64.7664 Y24.9810
G01 X64.8037 Y25.0599
G01 X64.8331 Y25.1420
G01 X64.8543 Y25.2266
G01 X64.8671 Y25.3129
G01 X64.8712 Y25.3938
G01 X64.8712 Y25.4062
G00 Z2.0000
G00 X56.8194 Y17.9132
G01 F60.00
G01 Z-0.1000
G01 F120.00
G01 X56.8145 Y18.0115
G01 X56.7991 Y18.1151
G01 X56.7737 Y18.2166
G01 X56.7384 Y18.3152
G01 X56.6937 Y18.4098
G01 X56.6398 Y18.4996
G01 X56.5775 Y18.5836
G01 X56.5072 Y18.6612
G01 X56.4296 Y18.7315
G01 X56.3456 Y18.7938
G01 X56.2558 Y18.8477
G01 X56.1612 Y18.8924
G01 X56.0626 Y18.9277
G01 X55.9611 Y18.9531
G01 X55.8575 Y18.9685
G01 X55.7530 Y18.9736
G01 X55.6485 Y18.9685
G01 X55.5449 Y18.9531
G01 X55.4434 Y18.9277
G01 X55.3448 Y18.8924
G01 X55.2502 Y18.8477
G01 X55.1604 Y18.7938
G01 X55.0764 Y18.7315
G01 X54.9988 Y18.6612
G01 X54.9285 Y18.5836
G01 X54.8662 Y18.4996
G01 X54.8123 Y18.4098
G01 X54.7676 Y18.3152
G01 X54.7323 Y18.2166
G01 X54.7069 Y18.1151
G01 X54.6915 Y18.0115
G01 X54.6864 Y17.9070
G01 X54.6915 Y17.8025
G01 X54.7069 Y17.6989
G01 X54.7323 Y17.5974
G01 X54.7676 Y17.4988
G01 X54.8123 Y17.4042
G01 X54.8662 Y17.3144
G01 X54.9285 Y17.2304
G01 X54.9988 Y17.1528
G01 X55.0764 Y17.0825
G01 X55.1604 Y17.0202
G01 X55.2502 Y16.9663
G01 X55.3448 Y16.9216
G01 X55.4434 Y16.8863
G01 X55.5449 Y16.8609
G01 X55.6485 Y16.8455
G01 X55.7530 Y16.8404
G01 X55.8575 Y16.8455
G01 X55.9611 Y16.8609
G01 X56.0626 Y16.8863
G01 X56.1612 Y16.9216
G01 X56.2558 Y16.9663
G01 X56.3456 Y17.0202
G01 X56.4296 Y17.0825
G01 X56.5072 Y17.1528
G01 X56.5775 Y17.2304
G01 X56.6398 Y17.3144
G01 X56.6937 Y17.4042
G01 X56.7384 Y17.4988
G01 X56.7737 Y17.5974
G01 X56.7991 Y17.6989
G01 X56.8145 Y17.8025
G01 X56.8194 Y17.9008
G01 X56.8194 Y17.9132
G00 Z2.0000
G00 X56.9972 Y2.5462
G01 F60.00
G01 Z-0.1000
G01 F120.00
G01 X56.9931 Y2.6271
G01 X56.9803 Y2.7134
G01 X56.9591 Y2.7980
G01 X56.9297 Y2.8801
G01 X56.8924 Y2.9590
G01 X56.8476 Y3.0338
G01 X56.7956 Y3.1038
G01 X56.7371 Y3.1685
G01 X56.6724 Y3.2270
G01 X56.6024 Y3.2790
G01 X56.5276 Y3.3238
G01 X56.4487 Y3.3611
G01 X56.3666 Y3.3905
G01 X56.2820 Y3.4117
G01 X56.1957 Y3.4245
G01 X56.1086 Y3.4288
G01 X56.0215 Y3.4245
G01 X55.9352 Y3.4117
G01 X55.8506 Y3.3905
G01 X55.7685 Y3.3611
G01 X55.6896 Y3.3238
G01 X55.6148 Y3.2790
G01 X55.5448 Y3.2270
G01 X55.4801 Y3.1685
G01 X55.4216 Y3.1038
G01 X55.3696 Y3.0338
G01 X55.3248 Y2.9590
G01 X55.2875 Y2.8801
G01 X55.2581 Y2.7980
G01 X55.2369 Y2.7134
G01 X55.2241 Y2.6271
G01 X55.2198 Y2.5400
G01 X55.2241 Y2.4529
G01 X55.2369 Y2.3666
G01 X55.2581 Y2.2820
G01 X55.2875 Y2.1999
G01 X55.3248 Y2.1210
G01 X55.3696 Y2.0462
G01 X55.4216 Y1.9762
G01 X55.4801 Y1.9115
G01 X55.5448 Y1.8530
G01 X55.6148 Y1.8010
G01 X55.6896 Y1.7562
G01 X55.7685 Y1.7189
G01 X55.8506 Y1.6895
G01 X55.9352 Y1.6683
G01 X56.0215 Y1.6555
G01 X56.1086 Y1.6512
G01 X56.1957 Y1.6555
G01 X56.2820 Y1.6683
G01 X56.3666 Y1.6895
G01 X56.4487 Y1.7189
G01 X56.5276 Y1.7562
G01 X56.6024 Y1.8010
G01 X56.6724 Y1.8530
G01 X56.7371 Y1.9115
G01 X56.7956 Y1.9762
G01 X56.8476 Y2.0462
G01 X56.8924 Y2.1210
G01 X56.9297 Y2.1999
G01 X56.9591 Y2.2820
G01 X56.9803 Y2.3666
G01 X56.9931 Y2.4529
G01 X56.9972 Y2.5338
G01 X56.9972 Y2.5462
G00 Z2.0000
G00 X59.5372 Y2.5462
G01 F60.00
G01 Z-0.1000
G01 F120.00
G01 X59.5331 Y2.6271
G01 X59.5203 Y2.7134
G01 X59.4991 Y2.7980
G01 X59.4697 Y2.8801
G01 X59.4324 Y2.9590
G01 X59.3876 Y3.0338
G01 X59.3356 Y3.1038
G01 X59.2771 Y3.1685
G01 X59.2124 Y3.2270
G01 X59.1424 Y3.2790
G01 X59.0676 Y3.3238
G01 X58.9887 Y3.3611
G01 X58.9066 Y3.3905
G01 X58.8220 Y3.4117
G01 X58.7357 Y3.4245
G01 X58.6486 Y3.4288
G01 X58.5615 Y3.4245
G01 X58.4752 Y3.4117
G01 X58.3906 Y3.3905
G01 X58.3085 Y3.3611
G01 X58.2296 Y3.3238
G01 X58.1548 Y3.2790
G01 X58.0848 Y3.2270
G01 X58.0201 Y3.1685
G01 X57.9616 Y3.1038
G01 X57.9096 Y3.0338
G01 X57.8648 Y2.9590
G01 X57.8275 Y2.8801
G01 X57.7981 Y2.7980
G01 X57.7769 Y2.7134
G01 X57.7641 Y2.6271
G01 X57.7598 Y2.5400
G01 X57.7641 Y2.4529
G01 X57.7769 Y2.3666
G01 X57.7981 Y2.2820
G01 X57.8275 Y2.1999
G01 X57.8648 Y2.1210
G01 X57.9096 Y2.0462
G01 X57.9616 Y1.9762
G01 X58.0201 Y1.9115
G01 X58.0848 Y1.8530
G01 X58.1548 Y1.8010
G01 X58.2296 Y1.7562
G01 X58.3085 Y1.7189
G01 X58.3906 Y1.6895
G01 X58.4752 Y1.6683
G01 X58.5615 Y1.6555
G01 X58.6486 Y1.6512
G01 X58.7357 Y1.6555
G01 X58.8220 Y1.6683
G01 X58.9066 Y1.6895
G01 X58.9887 Y1.7189
G01 X59.0676 Y1.7562
G01 X59.1424 Y1.8010
G01 X59.2124 Y1.8530
G01 X59.2771 Y1.9115
G01 X59.3356 Y1.9762
G01 X59.3876 Y2.0462
G01 X59.4324 Y2.1210
G01 X59.4697 Y2.1999
G01 X59.4991 Y2.2820
G01 X59.5203 Y2.3666
G01 X59.5331 Y2.4529
G01 X59.5372 Y2.5338
G01 X59.5372 Y2.5462
G00 Z2.0000
G00 X62.0772 Y2.5462
G01 F60.00
G01 Z-0.1000
G01 F120.00
G01 X62.0731 Y2.6271
G01 X62.0603 Y2.7134
G01 X62.0391 Y2.7980
G01 X62.0097 Y2.8801
G01 X61.9724 Y2.9590
G01 X61.9276 Y3.0338
G01 X61.8756 Y3.1038
G01 X61.8171 Y3.1685
G01 X61.7524 Y3.2270
G01 X61.6824 Y3.2790
G01 X61.6076 Y3.3238
G01 X61.5287 Y3.3611
G01 X61.4466 Y3.3905
G01 X61.3620 Y3.4117
G01 X61.2757 Y3.4245
G01 X61.1886 Y3.4288
G01 X61.1015 Y3.4245
G01 X61.0152 Y3.4117
G01 X60.9306 Y3.3905
G01 X60.8485 Y3.3611
G01 X60.7696 Y3.3238
G01 X60.6948 Y3.2790
G01 X60.6248 Y3.2270
G01 X60.5601 Y3.1685
G01 X60.5016 Y3.1038
G01 X60.4496 Y3.0338
G01 X60.4048 Y2.9590
G01 X60.3675 Y2.8801
G01 X60.3381 Y2.7980
G01 X60.3169 Y2.7134
G01 X60.3041 Y2.6271
G01 X60.2998 Y2.5400
G01 X60.3041 Y2.4529
G01 X60.3169 Y2.3666
G01 X60.3381 Y2.2820
G01 X60.3675 Y2.1999
G01 X60.4048 Y2.1210
G01 X60.4496 Y2.0462
G01 X60.5016 Y1.9762
G01 X60.5601 Y1.9115
G01 X60.6248 Y1.8530
G01 X60.6948 Y1.8010
G01 X60.7696 Y1.7562
G01 X60.8485 Y1.7189
G01 X60.9306 Y1.6895
G01 X61.0152 Y1.6683
G01 X61.1015 Y1.6555
G01 X61.1886 Y1.6512
G01 X61.2757 Y1.6555
G01 X61.3620 Y1.6683
G01 X61.4466 Y1.6895
G01 X61.5287 Y1.7189
G01 X61.6076 Y1.7562
G01 X61.6824 Y1.8010
G01 X61.7524 Y1.8530
G01 X61.8171 Y1.9115
G01 X61.8756 Y1.9762
G01 X61.9276 Y2.0462
G01 X61.9724 Y2.1210
G01 X62.0097 Y2.1999
G01 X62.0391 Y2.2820
G01 X62.0603 Y2.3666
G01 X62.0731 Y2.4529
G01 X62.0772 Y2.5338
G01 X62.0772 Y2.5462
G00 Z2.0000
G00 X64.6172 Y2.5462
G01 F60.00
G01 Z-0.1000
G01 F120.00
G01 X64.6131 Y2.6271
G01 X64.6003 Y2.7134
G01 X64.5791 Y2.7980
G01 X64.5497 Y2.8801
G01 X64.5124 Y2.9590
G01 X64.4676 Y3.0338
G01 X64.4156 Y3.1038
G01 X64.3571 Y3.1685
G01 X64.2924 Y3.2270
G01 X64.2224 Y3.2790
G01 X64.1476 Y3.3238
G01 X64.0687 Y3.3611
G01 X63.9866 Y3.3905
G01 X63.9020 Y3.4117
G01 X63.8157 Y3.4245
G01 X63.7286 Y3.4288
G01 X63.6415 Y3.4245
G01 X63.5552 Y3.4117
G01 X63.4706 Y3.3905
G01 X63.3885 Y3.3611
G01 X63.3096 Y3.3238
G01 X63.2348 Y3.2790
G01 X63.1648 Y3.2270
G01 X63.1001 Y3.1685
G01 X63.0416 Y3.1038
G01 X62.9896 Y3.0338
G01 X62.9448 Y2.9590
G01 X62.9075 Y2.8801
G01 X62.8781 Y2.7980
G01 X62.8569 Y2.7134
G01 X62.8441 Y2.6271
G01 X62.8398 Y2.5400
G01 X62.8441 Y2.4529
G01 X62.8569 Y2.3666
G01 X62.8781 Y2.2820
G01 X62.9075 Y2.1999
G01 X62.9448 Y2.1210
G01 X62.9896 Y2.0462
G01 X63.0416 Y1.9762
G01 X63.1001 Y1.9115
G01 X63.1648 Y1.8530
G01 X63.2348 Y1.8010
G01 X63.3096 Y1.7562
G01 X63.3885 Y1.7189
G01 X63.4706 Y1.6895
G01 X63.5552 Y1.6683
G01 X63.6415 Y1.6555
G01 X63.7286 Y1.6512
G01 X63.8157 Y1.6555
G01 X63.9020 Y1.6683
G01 X63.9866 Y1.6895
G01 X64.0687 Y1.7189
G01 X64.1476 Y1.7562
G01 X64.2224 Y1.8010
G01 X64.2924 Y1.8530
G01 X64.3571 Y1.9115
G01 X64.4156 Y1.9762
G01 X64.4676 Y2.0462
G01 X64.5124 Y2.1210
G01 X64.5497 Y2.1999
G01 X64.5791 Y2.2820
G01 X64.6003 Y2.3666
G01 X64.6131 Y2.4529
G01 X64.6172 Y2.5338
G01 X64.6172 Y2.5462
G00 Z2.0000
G00 X54.4572 Y2.5462
G01 F60.00
G01 Z-0.1000
G01 F120.00
G01 X54.4531 Y2.6271
G01 X54.4403 Y2.7134
G01 X54.4191 Y2.7980
G01 X54.3897 Y2.8801
G01 X54.3524 Y2.9590
G01 X54.3076 Y3.0338
G01 X54.2556 Y3.1038
G01 X54.1971 Y3.1685
G01 X54.1324 Y3.2270
G01 X54.0624 Y3.2790
G01 X53.9876 Y3.3238
G01 X53.9087 Y3.3611
G01 X53.8266 Y3.3905
G01 X53.7420 Y3.4117
G01 X53.6557 Y3.4245
G01 X53.5686 Y3.4288
G01 X53.4815 Y3.4245
G01 X53.3952 Y3.4117
G01 X53.3106 Y3.3905
G01 X53.2285 Y3.3611
G01 X53.1496 Y3.3238
G01 X53.0748 Y3.2790
G01 X53.0048 Y3.2270
G01 X52.9401 Y3.1685
G01 X52.8816 Y3.1038
G01 X52.8296 Y3.0338
G01 X52.7848 Y2.9590
G01 X52.7475 Y2.8801
G01 X52.7181 Y2.7980
G01 X52.6969 Y2.7134
G01 X52.6841 Y2.6271
G01 X52.6798 Y2.5400
G01 X52.6841 Y2.4529
G01 X52.6969 Y2.3666
G01 X52.7181 Y2.2820
G01 X52.7475 Y2.1999
G01 X52.7848 Y2.1210
G01 X52.8296 Y2.0462
G01 X52.8816 Y1.9762
G01 X52.9401 Y1.9115
G01 X53.0048 Y1.8530
G01 X53.0748 Y1.8010
G01 X53.1496 Y1.7562
G01 X53.2285 Y1.7189
G01 X53.3106 Y1.6895
G01 X53.3952 Y1.6683
G01 X53.4815 Y1.6555
G01 X53.5686 Y1.6512
G01 X53.6557 Y1.6555
G01 X53.7420 Y1.6683
G01 X53.8266 Y1.6895
G01 X53.9087 Y1.7189
G01 X53.9876 Y1.7562
G01 X54.0624 Y1.8010
G01 X54.1324 Y1.8530
G01 X54.1971 Y1.9115
G01 X54.2556 Y1.9762
G01 X54.3076 Y2.0462
G01 X54.3524 Y2.1210
G01 X54.3897 Y2.1999
G01 X54.4191 Y2.2820
G01 X54.4403 Y2.3666
G01 X54.4531 Y2.4529
G01 X54.4572 Y2.5338
G01 X54.4572 Y2.5462
G00 Z2.0000
G00 X51.9172 Y2.5462
G01 F60.00
G01 Z-0.1000
G01 F120.00
G01 X51.9131 Y2.6271
G01 X51.9003 Y2.7134
G01 X51.8791 Y2.7980
G01 X51.8497 Y2.8801
G01 X51.8124 Y2.9590
G01 X51.7676 Y3.0338
G01 X51.7156 Y3.1038
G01 X51.6571 Y3.1685
G01 X51.5924 Y3.2270
G01 X51.5224 Y3.2790
G01 X51.4476 Y3.3238
G01 X51.3687 Y3.3611
G01 X51.2866 Y3.3905
G01 X51.2020 Y3.4117
G01 X51.1157 Y3.4245
G01 X51.0286 Y3.4288
G01 X50.9415 Y3.4245
G01 X50.8552 Y3.4117
G01 X50.7706 Y3.3905
G01 X50.6885 Y3.3611
G01 X50.6096 Y3.3238
G01 X50.5348 Y3.2790
G01 X50.4648 Y3.2270
G01 X50.4001 Y3.1685
G01 X50.3416 Y3.1038
G01 X50.2896 Y3.0338
G01 X50.2448 Y2.9590
G01 X50.2075 Y2.8801
G01 X50.1781 Y2.7980
G01 X50.1569 Y2.7134
G01 X50.1441 Y2.6271
G01 X50.1398 Y2.5400
G01 X50.1441 Y2.4529
G01 X50.1569 Y2.3666
G01 X50.1781 Y2.2820
G01 X50.2075 Y2.1999
G01 X50.2448 Y2.1210
G01 X50.2896 Y2.0462
G01 X50.3416 Y1.9762
G01 X50.4001 Y1.9115
G01 X50.4648 Y1.8530
G01 X50.5348 Y1.8010
G01 X50.6096 Y1.7562
G01 X50.6885 Y1.7189
G01 X50.7706 Y1.6895
G01 X50.8552 Y1.6683
G01 X50.9415 Y1.6555
G01 X51.0286 Y1.6512
G01 X51.1157 Y1.6555
G01 X51.2020 Y1.6683
G01 X51.2866 Y1.6895
G01 X51.3687 Y1.7189
G01 X51.4476 Y1.7562
G01 X51.5224 Y1.8010
G01 X51.5924 Y1.8530
G01 X51.6571 Y1.9115
G01 X51.7156 Y1.9762
G01 X51.7676 Y2.0462
G01 X51.8124 Y2.1210
G01 X51.8497 Y2.1999
G01 X51.8791 Y2.2820
G01 X51.9003 Y2.3666
G01 X51.9131 Y2.4529
G01 X51.9172 Y2.5338
G01 X51.9172 Y2.5462
G00 Z2.0000
G00 X44.2972 Y2.5462
G01 F60.00
G01 Z-0.1000
G01 F120.00
G01 X44.2931 Y2.6271
G01 X44.2803 Y2.7134
G01 X44.2591 Y2.7980
G01 X44.2297 Y2.8801
G01 X44.1924 Y2.9590
G01 X44.1476 Y3.0338
G01 X44.0956 Y3.1038
G01 X44.0371 Y3.1685
G01 X43.9724 Y3.2270
G01 X43.9024 Y3.2790
G01 X43.8276 Y3.3238
G01 X43.7487 Y3.3611
G01 X43.6666 Y3.3905
G01 X43.5820 Y3.4117
G01 X43.4957 Y3.4245
G01 X43.4086 Y3.4288
G01 X43.3215 Y3.4245
G01 X43.2352 Y3.4117
G01 X43.1506 Y3.3905
G01 X43.0685 Y3.3611
G01 X42.9896 Y3.3238
G01 X42.9148 Y3.2790
G01 X42.8448 Y3.2270
G01 X42.7801 Y3.1685
G01 X42.7216 Y3.1038
G01 X42.6696 Y3.0338
G01 X42.6248 Y2.9590
G01 X42.5875 Y2.8801
G01 X42.5581 Y2.7980
G01 X42.5369 Y2.7134
G01 X42.5241 Y2.6271
G01 X42.5198 Y2.5400
G01 X42.5241 Y2.4529
G01 X42.5369 Y2.3666
G01 X42.5581 Y2.2820
G01 X42.5875 Y2.1999
G01 X42.6248 Y2.1210
G01 X42.6696 Y2.0462
G01 X42.7216 Y1.9762
G01 X42.7801 Y1.9115
G01 X42.8448 Y1.8530
G01 X42.9148 Y1.8010
G01 X42.9896 Y1.7562
G01 X43.0685 Y1.7189
G01 X43.1506 Y1.6895
G01 X43.2352 Y1.6683
G01 X43.3215 Y1.6555
G01 X43.4086 Y1.6512
G01 X43.4957 Y1.6555
G01 X43.5820 Y1.6683
G01 X43.6666 Y1.6895
G01 X43.7487 Y1.7189
G01 X43.8276 Y1.7562
G01 X43.9024 Y1.8010
G01 X43.9724 Y1.8530
G01 X44.0371 Y1.9115
G01 X44.0956 Y1.9762
G01 X44.1476 Y2.0462
G01 X44.1924 Y2.1210
G01 X44.2297 Y2.1999
G01 X44.2591 Y2.2820
G01 X44.2803 Y2.3666
G01 X44.2931 Y2.4529
G01 X44.2972 Y2.5338
G01 X44.2972 Y2.5462
G00 Z2.0000
G00 X39.2172 Y2.5462
G01 F60.00
G01 Z-0.1000
G01 F120.00
G01 X39.2131 Y2.6271
G01 X39.2003 Y2.7134
G01 X39.1791 Y2.7980
