(G-CODE GENERATED BY FLATCAM v8.994 - www.flatcam.org - Version Date: 2020/11/7)

(Name: FARESHARE PCB 2.0_contour.gm1_cutout_cnc)
(Type: G-code from Geometry)
(Units: MM)

(Created on Friday, 19 April 2024 at 10:56)

(This preprocessor is the default preprocessor used by FlatCAM.)
(It is made to work with MACH3 compatible motion controllers.)

(TOOL DIAMETER: 0.8 mm)
(Feedrate_XY: 120.0 mm/min)
(Feedrate_Z: 60.0 mm/min)
(Feedrate rapids 1500.0 mm/min)

(Z_Cut: -1.8 mm)
(DepthPerCut: 0.6 mm <=>3 passes)
(Z_Move: 2.0 mm)
(Z Start: None mm)
(Z End: 15.0 mm)
(X,Y End: None mm)
(Steps per circle: 64)
(Preprocessor Geometry: default)

(X range:   -0.3222 ...   69.2324  mm)
(Y range:   -0.3730 ...   53.9416  mm)

(Spindle Speed: 0.0 RPM)
G21
G90
G94

G01 F120.00

M5
G00 Z15.0000
G00 X0.0000 Y0.0000
T3M6    
(MSG, Change to Tool Dia = 0.8000)
M0
G00 Z15.0000

M03
G01 F120.00
G00 X-0.3222 Y24.4843
G01 F60.00
G01 Z-0.6000
G01 F120.00
G01 X-0.3222 Y1.0160
G01 X-0.3212 Y0.9815
G01 X-0.3163 Y0.9327
G01 X-0.3149 Y0.9228
G01 X-0.3053 Y0.8747
G01 X-0.3029 Y0.8650
G01 X-0.2939 Y0.8352
G01 X-0.2909 Y0.8057
G01 X-0.2895 Y0.7958
G01 X-0.2799 Y0.7477
G01 X-0.2775 Y0.7380
G01 X-0.2632 Y0.6910
G01 X-0.2599 Y0.6817
G01 X-0.2527 Y0.6644
G01 X-0.2378 Y0.6148
G01 X-0.2345 Y0.6055
G01 X-0.2273 Y0.5882
G01 X-0.2124 Y0.5386
G01 X-0.2091 Y0.5293
G01 X-0.1903 Y0.4839
G01 X-0.1860 Y0.4749
G01 X-0.1690 Y0.4431
G01 X-0.1649 Y0.4331
G01 X-0.1606 Y0.4241
G01 X-0.1375 Y0.3808
G01 X-0.1324 Y0.3723
G01 X-0.1051 Y0.3315
G01 X-0.0992 Y0.3235
G01 X-0.0923 Y0.3151
G01 X-0.0867 Y0.3046
G01 X-0.0816 Y0.2961
G01 X-0.0543 Y0.2553
G01 X-0.0484 Y0.2473
G01 X-0.0415 Y0.2389
G01 X-0.0359 Y0.2284
G01 X-0.0308 Y0.2199
G01 X-0.0035 Y0.1791
G01 X0.0024 Y0.1711
G01 X0.0335 Y0.1331
G01 X0.0402 Y0.1257
G01 X0.0572 Y0.1080
G01 X0.1588 Y0.0064
G01 X0.1839 Y-0.0173
G01 X0.2219 Y-0.0484
G01 X0.2299 Y-0.0543
G01 X0.2707 Y-0.0816
G01 X0.2762 Y-0.0849
G01 X0.2855 Y-0.0935
G01 X0.3235 Y-0.1246
G01 X0.3315 Y-0.1305
G01 X0.3723 Y-0.1578
G01 X0.3808 Y-0.1629
G01 X0.4241 Y-0.1860
G01 X0.4331 Y-0.1903
G01 X0.4431 Y-0.1944
G01 X0.4749 Y-0.2114
G01 X0.4839 Y-0.2157
G01 X0.4939 Y-0.2198
G01 X0.5257 Y-0.2368
G01 X0.5347 Y-0.2411
G01 X0.5447 Y-0.2452
G01 X0.5765 Y-0.2622
G01 X0.5855 Y-0.2665
G01 X0.6309 Y-0.2853
G01 X0.6402 Y-0.2886
G01 X0.6898 Y-0.3035
G01 X0.7071 Y-0.3107
G01 X0.7164 Y-0.3140
G01 X0.7634 Y-0.3283
G01 X0.7731 Y-0.3307
G01 X0.8201 Y-0.3401
G01 X0.8650 Y-0.3537
G01 X0.8747 Y-0.3561
G01 X0.9228 Y-0.3657
G01 X0.9327 Y-0.3671
G01 X0.9815 Y-0.3720
G01 X1.0160 Y-0.3730
G01 X32.1551 Y-0.3730
G00 X32.1551 Y-0.3730
G01 F60.00
G01 Z-1.2000
G01 F120.00
G01 X1.0160 Y-0.3730
G01 X0.9815 Y-0.3720
G01 X0.9327 Y-0.3671
G01 X0.9228 Y-0.3657
G01 X0.8747 Y-0.3561
G01 X0.8650 Y-0.3537
G01 X0.8201 Y-0.3401
G01 X0.7731 Y-0.3307
G01 X0.7634 Y-0.3283
G01 X0.7164 Y-0.3140
G01 X0.7071 Y-0.3107
G01 X0.6898 Y-0.3035
G01 X0.6402 Y-0.2886
G01 X0.6309 Y-0.2853
G01 X0.5855 Y-0.2665
G01 X0.5765 Y-0.2622
G01 X0.5447 Y-0.2452
G01 X0.5347 Y-0.2411
G01 X0.5257 Y-0.2368
G01 X0.4939 Y-0.2198
G01 X0.4839 Y-0.2157
G01 X0.4749 Y-0.2114
G01 X0.4431 Y-0.1944
G01 X0.4331 Y-0.1903
G01 X0.4241 Y-0.1860
G01 X0.3808 Y-0.1629
G01 X0.3723 Y-0.1578
G01 X0.3315 Y-0.1305
G01 X0.3235 Y-0.1246
G01 X0.2855 Y-0.0935
G01 X0.2762 Y-0.0849
G01 X0.2707 Y-0.0816
G01 X0.2299 Y-0.0543
G01 X0.2219 Y-0.0484
G01 X0.1839 Y-0.0173
G01 X0.1588 Y0.0064
G01 X0.0572 Y0.1080
G01 X0.0402 Y0.1257
G01 X0.0335 Y0.1331
G01 X0.0024 Y0.1711
G01 X-0.0035 Y0.1791
G01 X-0.0308 Y0.2199
G01 X-0.0359 Y0.2284
G01 X-0.0415 Y0.2389
G01 X-0.0484 Y0.2473
G01 X-0.0543 Y0.2553
G01 X-0.0816 Y0.2961
G01 X-0.0867 Y0.3046
G01 X-0.0923 Y0.3151
G01 X-0.0992 Y0.3235
G01 X-0.1051 Y0.3315
G01 X-0.1324 Y0.3723
G01 X-0.1375 Y0.3808
G01 X-0.1606 Y0.4241
G01 X-0.1649 Y0.4331
G01 X-0.1690 Y0.4431
G01 X-0.1860 Y0.4749
G01 X-0.1903 Y0.4839
G01 X-0.2091 Y0.5293
G01 X-0.2124 Y0.5386
G01 X-0.2273 Y0.5882
G01 X-0.2345 Y0.6055
G01 X-0.2378 Y0.6148
G01 X-0.2527 Y0.6644
G01 X-0.2599 Y0.6817
G01 X-0.2632 Y0.6910
G01 X-0.2775 Y0.7380
G01 X-0.2799 Y0.7477
G01 X-0.2895 Y0.7958
G01 X-0.2909 Y0.8057
G01 X-0.2939 Y0.8352
G01 X-0.3029 Y0.8650
G01 X-0.3053 Y0.8747
G01 X-0.3149 Y0.9228
G01 X-0.3163 Y0.9327
G01 X-0.3212 Y0.9815
G01 X-0.3222 Y1.0160
G01 X-0.3222 Y24.4843
G00 X-0.3222 Y24.4843
G01 F60.00
G01 Z-1.8000
G01 F120.00
G01 X-0.3222 Y1.0160
G01 X-0.3212 Y0.9815
G01 X-0.3163 Y0.9327
G01 X-0.3149 Y0.9228
G01 X-0.3053 Y0.8747
G01 X-0.3029 Y0.8650
G01 X-0.2939 Y0.8352
G01 X-0.2909 Y0.8057
G01 X-0.2895 Y0.7958
G01 X-0.2799 Y0.7477
G01 X-0.2775 Y0.7380
G01 X-0.2632 Y0.6910
G01 X-0.2599 Y0.6817
G01 X-0.2527 Y0.6644
G01 X-0.2378 Y0.6148
G01 X-0.2345 Y0.6055
G01 X-0.2273 Y0.5882
G01 X-0.2124 Y0.5386
G01 X-0.2091 Y0.5293
G01 X-0.1903 Y0.4839
G01 X-0.1860 Y0.4749
G01 X-0.1690 Y0.4431
G01 X-0.1649 Y0.4331
G01 X-0.1606 Y0.4241
G01 X-0.1375 Y0.3808
G01 X-0.1324 Y0.3723
G01 X-0.1051 Y0.3315
G01 X-0.0992 Y0.3235
G01 X-0.0923 Y0.3151
G01 X-0.0867 Y0.3046
G01 X-0.0816 Y0.2961
G01 X-0.0543 Y0.2553
G01 X-0.0484 Y0.2473
G01 X-0.0415 Y0.2389
G01 X-0.0359 Y0.2284
G01 X-0.0308 Y0.2199
G01 X-0.0035 Y0.1791
G01 X0.0024 Y0.1711
G01 X0.0335 Y0.1331
G01 X0.0402 Y0.1257
G01 X0.0572 Y0.1080
G01 X0.1588 Y0.0064
G01 X0.1839 Y-0.0173
G01 X0.2219 Y-0.0484
G01 X0.2299 Y-0.0543
G01 X0.2707 Y-0.0816
G01 X0.2762 Y-0.0849
G01 X0.2855 Y-0.0935
G01 X0.3235 Y-0.1246
G01 X0.3315 Y-0.1305
G01 X0.3723 Y-0.1578
G01 X0.3808 Y-0.1629
G01 X0.4241 Y-0.1860
G01 X0.4331 Y-0.1903
G01 X0.4431 Y-0.1944
G01 X0.4749 Y-0.2114
G01 X0.4839 Y-0.2157
G01 X0.4939 Y-0.2198
G01 X0.5257 Y-0.2368
G01 X0.5347 Y-0.2411
G01 X0.5447 Y-0.2452
G01 X0.5765 Y-0.2622
G01 X0.5855 Y-0.2665
G01 X0.6309 Y-0.2853
G01 X0.6402 Y-0.2886
G01 X0.6898 Y-0.3035
G01 X0.7071 Y-0.3107
G01 X0.7164 Y-0.3140
G01 X0.7634 Y-0.3283
G01 X0.7731 Y-0.3307
G01 X0.8201 Y-0.3401
G01 X0.8650 Y-0.3537
G01 X0.8747 Y-0.3561
G01 X0.9228 Y-0.3657
G01 X0.9327 Y-0.3671
G01 X0.9815 Y-0.3720
G01 X1.0160 Y-0.3730
G01 X32.1551 Y-0.3730
G00 Z2.0000
G00 X-0.3222 Y29.2843
G01 F60.00
G01 Z-0.6000
G01 F120.00
G01 X-0.3222 Y52.5526
G01 X-0.3216 Y52.5771
G01 X-0.3212 Y52.5871
G01 X-0.3163 Y52.6359
G01 X-0.3149 Y52.6458
G01 X-0.3053 Y52.6939
G01 X-0.3029 Y52.7036
G01 X-0.2939 Y52.7334
G01 X-0.2909 Y52.7629
G01 X-0.2895 Y52.7728
G01 X-0.2799 Y52.8209
G01 X-0.2775 Y52.8306
G01 X-0.2632 Y52.8776
G01 X-0.2599 Y52.8869
G01 X-0.2527 Y52.9042
G01 X-0.2378 Y52.9538
G01 X-0.2345 Y52.9631
G01 X-0.2157 Y53.0085
G01 X-0.2114 Y53.0175
G01 X-0.1944 Y53.0493
G01 X-0.1903 Y53.0593
G01 X-0.1860 Y53.0683
G01 X-0.1690 Y53.1001
G01 X-0.1649 Y53.1101
G01 X-0.1606 Y53.1191
G01 X-0.1436 Y53.1509
G01 X-0.1395 Y53.1609
G01 X-0.1352 Y53.1699
G01 X-0.1182 Y53.2017
G01 X-0.1141 Y53.2117
G01 X-0.1098 Y53.2207
G01 X-0.0867 Y53.2640
G01 X-0.0816 Y53.2725
G01 X-0.0543 Y53.3133
G01 X-0.0484 Y53.3213
G01 X-0.0173 Y53.3593
G01 X0.0064 Y53.3844
G01 X0.2350 Y53.6130
G01 X0.2601 Y53.6367
G01 X0.2981 Y53.6678
G01 X0.3061 Y53.6737
G01 X0.3469 Y53.7010
G01 X0.3554 Y53.7061
G01 X0.3987 Y53.7292
G01 X0.4077 Y53.7335
G01 X0.4177 Y53.7376
G01 X0.4495 Y53.7546
G01 X0.4585 Y53.7589
G01 X0.4685 Y53.7630
G01 X0.5003 Y53.7800
G01 X0.5093 Y53.7843
G01 X0.5193 Y53.7884
G01 X0.5511 Y53.8054
G01 X0.5601 Y53.8097
G01 X0.5701 Y53.8138
G01 X0.6019 Y53.8308
G01 X0.6109 Y53.8351
G01 X0.6563 Y53.8539
G01 X0.6656 Y53.8572
G01 X0.7152 Y53.8721
G01 X0.7325 Y53.8793
G01 X0.7418 Y53.8826
G01 X0.7888 Y53.8969
G01 X0.7985 Y53.8993
G01 X0.8466 Y53.9089
G01 X0.8565 Y53.9103
G01 X0.8860 Y53.9133
G01 X0.9158 Y53.9223
G01 X0.9255 Y53.9247
G01 X0.9736 Y53.9343
G01 X0.9835 Y53.9357
G01 X1.0323 Y53.9406
G01 X1.0668 Y53.9416
G01 X32.1551 Y53.9416
G00 X32.1551 Y53.9416
G01 F60.00
G01 Z-1.2000
G01 F120.00
G01 X1.0668 Y53.9416
G01 X1.0323 Y53.9406
G01 X0.9835 Y53.9357
G01 X0.9736 Y53.9343
G01 X0.9255 Y53.9247
G01 X0.9158 Y53.9223
G01 X0.8860 Y53.9133
G01 X0.8565 Y53.9103
G01 X0.8466 Y53.9089
G01 X0.7985 Y53.8993
G01 X0.7888 Y53.8969
G01 X0.7418 Y53.8826
G01 X0.7325 Y53.8793
G01 X0.7152 Y53.8721
G01 X0.6656 Y53.8572
G01 X0.6563 Y53.8539
G01 X0.6109 Y53.8351
G01 X0.6019 Y53.8308
G01 X0.5701 Y53.8138
G01 X0.5601 Y53.8097
G01 X0.5511 Y53.8054
G01 X0.5193 Y53.7884
G01 X0.5093 Y53.7843
G01 X0.5003 Y53.7800
G01 X0.4685 Y53.7630
G01 X0.4585 Y53.7589
G01 X0.4495 Y53.7546
G01 X0.4177 Y53.7376
G01 X0.4077 Y53.7335
G01 X0.3987 Y53.7292
G01 X0.3554 Y53.7061
G01 X0.3469 Y53.7010
G01 X0.3061 Y53.6737
G01 X0.2981 Y53.6678
G01 X0.2601 Y53.6367
G01 X0.2350 Y53.6130
G01 X0.0064 Y53.3844
G01 X-0.0173 Y53.3593
G01 X-0.0484 Y53.3213
G01 X-0.0543 Y53.3133
G01 X-0.0816 Y53.2725
G01 X-0.0867 Y53.2640
G01 X-0.1098 Y53.2207
G01 X-0.1141 Y53.2117
G01 X-0.1182 Y53.2017
G01 X-0.1352 Y53.1699
G01 X-0.1395 Y53.1609
G01 X-0.1436 Y53.1509
G01 X-0.1606 Y53.1191
G01 X-0.1649 Y53.1101
G01 X-0.1690 Y53.1001
G01 X-0.1860 Y53.0683
G01 X-0.1903 Y53.0593
G01 X-0.1944 Y53.0493
G01 X-0.2114 Y53.0175
G01 X-0.2157 Y53.0085
G01 X-0.2345 Y52.9631
G01 X-0.2378 Y52.9538
G01 X-0.2527 Y52.9042
G01 X-0.2599 Y52.8869
G01 X-0.2632 Y52.8776
G01 X-0.2775 Y52.8306
G01 X-0.2799 Y52.8209
G01 X-0.2895 Y52.7728
G01 X-0.2909 Y52.7629
G01 X-0.2939 Y52.7334
G01 X-0.3029 Y52.7036
G01 X-0.3053 Y52.6939
G01 X-0.3149 Y52.6458
G01 X-0.3163 Y52.6359
G01 X-0.3212 Y52.5871
G01 X-0.3216 Y52.5771
G01 X-0.3222 Y52.5526
G01 X-0.3222 Y29.2843
G00 X-0.3222 Y29.2843
G01 F60.00
G01 Z-1.8000
G01 F120.00
G01 X-0.3222 Y52.5526
G01 X-0.3216 Y52.5771
G01 X-0.3212 Y52.5871
G01 X-0.3163 Y52.6359
G01 X-0.3149 Y52.6458
G01 X-0.3053 Y52.6939
G01 X-0.3029 Y52.7036
G01 X-0.2939 Y52.7334
G01 X-0.2909 Y52.7629
G01 X-0.2895 Y52.7728
G01 X-0.2799 Y52.8209
G01 X-0.2775 Y52.8306
G01 X-0.2632 Y52.8776
G01 X-0.2599 Y52.8869
G01 X-0.2527 Y52.9042
G01 X-0.2378 Y52.9538
G01 X-0.2345 Y52.9631
G01 X-0.2157 Y53.0085
G01 X-0.2114 Y53.0175
G01 X-0.1944 Y53.0493
G01 X-0.1903 Y53.0593
G01 X-0.1860 Y53.0683
G01 X-0.1690 Y53.1001
G01 X-0.1649 Y53.1101
G01 X-0.1606 Y53.1191
G01 X-0.1436 Y53.1509
G01 X-0.1395 Y53.1609
G01 X-0.1352 Y53.1699
G01 X-0.1182 Y53.2017
G01 X-0.1141 Y53.2117
G01 X-0.1098 Y53.2207
G01 X-0.0867 Y53.2640
G01 X-0.0816 Y53.2725
G01 X-0.0543 Y53.3133
G01 X-0.0484 Y53.3213
G01 X-0.0173 Y53.3593
G01 X0.0064 Y53.3844
G01 X0.2350 Y53.6130
G01 X0.2601 Y53.6367
G01 X0.2981 Y53.6678
G01 X0.3061 Y53.6737
G01 X0.3469 Y53.7010
G01 X0.3554 Y53.7061
G01 X0.3987 Y53.7292
G01 X0.4077 Y53.7335
G01 X0.4177 Y53.7376
G01 X0.4495 Y53.7546
G01 X0.4585 Y53.7589
G01 X0.4685 Y53.7630
G01 X0.5003 Y53.7800
G01 X0.5093 Y53.7843
G01 X0.5193 Y53.7884
G01 X0.5511 Y53.8054
G01 X0.5601 Y53.8097
G01 X0.5701 Y53.8138
G01 X0.6019 Y53.8308
G01 X0.6109 Y53.8351
G01 X0.6563 Y53.8539
G01 X0.6656 Y53.8572
G01 X0.7152 Y53.8721
G01 X0.7325 Y53.8793
G01 X0.7418 Y53.8826
G01 X0.7888 Y53.8969
G01 X0.7985 Y53.8993
G01 X0.8466 Y53.9089
G01 X0.8565 Y53.9103
G01 X0.8860 Y53.9133
G01 X0.9158 Y53.9223
G01 X0.9255 Y53.9247
G01 X0.9736 Y53.9343
G01 X0.9835 Y53.9357
G01 X1.0323 Y53.9406
G01 X1.0668 Y53.9416
G01 X32.1551 Y53.9416
G00 Z2.0000
G00 X36.9551 Y53.9416
G01 F60.00
G01 Z-0.6000
G01 F120.00
G01 X64.5922 Y53.9416
G01 X64.6267 Y53.9406
G01 X64.6755 Y53.9357
G01 X64.6854 Y53.9343
G01 X64.7335 Y53.9247
G01 X64.7432 Y53.9223
G01 X64.7902 Y53.9080
G01 X64.7995 Y53.9047
G01 X64.8449 Y53.8859
G01 X64.8539 Y53.8816
G01 X64.8972 Y53.8585
G01 X64.9057 Y53.8534
G01 X64.9465 Y53.8261
G01 X64.9545 Y53.8202
G01 X64.9925 Y53.7891
G01 X65.0176 Y53.7654
G01 X66.5416 Y52.2414
G01 X66.5586 Y52.2237
G01 X66.5653 Y52.2163
G01 X66.5964 Y52.1783
G01 X66.6023 Y52.1703
G01 X66.6296 Y52.1295
G01 X66.6347 Y52.1210
G01 X66.6578 Y52.0777
G01 X66.6621 Y52.0687
G01 X66.6809 Y52.0233
G01 X66.6842 Y52.0140
G01 X66.6985 Y51.9670
G01 X66.7009 Y51.9573
G01 X66.7105 Y51.9092
G01 X66.7119 Y51.8993
G01 X66.7168 Y51.8505
G01 X66.7178 Y51.8160
G01 X66.7178 Y40.6860
G01 X69.0562 Y38.3476
G01 X69.0732 Y38.3299
G01 X69.0799 Y38.3225
G01 X69.1110 Y38.2845
G01 X69.1169 Y38.2765
G01 X69.1442 Y38.2357
G01 X69.1493 Y38.2272
G01 X69.1724 Y38.1839
G01 X69.1767 Y38.1749
G01 X69.1955 Y38.1295
G01 X69.1988 Y38.1202
G01 X69.2131 Y38.0732
G01 X69.2155 Y38.0635
G01 X69.2251 Y38.0154
G01 X69.2265 Y38.0055
G01 X69.2314 Y37.9567
G01 X69.2324 Y37.9222
G01 X69.2324 Y29.2843
G00 X69.2324 Y29.2843
G01 F60.00
G01 Z-1.2000
G01 F120.00
G01 X69.2324 Y37.9222
G01 X69.2314 Y37.9567
G01 X69.2265 Y38.0055
G01 X69.2251 Y38.0154
G01 X69.2155 Y38.0635
G01 X69.2131 Y38.0732
G01 X69.1988 Y38.1202
G01 X69.1955 Y38.1295
G01 X69.1767 Y38.1749
G01 X69.1724 Y38.1839
G01 X69.1493 Y38.2272
G01 X69.1442 Y38.2357
G01 X69.1169 Y38.2765
G01 X69.1110 Y38.2845
G01 X69.0799 Y38.3225
G01 X69.0732 Y38.3299
G01 X69.0562 Y38.3476
G01 X66.7178 Y40.6860
G01 X66.7178 Y51.8160
G01 X66.7168 Y51.8505
G01 X66.7119 Y51.8993
G01 X66.7105 Y51.9092
G01 X66.7009 Y51.9573
G01 X66.6985 Y51.9670
G01 X66.6842 Y52.0140
G01 X66.6809 Y52.0233
G01 X66.6621 Y52.0687
G01 X66.6578 Y52.0777
G01 X66.6347 Y52.1210
G01 X66.6296 Y52.1295
G01 X66.6023 Y52.1703
G01 X66.5964 Y52.1783
G01 X66.5653 Y52.2163
G01 X66.5586 Y52.2237
G01 X66.5416 Y52.2414
G01 X65.0176 Y53.7654
G01 X64.9925 Y53.7891
G01 X64.9545 Y53.8202
G01 X64.9465 Y53.8261
G01 X64.9057 Y53.8534
G01 X64.8972 Y53.8585
G01 X64.8539 Y53.8816
G01 X64.8449 Y53.8859
G01 X64.7995 Y53.9047
G01 X64.7902 Y53.9080
G01 X64.7432 Y53.9223
G01 X64.7335 Y53.9247
G01 X64.6854 Y53.9343
G01 X64.6755 Y53.9357
G01 X64.6267 Y53.9406
G01 X64.5922 Y53.9416
G01 X36.9551 Y53.9416
G00 X36.9551 Y53.9416
G01 F60.00
G01 Z-1.8000
G01 F120.00
G01 X64.5922 Y53.9416
G01 X64.6267 Y53.9406
G01 X64.6755 Y53.9357
G01 X64.6854 Y53.9343
G01 X64.7335 Y53.9247
G01 X64.7432 Y53.9223
G01 X64.7902 Y53.9080
G01 X64.7995 Y53.9047
G01 X64.8449 Y53.8859
G01 X64.8539 Y53.8816
G01 X64.8972 Y53.8585
G01 X64.9057 Y53.8534
G01 X64.9465 Y53.8261
G01 X64.9545 Y53.8202
G01 X64.9925 Y53.7891
G01 X65.0176 Y53.7654
G01 X66.5416 Y52.2414
G01 X66.5586 Y52.2237
G01 X66.5653 Y52.2163
G01 X66.5964 Y52.1783
G01 X66.6023 Y52.1703
G01 X66.6296 Y52.1295
G01 X66.6347 Y52.1210
G01 X66.6578 Y52.0777
G01 X66.6621 Y52.0687
G01 X66.6809 Y52.0233
G01 X66.6842 Y52.0140
G01 X66.6985 Y51.9670
G01 X66.7009 Y51.9573
G01 X66.7105 Y51.9092
G01 X66.7119 Y51.8993
G01 X66.7168 Y51.8505
G01 X66.7178 Y51.8160
G01 X66.7178 Y40.6860
G01 X69.0562 Y38.3476
G01 X69.0732 Y38.3299
G01 X69.0799 Y38.3225
G01 X69.1110 Y38.2845
G01 X69.1169 Y38.2765
G01 X69.1442 Y38.2357
G01 X69.1493 Y38.2272
G01 X69.1724 Y38.1839
G01 X69.1767 Y38.1749
G01 X69.1955 Y38.1295
G01 X69.1988 Y38.1202
G01 X69.2131 Y38.0732
G01 X69.2155 Y38.0635
G01 X69.2251 Y38.0154
G01 X69.2265 Y38.0055
G01 X69.2314 Y37.9567
G01 X69.2324 Y37.9222
G01 X69.2324 Y29.2843
G00 Z2.0000
G00 X69.2324 Y24.4843
G01 F60.00
G01 Z-0.6000
G01 F120.00
G01 X69.2324 Y5.2832
G01 X69.2314 Y5.2487
G01 X69.2265 Y5.1999
G01 X69.2251 Y5.1900
G01 X69.2155 Y5.1419
G01 X69.2131 Y5.1322
G01 X69.1988 Y5.0852
G01 X69.1955 Y5.0759
G01 X69.1767 Y5.0305
G01 X69.1724 Y5.0215
G01 X69.1493 Y4.9782
G01 X69.1442 Y4.9697
G01 X69.1169 Y4.9289
G01 X69.1110 Y4.9209
G01 X69.0799 Y4.8829
G01 X69.0732 Y4.8755
G01 X69.0562 Y4.8578
G01 X66.7178 Y2.5194
G01 X66.7178 Y1.0160
G01 X66.7168 Y0.9815
G01 X66.7119 Y0.9327
G01 X66.7105 Y0.9228
G01 X66.7009 Y0.8747
G01 X66.6985 Y0.8650
G01 X66.6895 Y0.8352
G01 X66.6865 Y0.8057
G01 X66.6851 Y0.7958
G01 X66.6755 Y0.7477
G01 X66.6731 Y0.7380
G01 X66.6588 Y0.6910
G01 X66.6555 Y0.6817
G01 X66.6483 Y0.6644
G01 X66.6334 Y0.6148
G01 X66.6301 Y0.6055
G01 X66.6229 Y0.5882
G01 X66.6080 Y0.5386
G01 X66.6047 Y0.5293
G01 X66.5859 Y0.4839
G01 X66.5816 Y0.4749
G01 X66.5646 Y0.4431
G01 X66.5605 Y0.4331
G01 X66.5562 Y0.4241
G01 X66.5331 Y0.3808
G01 X66.5280 Y0.3723
G01 X66.5007 Y0.3315
G01 X66.4948 Y0.3235
G01 X66.4879 Y0.3151
G01 X66.4823 Y0.3046
G01 X66.4772 Y0.2961
G01 X66.4499 Y0.2553
G01 X66.4440 Y0.2473
G01 X66.4129 Y0.2093
G01 X66.4043 Y0.2000
G01 X66.4010 Y0.1945
G01 X66.3737 Y0.1537
G01 X66.3678 Y0.1457
G01 X66.3367 Y0.1077
G01 X66.3130 Y0.0826
G01 X66.2368 Y0.0064
G01 X66.2117 Y-0.0173
G01 X66.1737 Y-0.0484
G01 X66.1657 Y-0.0543
G01 X66.1249 Y-0.0816
G01 X66.1164 Y-0.0867
G01 X66.1059 Y-0.0923
G01 X66.0975 Y-0.0992
G01 X66.0895 Y-0.1051
G01 X66.0487 Y-0.1324
G01 X66.0402 Y-0.1375
G01 X66.0297 Y-0.1431
G01 X66.0213 Y-0.1500
G01 X66.0133 Y-0.1559
G01 X65.9725 Y-0.1832
G01 X65.9640 Y-0.1883
G01 X65.9207 Y-0.2114
G01 X65.9117 Y-0.2157
G01 X65.9017 Y-0.2198
G01 X65.8699 Y-0.2368
G01 X65.8609 Y-0.2411
G01 X65.8509 Y-0.2452
G01 X65.8191 Y-0.2622
G01 X65.8101 Y-0.2665
G01 X65.7647 Y-0.2853
G01 X65.7554 Y-0.2886
G01 X65.7058 Y-0.3035
G01 X65.6885 Y-0.3107
G01 X65.6792 Y-0.3140
G01 X65.6322 Y-0.3283
G01 X65.6225 Y-0.3307
G01 X65.5755 Y-0.3401
G01 X65.5306 Y-0.3537
G01 X65.5209 Y-0.3561
G01 X65.4728 Y-0.3657
G01 X65.4629 Y-0.3671
G01 X65.4141 Y-0.3720
G01 X65.3796 Y-0.3730
G01 X36.9551 Y-0.3730
G00 X36.9551 Y-0.3730
G01 F60.00
G01 Z-1.2000
G01 F120.00
G01 X65.3796 Y-0.3730
G01 X65.4141 Y-0.3720
G01 X65.4629 Y-0.3671
G01 X65.4728 Y-0.3657
G01 X65.5209 Y-0.3561
G01 X65.5306 Y-0.3537
G01 X65.5755 Y-0.3401
G01 X65.6225 Y-0.3307
G01 X65.6322 Y-0.3283
G01 X65.6792 Y-0.3140
G01 X65.6885 Y-0.3107
G01 X65.7058 Y-0.3035
G01 X65.7554 Y-0.2886
G01 X65.7647 Y-0.2853
G01 X65.8101 Y-0.2665
G01 X65.8191 Y-0.2622
G01 X65.8509 Y-0.2452
G01 X65.8609 Y-0.2411
G01 X65.8699 Y-0.2368
G01 X65.9017 Y-0.2198
G01 X65.9117 Y-0.2157
G01 X65.9207 Y-0.2114
G01 X65.9640 Y-0.1883
G01 X65.9725 Y-0.1832
G01 X66.0133 Y-0.1559
G01 X66.0213 Y-0.1500
G01 X66.0297 Y-0.1431
G01 X66.0402 Y-0.1375
G01 X66.0487 Y-0.1324
G01 X66.0895 Y-0.1051
G01 X66.0975 Y-0.0992
G01 X66.1059 Y-0.0923
G01 X66.1164 Y-0.0867
G01 X66.1249 Y-0.0816
G01 X66.1657 Y-0.0543
G01 X66.1737 Y-0.0484
G01 X66.2117 Y-0.0173
G01 X66.2368 Y0.0064
G01 X66.3130 Y0.0826
G01 X66.3367 Y0.1077
G01 X66.3678 Y0.1457
G01 X66.3737 Y0.1537
G01 X66.4010 Y0.1945
G01 X66.4043 Y0.2000
G01 X66.4129 Y0.2093
G01 X66.4440 Y0.2473
G01 X66.4499 Y0.2553
G01 X66.4772 Y0.2961
G01 X66.4823 Y0.3046
G01 X66.4879 Y0.3151
G01 X66.4948 Y0.3235
G01 X66.5007 Y0.3315
G01 X66.5280 Y0.3723
G01 X66.5331 Y0.3808
G01 X66.5562 Y0.4241
G01 X66.5605 Y0.4331
G01 X66.5646 Y0.4431
G01 X66.5816 Y0.4749
G01 X66.5859 Y0.4839
G01 X66.6047 Y0.5293
G01 X66.6080 Y0.5386
G01 X66.6229 Y0.5882
G01 X66.6301 Y0.6055
G01 X66.6334 Y0.6148
G01 X66.6483 Y0.6644
G01 X66.6555 Y0.6817
G01 X66.6588 Y0.6910
G01 X66.6731 Y0.7380
G01 X66.6755 Y0.7477
G01 X66.6851 Y0.7958
G01 X66.6865 Y0.8057
G01 X66.6895 Y0.8352
G01 X66.6985 Y0.8650
G01 X66.7009 Y0.8747
G01 X66.7105 Y0.9228
G01 X66.7119 Y0.9327
G01 X66.7168 Y0.9815
G01 X66.7178 Y1.0160
G01 X66.7178 Y2.5194
G01 X69.0562 Y4.8578
G01 X69.0732 Y4.8755
G01 X69.0799 Y4.8829
G01 X69.1110 Y4.9209
G01 X69.1169 Y4.9289
G01 X69.1442 Y4.9697
G01 X69.1493 Y4.9782
G01 X69.1724 Y5.0215
G01 X69.1767 Y5.0305
G01 X69.1955 Y5.0759
G01 X69.1988 Y5.0852
G01 X69.2131 Y5.1322
G01 X69.2155 Y5.1419
G01 X69.2251 Y5.1900
G01 X69.2265 Y5.1999
G01 X69.2314 Y5.2487
G01 X69.2324 Y5.2832
G01 X69.2324 Y24.4843
G00 X69.2324 Y24.4843
G01 F60.00
G01 Z-1.8000
G01 F120.00
G01 X69.2324 Y5.2832
G01 X69.2314 Y5.2487
G01 X69.2265 Y5.1999
G01 X69.2251 Y5.1900
G01 X69.2155 Y5.1419
G01 X69.2131 Y5.1322
G01 X69.1988 Y5.0852
G01 X69.1955 Y5.0759
G01 X69.1767 Y5.0305
G01 X69.1724 Y5.0215
G01 X69.1493 Y4.9782
G01 X69.1442 Y4.9697
G01 X69.1169 Y4.9289
G01 X69.1110 Y4.9209
G01 X69.0799 Y4.8829
G01 X69.0732 Y4.8755
G01 X69.0562 Y4.8578
G01 X66.7178 Y2.5194
G01 X66.7178 Y1.0160
G01 X66.7168 Y0.9815
G01 X66.7119 Y0.9327
G01 X66.7105 Y0.9228
G01 X66.7009 Y0.8747
G01 X66.6985 Y0.8650
G01 X66.6895 Y0.8352
G01 X66.6865 Y0.8057
G01 X66.6851 Y0.7958
G01 X66.6755 Y0.7477
G01 X66.6731 Y0.7380
G01 X66.6588 Y0.6910
G01 X66.6555 Y0.6817
G01 X66.6483 Y0.6644
G01 X66.6334 Y0.6148
G01 X66.6301 Y0.6055
G01 X66.6229 Y0.5882
G01 X66.6080 Y0.5386
G01 X66.6047 Y0.5293
G01 X66.5859 Y0.4839
G01 X66.5816 Y0.4749
G01 X66.5646 Y0.4431
G01 X66.5605 Y0.4331
G01 X66.5562 Y0.4241
G01 X66.5331 Y0.3808
G01 X66.5280 Y0.3723
G01 X66.5007 Y0.3315
G01 X66.4948 Y0.3235
G01 X66.4879 Y0.3151
G01 X66.4823 Y0.3046
G01 X66.4772 Y0.2961
G01 X66.4499 Y0.2553
G01 X66.4440 Y0.2473
G01 X66.4129 Y0.2093
G01 X66.4043 Y0.2000
G01 X66.4010 Y0.1945
G01 X66.3737 Y0.1537
G01 X66.3678 Y0.1457
G01 X66.3367 Y0.1077
G01 X66.3130 Y0.0826
G01 X66.2368 Y0.0064
G01 X66.2117 Y-0.0173
G01 X66.1737 Y-0.0484
G01 X66.1657 Y-0.0543
G01 X66.1249 Y-0.0816
G01 X66.1164 Y-0.0867
G01 X66.1059 Y-0.0923
G01 X66.0975 Y-0.0992
G01 X66.0895 Y-0.1051
G01 X66.0487 Y-0.1324
G01 X66.0402 Y-0.1375
G01 X66.0297 Y-0.1431
G01 X66.0213 Y-0.1500
G01 X66.0133 Y-0.1559
G01 X65.9725 Y-0.1832
G01 X65.9640 Y-0.1883
G01 X65.9207 Y-0.2114
G01 X65.9117 Y-0.2157
G01 X65.9017 Y-0.2198
G01 X65.8699 Y-0.2368
G01 X65.8609 Y-0.2411
G01 X65.8509 Y-0.2452
G01 X65.8191 Y-0.2622
G01 X65.8101 Y-0.2665
G01 X65.7647 Y-0.2853
G01 X65.7554 Y-0.2886
G01 X65.7058 Y-0.3035
G01 X65.6885 Y-0.3107
G01 X65.6792 Y-0.3140
G01 X65.6322 Y-0.3283
G01 X65.6225 Y-0.3307
G01 X65.5755 Y-0.3401
G01 X65.5306 Y-0.3537
G01 X65.5209 Y-0.3561
G01 X65.4728 Y-0.3657
G01 X65.4629 Y-0.3671
G01 X65.4141 Y-0.3720
G01 X65.3796 Y-0.3730
G01 X36.9551 Y-0.3730
G00 Z2.0000
M05
G00 Z2.0000
G00 Z15.00


